; generated by PrusaSlicer 2.3.1+win64 on 2021-05-19 at 17:08:30 UTC

; 

; external perimeters extrusion width = 0.45mm
; perimeters extrusion width = 0.45mm
; infill extrusion width = 0.45mm
; solid infill extrusion width = 0.45mm
; top infill extrusion width = 0.40mm
; support material extrusion width = 0.35mm
; first layer extrusion width = 0.42mm

M73 P0 R46
M73 Q0 S46
M201 X1000 Y1000 Z200 E5000 ; sets maximum accelerations, mm/sec^2
M203 X200 Y200 Z12 E120 ; sets maximum feedrates, mm/sec
M204 P1250 R1250 T1250 ; sets acceleration (P, T) and retract acceleration (R), mm/sec^2
M205 X8.00 Y8.00 Z0.40 E4.50 ; sets the jerk limits, mm/sec
M205 S0 T0 ; sets the minimum extruding and travel feed rate, mm/sec
M107
;TYPE:Custom
M862.3 P "MK3S" ; printer model check
M862.1 P0.4 ; nozzle diameter check
M115 U3.9.3 ; tell printer latest fw version
G90 ; use absolute coordinates
M83 ; extruder relative mode
M104 S215 ; set extruder temp
M140 S60 ; set bed temp
M190 S60 ; wait for bed temp
M109 S215 ; wait for extruder temp
G28 W ; home all without mesh bed level
G80 ; mesh bed leveling
G1 Y-3.0 F1000.0 ; go outside print area
G92 E0.0
G1 X60.0 E9.0 F1000.0 ; intro line
G1 X100.0 E12.5 F1000.0 ; intro line
G92 E0.0
M221 S95

; Don't change E values below. Excessive value can damage the printer.
M907 E430 ; set extruder motor current
G21 ; set units to millimeters
G90 ; use absolute coordinates
M83 ; use relative distances for extrusion
M900 K0.05 ; Filament gcode LA 1.5
M900 K30 ; Filament gcode LA 1.0
;LAYER_CHANGE
;Z:0.2
;HEIGHT:0.2
;BEFORE_LAYER_CHANGE
G92 E0.0
;0.2


G1 E-0.80000 F2100.000
G1 Z0.400 F10800.000
;AFTER_LAYER_CHANGE
;0.2
G1 X105.288 Y88.600
G1 Z0.200
G1 E0.80000 F2100.000
M204 S1000
;TYPE:Skirt
;WIDTH:0.42
G1 F1200.000
G1 X105.724 Y88.068 E0.02154
G1 X115.925 Y79.285 E0.42207
G1 X116.643 Y78.869 E0.02602
G1 X117.464 Y78.725 E0.02614
G1 X132.587 Y78.895 E0.47422
G1 X133.355 Y79.038 E0.02449
G1 X134.056 Y79.439 E0.02532
G1 X144.211 Y88.011 E0.41668
G1 X144.763 Y88.690 E0.02743
G1 X144.977 Y89.230 E0.01823
G1 X145.052 Y89.807 E0.01823
G1 X145.051 Y125.232 E1.11074
G1 X144.956 Y125.844 E0.01941
G1 X144.704 Y126.413 E0.01953
G1 X144.313 Y126.898 E0.01953
G1 X143.809 Y127.264 E0.01953
G1 X143.271 Y127.476 E0.01811
G1 X142.695 Y127.552 E0.01823
G1 X107.268 Y127.551 E1.11080
G1 X106.656 Y127.456 E0.01941
G1 X106.087 Y127.204 E0.01953
G1 X105.602 Y126.813 E0.01953
G1 X105.236 Y126.309 E0.01953
G1 X105.023 Y125.768 E0.01823
G1 X104.948 Y125.188 E0.01835
G1 X104.948 Y89.821 E1.10889
G1 X105.023 Y89.233 E0.01858
G1 X105.265 Y88.655 E0.01966
; printing object Wrist-cover.stl id:0 copy 0
;WIPE_START
G1 F8640.000
G1 X105.724 Y88.068 E-0.17196
G1 X107.654 Y86.407 E-0.58804
;WIPE_END
G1 E-0.04000 F2100.000
G1 Z0.600 F10800.000
G1 X132.542 Y89.581
G1 Z0.200
G1 E0.80000 F2100.000
;TYPE:Support material
G1 F1200.000
G1 X132.542 Y81.271 E0.26055
G1 X131.787 Y81.271 E0.02365
G1 X131.787 Y89.411 E0.25523
G1 X131.033 Y89.411 E0.02365
G1 X131.033 Y81.271 E0.25523
G1 X130.279 Y81.271 E0.02365
G1 X130.279 Y89.411 E0.25523
G1 X129.525 Y89.411 E0.02365
G1 X129.525 Y81.271 E0.25523
G1 X128.771 Y81.271 E0.02365
G1 X128.771 Y89.411 E0.25523
G1 X128.017 Y89.411 E0.02365
G1 X128.017 Y81.271 E0.25523
G1 X127.262 Y81.271 E0.02365
G1 X127.262 Y89.411 E0.25523
G1 X126.508 Y89.411 E0.02365
G1 X126.508 Y81.271 E0.25523
G1 X125.754 Y81.271 E0.02365
G1 X125.754 Y89.411 E0.25523
G1 X125.000 Y89.411 E0.02365
G1 X125.000 Y81.271 E0.25523
G1 X124.246 Y81.271 E0.02365
G1 X124.246 Y89.411 E0.25523
G1 X123.492 Y89.411 E0.02365
G1 X123.492 Y81.271 E0.25523
G1 X122.738 Y81.271 E0.02365
G1 X122.738 Y89.411 E0.25523
G1 X121.983 Y89.411 E0.02365
G1 X121.983 Y81.271 E0.25523
G1 X121.229 Y81.271 E0.02365
G1 X121.229 Y89.411 E0.25523
G1 X120.475 Y89.411 E0.02365
G1 X120.475 Y81.271 E0.25523
G1 X119.721 Y81.271 E0.02365
G1 X119.721 Y89.411 E0.25523
G1 X118.967 Y89.411 E0.02365
G1 X118.967 Y81.271 E0.25523
G1 X118.213 Y81.271 E0.02365
G1 X118.213 Y89.411 E0.25523
G1 X117.458 Y89.411 E0.02365
G1 X117.458 Y81.102 E0.26055
;WIPE_START
G1 F8640.000
G1 X117.458 Y84.393 E-0.76000
;WIPE_END
G1 E-0.04000 F2100.000
G1 Z0.600 F10800.000
G1 X108.112 Y90.612
G1 Z0.200
G1 E0.80000 F2100.000
;TYPE:Perimeter
G1 F1200.000
G1 X141.888 Y90.612 E1.05902
M73 Q1 S46
G1 X141.888 Y124.388 E1.05902
M73 P1 R46
G1 X108.112 Y124.388 E1.05902
G1 X108.112 Y90.672 E1.05714
G1 X107.735 Y90.235 F10800.000
;TYPE:External perimeter
G1 F1200.000
G1 X142.265 Y90.235 E1.08266
G1 X142.265 Y124.765 E1.08266
G1 X107.735 Y124.765 E1.08266
G1 X107.735 Y90.295 E1.08078
G1 X108.121 Y90.339 F10800.000
;WIPE_START
G1 F8640.000
G1 X111.026 Y90.289 E-0.76000
;WIPE_END
G1 E-0.04000 F2100.000
G1 Z0.600 F10800.000
G1 X141.006 Y90.725
G1 Z0.200
G1 E0.80000 F2100.000
;TYPE:Solid infill
;WIDTH:0.422917
G1 F1200.000
G1 X141.605 Y91.324 E0.02676
G1 X141.605 Y91.861 E0.01698
G1 X140.639 Y90.895 E0.04319
G1 X140.101 Y90.895 E0.01698
G1 X141.605 Y92.399 E0.06720
G1 X141.605 Y92.936 E0.01698
G1 X139.564 Y90.895 E0.09121
G1 X139.026 Y90.895 E0.01698
G1 X141.605 Y93.474 E0.11523
G1 X141.605 Y94.011 E0.01698
G1 X138.489 Y90.895 E0.13924
G1 X137.952 Y90.895 E0.01698
G1 X141.605 Y94.548 E0.16325
G1 X141.605 Y95.086 E0.01698
G1 X137.414 Y90.895 E0.18727
G1 X136.877 Y90.895 E0.01698
G1 X141.605 Y95.623 E0.21128
G1 X141.605 Y96.161 E0.01698
G1 X136.339 Y90.895 E0.23529
G1 X135.802 Y90.895 E0.01698
G1 X141.605 Y96.698 E0.25931
G1 X141.605 Y97.235 E0.01698
G1 X135.265 Y90.895 E0.28332
G1 X134.727 Y90.895 E0.01698
G1 X141.605 Y97.773 E0.30733
M73 P1 R45
G1 X141.605 Y98.310 E0.01698
G1 X134.190 Y90.895 E0.33135
G1 X133.652 Y90.895 E0.01698
G1 X141.605 Y98.848 E0.35536
G1 X141.605 Y99.385 E0.01698
G1 X133.115 Y90.895 E0.37938
G1 X132.578 Y90.895 E0.01698
G1 X141.605 Y99.922 E0.40339
G1 X141.605 Y100.460 E0.01698
G1 X132.040 Y90.895 E0.42740
G1 X131.503 Y90.895 E0.01698
G1 X141.605 Y100.997 E0.45142
G1 X141.605 Y101.535 E0.01698
G1 X130.965 Y90.895 E0.47543
G1 X130.428 Y90.895 E0.01698
G1 X141.605 Y102.072 E0.49944
G1 X141.605 Y102.609 E0.01698
G1 X129.891 Y90.895 E0.52346
G1 X129.353 Y90.895 E0.01698
G1 X141.605 Y103.147 E0.54747
G1 X141.605 Y103.684 E0.01698
G1 X128.816 Y90.895 E0.57148
M73 Q1 S45
G1 X128.279 Y90.895 E0.01698
G1 X141.605 Y104.221 E0.59550
G1 X141.605 Y104.759 E0.01698
G1 X127.741 Y90.895 E0.61951
G1 X127.204 Y90.895 E0.01698
G1 X141.605 Y105.296 E0.64352
M73 P2 R45
M73 Q2 S45
G1 X141.605 Y105.834 E0.01698
G1 X126.666 Y90.895 E0.66754
G1 X126.129 Y90.895 E0.01698
G1 X141.605 Y106.371 E0.69155
G1 X141.605 Y106.908 E0.01698
G1 X125.592 Y90.895 E0.71556
G1 X125.054 Y90.895 E0.01698
G1 X141.605 Y107.446 E0.73958
G1 X141.605 Y107.983 E0.01698
G1 X124.517 Y90.895 E0.76359
G1 X123.979 Y90.895 E0.01698
G1 X141.605 Y108.521 E0.78760
G1 X141.605 Y109.058 E0.01698
G1 X123.442 Y90.895 E0.81162
G1 X122.905 Y90.895 E0.01698
G1 X141.605 Y109.595 E0.83563
G1 X141.605 Y110.133 E0.01698
G1 X122.367 Y90.895 E0.85964
G1 X121.830 Y90.895 E0.01698
G1 X141.605 Y110.670 E0.88366
G1 X141.605 Y111.208 E0.01698
G1 X121.292 Y90.895 E0.90767
G1 X120.755 Y90.895 E0.01698
G1 X141.605 Y111.745 E0.93168
G1 X141.605 Y112.282 E0.01698
G1 X120.218 Y90.895 E0.95570
G1 X119.680 Y90.895 E0.01698
G1 X141.605 Y112.820 E0.97971
G1 X141.605 Y113.357 E0.01698
G1 X119.143 Y90.895 E1.00372
G1 X118.605 Y90.895 E0.01698
G1 X141.605 Y113.895 E1.02774
G1 X141.605 Y114.432 E0.01698
G1 X118.068 Y90.895 E1.05175
G1 X117.531 Y90.895 E0.01698
G1 X141.605 Y114.969 E1.07576
G1 X141.605 Y115.507 E0.01698
G1 X116.993 Y90.895 E1.09978
G1 X116.456 Y90.895 E0.01698
G1 X141.605 Y116.044 E1.12379
M73 P3 R45
M73 Q3 S45
G1 X141.605 Y116.582 E0.01698
G1 X115.918 Y90.895 E1.14781
G1 X115.381 Y90.895 E0.01698
G1 X141.605 Y117.119 E1.17182
G1 X141.605 Y117.656 E0.01698
G1 X114.844 Y90.895 E1.19583
G1 X114.306 Y90.895 E0.01698
G1 X141.605 Y118.194 E1.21985
G1 X141.605 Y118.731 E0.01698
G1 X113.769 Y90.895 E1.24386
G1 X113.231 Y90.895 E0.01698
G1 X141.605 Y119.269 E1.26787
G1 X141.605 Y119.806 E0.01698
G1 X112.694 Y90.895 E1.29189
G1 X112.157 Y90.895 E0.01698
G1 X141.605 Y120.343 E1.31590
G1 X141.605 Y120.881 E0.01698
G1 X111.619 Y90.895 E1.33991
G1 X111.082 Y90.895 E0.01698
G1 X141.605 Y121.418 E1.36393
M73 P3 R44
G1 X141.605 Y121.956 E0.01698
G1 X110.544 Y90.895 E1.38794
G1 X110.007 Y90.895 E0.01698
G1 X141.605 Y122.493 E1.41195
G1 X141.605 Y123.030 E0.01698
G1 X109.470 Y90.895 E1.43597
M73 P4 R44
M73 Q4 S45
G1 X108.932 Y90.895 E0.01698
G1 X141.605 Y123.568 E1.45998
M73 Q4 S44
G1 X141.605 Y124.105 E0.01698
G1 X108.395 Y90.895 E1.48399
G1 X108.395 Y91.432 E0.01698
G1 X141.068 Y124.105 E1.45998
G1 X140.530 Y124.105 E0.01698
G1 X108.395 Y91.970 E1.43596
G1 X108.395 Y92.507 E0.01698
G1 X139.993 Y124.105 E1.41195
G1 X139.455 Y124.105 E0.01698
G1 X108.395 Y93.045 E1.38793
G1 X108.395 Y93.582 E0.01698
G1 X138.918 Y124.105 E1.36392
G1 X138.381 Y124.105 E0.01698
G1 X108.395 Y94.119 E1.33991
G1 X108.395 Y94.657 E0.01698
G1 X137.843 Y124.105 E1.31589
G1 X137.306 Y124.105 E0.01698
G1 X108.395 Y95.194 E1.29188
G1 X108.395 Y95.732 E0.01698
G1 X136.768 Y124.105 E1.26787
G1 X136.231 Y124.105 E0.01698
G1 X108.395 Y96.269 E1.24385
G1 X108.395 Y96.806 E0.01698
G1 X135.694 Y124.105 E1.21984
M73 P5 R44
M73 Q5 S44
G1 X135.156 Y124.105 E0.01698
G1 X108.395 Y97.344 E1.19583
G1 X108.395 Y97.881 E0.01698
G1 X134.619 Y124.105 E1.17181
G1 X134.082 Y124.105 E0.01698
G1 X108.395 Y98.418 E1.14780
G1 X108.395 Y98.956 E0.01698
G1 X133.544 Y124.105 E1.12379
G1 X133.007 Y124.105 E0.01698
G1 X108.395 Y99.493 E1.09977
G1 X108.395 Y100.031 E0.01698
G1 X132.469 Y124.105 E1.07576
G1 X131.932 Y124.105 E0.01698
G1 X108.395 Y100.568 E1.05175
G1 X108.395 Y101.105 E0.01698
G1 X131.395 Y124.105 E1.02773
G1 X130.857 Y124.105 E0.01698
G1 X108.395 Y101.643 E1.00372
G1 X108.395 Y102.180 E0.01698
G1 X130.320 Y124.105 E0.97971
G1 X129.782 Y124.105 E0.01698
G1 X108.395 Y102.718 E0.95569
G1 X108.395 Y103.255 E0.01698
G1 X129.245 Y124.105 E0.93168
G1 X128.708 Y124.105 E0.01698
G1 X108.395 Y103.792 E0.90767
G1 X108.395 Y104.330 E0.01698
G1 X128.170 Y124.105 E0.88365
G1 X127.633 Y124.105 E0.01698
G1 X108.395 Y104.867 E0.85964
M73 P5 R43
G1 X108.395 Y105.405 E0.01698
G1 X127.095 Y124.105 E0.83563
M73 P6 R43
G1 X126.558 Y124.105 E0.01698
G1 X108.395 Y105.942 E0.81161
M73 Q6 S44
G1 X108.395 Y106.479 E0.01698
G1 X126.021 Y124.105 E0.78760
G1 X125.483 Y124.105 E0.01698
G1 X108.395 Y107.017 E0.76359
G1 X108.395 Y107.554 E0.01698
G1 X124.946 Y124.105 E0.73957
G1 X124.408 Y124.105 E0.01698
G1 X108.395 Y108.092 E0.71556
M73 Q6 S43
G1 X108.395 Y108.629 E0.01698
G1 X123.871 Y124.105 E0.69155
G1 X123.334 Y124.105 E0.01698
G1 X108.395 Y109.166 E0.66753
G1 X108.395 Y109.704 E0.01698
G1 X122.796 Y124.105 E0.64352
G1 X122.259 Y124.105 E0.01698
G1 X108.395 Y110.241 E0.61950
G1 X108.395 Y110.779 E0.01698
G1 X121.721 Y124.105 E0.59549
G1 X121.184 Y124.105 E0.01698
G1 X108.395 Y111.316 E0.57148
G1 X108.395 Y111.853 E0.01698
G1 X120.647 Y124.105 E0.54746
G1 X120.109 Y124.105 E0.01698
G1 X108.395 Y112.391 E0.52345
G1 X108.395 Y112.928 E0.01698
G1 X119.572 Y124.105 E0.49944
G1 X119.034 Y124.105 E0.01698
G1 X108.395 Y113.466 E0.47542
G1 X108.395 Y114.003 E0.01698
G1 X118.497 Y124.105 E0.45141
G1 X117.960 Y124.105 E0.01698
G1 X108.395 Y114.540 E0.42740
G1 X108.395 Y115.078 E0.01698
G1 X117.422 Y124.105 E0.40338
G1 X116.885 Y124.105 E0.01698
G1 X108.395 Y115.615 E0.37937
G1 X108.395 Y116.153 E0.01698
G1 X116.347 Y124.105 E0.35536
G1 X115.810 Y124.105 E0.01698
G1 X108.395 Y116.690 E0.33134
G1 X108.395 Y117.227 E0.01698
G1 X115.273 Y124.105 E0.30733
G1 X114.735 Y124.105 E0.01698
G1 X108.395 Y117.765 E0.28332
G1 X108.395 Y118.302 E0.01698
G1 X114.198 Y124.105 E0.25930
G1 X113.660 Y124.105 E0.01698
G1 X108.395 Y118.840 E0.23529
G1 X108.395 Y119.377 E0.01698
G1 X113.123 Y124.105 E0.21128
G1 X112.586 Y124.105 E0.01698
G1 X108.395 Y119.914 E0.18726
G1 X108.395 Y120.452 E0.01698
G1 X112.048 Y124.105 E0.16325
G1 X111.511 Y124.105 E0.01698
G1 X108.395 Y120.989 E0.13924
G1 X108.395 Y121.527 E0.01698
G1 X110.973 Y124.105 E0.11522
G1 X110.436 Y124.105 E0.01698
G1 X108.395 Y122.064 E0.09121
G1 X108.395 Y122.601 E0.01698
G1 X109.899 Y124.105 E0.06720
G1 X109.361 Y124.105 E0.01698
G1 X108.395 Y123.139 E0.04318
G1 X108.395 Y123.676 E0.01698
G1 X108.994 Y124.275 E0.02675
; stop printing object Wrist-cover.stl id:0 copy 0
M106 S84.15
;LAYER_CHANGE
;Z:0.4
;HEIGHT:0.2
;BEFORE_LAYER_CHANGE
G92 E0.0
;0.4


;WIPE_START
G1 F8640.000
G1 X108.395 Y123.676 E-0.19549
G1 X108.395 Y123.139 E-0.12409
G1 X109.361 Y124.105 E-0.31557
G1 X109.899 Y124.105 E-0.12409
G1 X109.896 Y124.103 E-0.00077
;WIPE_END
G1 E-0.04000 F2100.000
G1 Z0.600 F10800.000
;AFTER_LAYER_CHANGE
;0.4
G1 X106.656 Y127.456
G1 Z0.400
G1 E0.80000 F2100.000
;TYPE:Skirt
;WIDTH:0.42
G1 F3000.000
G1 X106.087 Y127.204 E0.01953
G1 X105.602 Y126.813 E0.01953
G1 X105.236 Y126.309 E0.01953
G1 X105.023 Y125.768 E0.01823
G1 X104.948 Y125.188 E0.01835
G1 X104.948 Y89.821 E1.10889
G1 X105.023 Y89.233 E0.01858
G1 X105.288 Y88.600 E0.02154
G1 X105.724 Y88.068 E0.02154
G1 X115.925 Y79.285 E0.42207
G1 X116.643 Y78.869 E0.02602
G1 X117.464 Y78.725 E0.02614
G1 X132.587 Y78.895 E0.47422
G1 X133.355 Y79.038 E0.02449
G1 X134.056 Y79.439 E0.02532
G1 X144.211 Y88.011 E0.41668
G1 X144.763 Y88.690 E0.02743
G1 X144.977 Y89.230 E0.01823
G1 X145.052 Y89.807 E0.01823
G1 X145.051 Y125.232 E1.11074
G1 X144.956 Y125.844 E0.01941
G1 X144.704 Y126.413 E0.01953
G1 X144.313 Y126.898 E0.01953
G1 X143.809 Y127.264 E0.01953
G1 X143.271 Y127.476 E0.01811
G1 X142.695 Y127.552 E0.01823
G1 X107.268 Y127.551 E1.11080
G1 X106.715 Y127.465 E0.01753
; printing object Wrist-cover.stl id:0 copy 0
;WIPE_START
G1 F8640.000
G1 X106.087 Y127.204 E-0.15725
G1 X105.602 Y126.813 E-0.14383
G1 X105.236 Y126.309 E-0.14382
G1 X105.023 Y125.768 E-0.13423
G1 X104.948 Y125.188 E-0.13510
G1 X104.948 Y124.989 E-0.04577
;WIPE_END
G1 E-0.04000 F2100.000
G1 Z0.800 F10800.000
G1 X107.957 Y124.543
M73 P7 R43
G1 Z0.400
G1 E0.80000 F2100.000
M204 S800
;TYPE:Perimeter
;WIDTH:0.45
M73 Q7 S43
G1 F2700.000
G1 X107.957 Y90.457 E1.15377
G1 X142.043 Y90.457 E1.15377
G1 X142.043 Y124.543 E1.15377
G1 X108.017 Y124.543 E1.15173
M204 S1000
G1 X107.550 Y124.950 F10800.000
M204 S800
;TYPE:External perimeter
G1 F1500.000
G1 X107.550 Y90.050 E1.18132
G1 X142.450 Y90.050 E1.18132
G1 X142.450 Y124.950 E1.18132
G1 X107.610 Y124.950 E1.17929
M204 S1000
G1 X107.654 Y124.564 F10800.000
;WIPE_START
G1 F8640.000
G1 X107.604 Y121.659 E-0.76000
;WIPE_END
G1 E-0.04000 F2100.000
G1 Z0.800 F10800.000
G1 X108.907 Y90.579
G1 Z0.400
G1 E0.80000 F2100.000
;TYPE:Solid infill
;WIDTH:0.452465
G1 F4800.000
G1 X108.262 Y91.224 E0.03106
G1 X108.262 Y91.803 E0.01972
G1 X109.303 Y90.762 E0.05013
G1 X109.882 Y90.762 E0.01972
G1 X108.262 Y92.382 E0.07802
G1 X108.262 Y92.962 E0.01972
G1 X110.462 Y90.762 E0.10591
G1 X111.041 Y90.762 E0.01972
G1 X108.262 Y93.541 E0.13381
G1 X108.262 Y94.120 E0.01972
G1 X111.620 Y90.762 E0.16170
G1 X112.199 Y90.762 E0.01972
G1 X108.262 Y94.699 E0.18959
G1 X108.262 Y95.278 E0.01972
G1 X112.778 Y90.762 E0.21749
G1 X113.358 Y90.762 E0.01972
G1 X108.262 Y95.858 E0.24538
G1 X108.262 Y96.437 E0.01972
G1 X113.937 Y90.762 E0.27327
G1 X114.516 Y90.762 E0.01972
G1 X108.262 Y97.016 E0.30117
G1 X108.262 Y97.595 E0.01972
G1 X115.095 Y90.762 E0.32906
G1 X115.674 Y90.762 E0.01972
G1 X108.262 Y98.174 E0.35695
G1 X108.262 Y98.753 E0.01972
G1 X116.253 Y90.762 E0.38485
G1 X116.833 Y90.762 E0.01972
G1 X108.262 Y99.333 E0.41274
G1 X108.262 Y99.912 E0.01972
G1 X117.412 Y90.762 E0.44063
G1 X117.991 Y90.762 E0.01972
G1 X108.262 Y100.491 E0.46853
G1 X108.262 Y101.070 E0.01972
G1 X118.570 Y90.762 E0.49642
G1 X119.149 Y90.762 E0.01972
G1 X108.262 Y101.649 E0.52431
G1 X108.262 Y102.229 E0.01972
G1 X119.729 Y90.762 E0.55220
G1 X120.308 Y90.762 E0.01972
G1 X108.262 Y102.808 E0.58010
G1 X108.262 Y103.387 E0.01972
G1 X120.887 Y90.762 E0.60799
G1 X121.466 Y90.762 E0.01972
G1 X108.262 Y103.966 E0.63588
G1 X108.262 Y104.545 E0.01972
G1 X122.045 Y90.762 E0.66378
G1 X122.625 Y90.762 E0.01972
G1 X108.262 Y105.125 E0.69167
