; generated by PrusaSlicer 2.3.1+win64 on 2021-06-19 at 10:54:47 UTC

; 

; external perimeters extrusion width = 0.45mm
; perimeters extrusion width = 0.45mm
; infill extrusion width = 0.45mm
; solid infill extrusion width = 0.45mm
; top infill extrusion width = 0.40mm
; support material extrusion width = 0.35mm
; first layer extrusion width = 0.42mm

M73 P0 R92
M73 Q0 S92
M201 X1000 Y1000 Z200 E5000 ; sets maximum accelerations, mm/sec^2
M203 X200 Y200 Z12 E120 ; sets maximum feedrates, mm/sec
M204 P1250 R1250 T1250 ; sets acceleration (P, T) and retract acceleration (R), mm/sec^2
M205 X8.00 Y8.00 Z0.40 E4.50 ; sets the jerk limits, mm/sec
M205 S0 T0 ; sets the minimum extruding and travel feed rate, mm/sec
M107
;TYPE:Custom
M862.3 P "MK3S" ; printer model check
M862.1 P0.4 ; nozzle diameter check
M115 U3.9.3 ; tell printer latest fw version
G90 ; use absolute coordinates
M83 ; extruder relative mode
M104 S215 ; set extruder temp
M140 S60 ; set bed temp
M190 S60 ; wait for bed temp
M109 S215 ; wait for extruder temp
G28 W ; home all without mesh bed level
G80 ; mesh bed leveling
G1 Y-3.0 F1000.0 ; go outside print area
G92 E0.0
G1 X60.0 E9.0 F1000.0 ; intro line
G1 X100.0 E12.5 F1000.0 ; intro line
G92 E0.0
M221 S95

; Don't change E values below. Excessive value can damage the printer.
M907 E430 ; set extruder motor current
G21 ; set units to millimeters
G90 ; use absolute coordinates
M83 ; use relative distances for extrusion
M900 K0.05 ; Filament gcode LA 1.5
M900 K30 ; Filament gcode LA 1.0
;LAYER_CHANGE
;Z:0.2
;HEIGHT:0.2
;BEFORE_LAYER_CHANGE
G92 E0.0
;0.2


M73 P0 R91
G1 E-0.80000 F2100.000
G1 Z0.400 F10800.000
;AFTER_LAYER_CHANGE
;0.2
G1 X96.212 Y83.601
G1 Z0.200
G1 E0.80000 F2100.000
M204 S1000
;TYPE:Skirt
;WIDTH:0.42
G1 F1200.000
G1 X100.146 Y79.126 E0.18684
G1 X104.625 Y75.470 E0.18127
G1 X109.794 Y72.513 E0.18672
G1 X115.017 Y70.540 E0.17507
G1 X120.490 Y69.414 E0.17519
G1 X126.352 Y69.150 E0.18398
G1 X132.283 Y69.872 E0.18734
G1 X137.657 Y71.431 E0.17543
G1 X140.593 Y72.750 E0.10094
G1 X142.986 Y73.958 E0.08405
G1 X146.785 Y76.515 E0.14356
G1 X147.801 Y77.306 E0.04039
G1 X151.794 Y81.144 E0.17366
G1 X155.322 Y85.824 E0.18377
G1 X158.044 Y91.032 E0.18424
G1 X159.858 Y96.521 E0.18126
G1 X160.753 Y102.032 E0.17507
G1 X160.866 Y105.271 E0.10161
G1 X160.751 Y107.985 E0.08516
G1 X159.855 Y113.496 E0.17506
G1 X158.038 Y118.984 E0.18126
G1 X155.323 Y124.174 E0.18365
G1 X151.780 Y128.871 E0.18448
G1 X147.539 Y132.904 E0.18351
G1 X142.939 Y136.070 E0.17507
G1 X137.891 Y138.474 E0.17531
G1 X132.181 Y140.151 E0.18661
G1 X126.350 Y140.850 E0.18412
G1 X120.489 Y140.585 E0.18398
G1 X115.019 Y139.461 E0.17507
G1 X109.792 Y137.487 E0.17519
G1 X104.627 Y134.531 E0.18661
G1 X100.145 Y130.873 E0.18139
G1 X96.213 Y126.400 E0.18672
G1 X93.233 Y121.674 E0.17519
G1 X91.037 Y116.540 E0.17507
G1 X89.589 Y110.764 E0.18672
G1 X89.123 Y105.001 E0.18127
M73 Q0 S91
G1 X89.589 Y99.238 E0.18127
G1 X91.037 Y93.460 E0.18679
G1 X93.232 Y88.328 E0.17500
G1 X96.180 Y83.652 E0.17331
; printing object Joint 3 limit trigger.STL id:0 copy 0
;WIPE_START
G1 F8640.000
G1 X98.349 Y81.177 E-0.76000
;WIPE_END
G1 E-0.04000 F2100.000
G1 Z0.600 F10800.000
G1 X109.163 Y92.572
G1 Z0.200
G1 E0.80000 F2100.000
;TYPE:Support material
G1 F1200.000
G1 X109.163 Y94.275 E0.05339
G1 X109.367 Y95.037 E0.02474
G1 X109.917 Y95.587 E0.02438
G1 X109.917 Y91.915 E0.11512
G1 X110.308 Y91.524 E0.01736
G1 X110.671 Y91.427 E0.01177
G1 X110.671 Y96.076 E0.14577
G1 X111.425 Y96.278 E0.02448
G1 X111.425 Y91.225 E0.15844
G1 X111.594 Y91.179 E0.00549
G1 X112.179 Y91.336 E0.01899
G1 X112.179 Y96.166 E0.15145
G1 X112.880 Y95.979 E0.02275
G1 X112.933 Y95.925 E0.00236
G1 X112.933 Y91.577 E0.13633
G1 X113.688 Y92.331 E0.03344
G1 X113.688 Y95.411 E0.09656
;WIPE_START
G1 F8640.000
G1 X113.688 Y92.331 E-0.71110
G1 X113.538 Y92.182 E-0.04890
;WIPE_END
G1 E-0.04000 F2100.000
G1 Z0.600 F10800.000
G1 X115.950 Y96.837
G1 Z0.200
G1 E0.80000 F2100.000
G1 F1200.000
G1 X115.950 Y97.391 E0.01738
;WIPE_START
G1 F8640.000
G1 X115.950 Y96.837 E-0.12798
;WIPE_END
G1 E-0.67202 F2100.000
G1 Z0.600 F10800.000
G1 X123.492 Y93.415
G1 Z0.200
G1 E0.80000 F2100.000
G1 F1200.000
G1 X123.492 Y93.116 E0.00940
G1 X124.246 Y93.016 E0.02385
G1 X124.246 Y93.213 E0.00617
;WIPE_START
G1 F8640.000
G1 X124.246 Y93.016 E-0.04546
G1 X123.492 Y93.116 E-0.17564
G1 X123.492 Y93.415 E-0.06920
;WIPE_END
G1 E-0.50971 F2100.000
G1 Z0.600 F10800.000
G1 X125.754 Y89.040
G1 Z0.200
G1 E0.80000 F2100.000
G1 F1200.000
G1 X125.754 Y86.475 E0.08044
G1 X125.702 Y86.281 E0.00631
G1 X125.000 Y85.579 E0.03113
G1 X125.000 Y89.555 E0.12467
G1 X124.761 Y89.794 E0.01061
G1 X124.246 Y89.932 E0.01671
G1 X124.246 Y85.201 E0.14832
G1 X123.492 Y84.999 E0.02448
G1 X123.492 Y90.134 E0.16099
G1 X122.738 Y89.941 E0.02441
G1 X122.738 Y85.192 E0.14889
G1 X122.189 Y85.339 E0.01781
G1 X121.983 Y85.545 E0.00911
G1 X121.983 Y89.588 E0.12679
G1 X121.247 Y88.853 E0.03263
G1 X121.229 Y88.784 E0.00221
G1 X121.229 Y86.059 E0.08545
;WIPE_START
G1 F8640.000
G1 X121.229 Y88.784 E-0.62931
G1 X121.247 Y88.853 E-0.01629
G1 X121.598 Y89.203 E-0.11440
;WIPE_END
G1 E-0.04000 F2100.000
G1 Z0.600 F10800.000
G1 X138.575 Y93.021
G1 Z0.200
G1 E0.80000 F2100.000
G1 F1200.000
G1 X138.575 Y90.677 E0.07351
G1 X138.476 Y90.308 E0.01197
G1 X137.821 Y89.653 E0.02906
G1 X137.821 Y93.536 E0.12174
G1 X137.535 Y93.822 E0.01268
G1 X137.067 Y93.947 E0.01520
G1 X137.067 Y89.241 E0.14754
G1 X136.312 Y89.039 E0.02448
G1 X136.312 Y94.149 E0.16021
G1 X136.249 Y94.166 E0.00206
G1 X135.558 Y93.981 E0.02242
G1 X135.558 Y89.207 E0.14968
G1 X134.963 Y89.367 E0.01933
G1 X134.804 Y89.526 E0.00704
G1 X134.804 Y93.663 E0.12971
G1 X134.050 Y92.909 E0.03344
G1 X134.050 Y90.040 E0.08995
;WIPE_START
G1 F8640.000
G1 X134.050 Y92.909 E-0.66240
G1 X134.349 Y93.207 E-0.09760
;WIPE_END
G1 E-0.04000 F2100.000
G1 Z0.600 F10800.000
G1 X133.296 Y96.052
G1 Z0.200
G1 E0.80000 F2100.000
G1 F1200.000
G1 X133.296 Y96.637 E0.01835
;WIPE_START
G1 F8640.000
G1 X133.296 Y96.052 E-0.13510
;WIPE_END
G1 E-0.66490 F2100.000
G1 Z0.600 F10800.000
G1 X140.083 Y102.072
G1 Z0.200
G1 E0.80000 F2100.000
G1 F1200.000
G1 X140.083 Y104.302 E0.06993
G1 X140.206 Y104.761 E0.01489
G1 X140.837 Y105.392 E0.02799
G1 X140.837 Y101.558 E0.12022
G1 X141.147 Y101.247 E0.01375
G1 X141.591 Y101.128 E0.01441
G1 X141.591 Y105.821 E0.14713
G1 X142.346 Y106.023 E0.02448
G1 X142.346 Y100.926 E0.15980
G1 X142.433 Y100.903 E0.00285
G1 X143.100 Y101.081 E0.02163
G1 X143.100 Y105.868 E0.15008
G1 X143.719 Y105.702 E0.02011
G1 X143.854 Y105.567 E0.00597
G1 X143.854 Y101.382 E0.13123
G1 X144.608 Y102.136 E0.03344
G1 X144.608 Y105.053 E0.09146
;WIPE_START
G1 F8640.000
G1 X144.608 Y102.136 E-0.67354
G1 X144.343 Y101.871 E-0.08646
;WIPE_END
G1 E-0.04000 F2100.000
G1 Z0.600 F10800.000
G1 X140.837 Y117.428
G1 Z0.200
G1 E0.80000 F2100.000
G1 F1200.000
G1 X140.837 Y115.725 E0.05339
G1 X140.633 Y114.963 E0.02474
G1 X140.083 Y114.413 E0.02438
G1 X140.083 Y118.085 E0.11512
G1 X139.692 Y118.476 E0.01736
G1 X139.329 Y118.573 E0.01177
G1 X139.329 Y113.924 E0.14577
G1 X138.575 Y113.722 E0.02448
G1 X138.575 Y118.775 E0.15844
G1 X138.406 Y118.821 E0.00549
G1 X137.821 Y118.664 E0.01899
G1 X137.821 Y113.834 E0.15145
G1 X137.120 Y114.021 E0.02275
G1 X137.067 Y114.075 E0.00236
G1 X137.067 Y118.423 E0.13633
G1 X136.312 Y117.669 E0.03344
G1 X136.312 Y114.589 E0.09656
;WIPE_START
G1 F8640.000
G1 X136.312 Y117.669 E-0.71110
G1 X136.462 Y117.818 E-0.04890
;WIPE_END
G1 E-0.04000 F2100.000
G1 Z0.600 F10800.000
G1 X134.050 Y113.163
G1 Z0.200
G1 E0.80000 F2100.000
G1 F1200.000
G1 X134.050 Y112.609 E0.01738
;WIPE_START
G1 F8640.000
G1 X134.050 Y113.163 E-0.12798
;WIPE_END
G1 E-0.67202 F2100.000
G1 Z0.600 F10800.000
G1 X126.508 Y117.055
G1 Z0.200
G1 E0.80000 F2100.000
G1 F1200.000
G1 X126.508 Y116.760 E0.00925
G1 X125.754 Y116.962 E0.02448
G1 X125.754 Y117.155 E0.00603
;WIPE_START
G1 F8640.000
G1 X125.754 Y116.962 E-0.04441
G1 X126.508 Y116.760 E-0.18028
G1 X126.508 Y117.055 E-0.06815
;WIPE_END
G1 E-0.50716 F2100.000
G1 Z0.600 F10800.000
G1 X124.246 Y120.960
G1 Z0.200
G1 E0.80000 F2100.000
G1 F1200.000
G1 X124.246 Y123.525 E0.08044
G1 X124.298 Y123.719 E0.00631
G1 X125.000 Y124.421 E0.03113
G1 X125.000 Y120.445 E0.12467
G1 X125.239 Y120.206 E0.01061
G1 X125.754 Y120.068 E0.01671
G1 X125.754 Y124.799 E0.14832
G1 X126.508 Y125.001 E0.02448
G1 X126.508 Y119.866 E0.16099
G1 X127.262 Y120.059 E0.02441
G1 X127.262 Y124.808 E0.14889
G1 X127.811 Y124.661 E0.01781
G1 X128.017 Y124.455 E0.00911
G1 X128.017 Y120.412 E0.12679
G1 X128.753 Y121.147 E0.03263
G1 X128.771 Y121.216 E0.00221
G1 X128.771 Y123.941 E0.08545
;WIPE_START
G1 F8640.000
G1 X128.771 Y121.216 E-0.62931
G1 X128.753 Y121.147 E-0.01629
G1 X128.402 Y120.797 E-0.11440
;WIPE_END
G1 E-0.04000 F2100.000
G1 Z0.600 F10800.000
G1 X111.425 Y116.979
G1 Z0.200
G1 E0.80000 F2100.000
G1 F1200.000
G1 X111.425 Y119.323 E0.07351
G1 X111.524 Y119.692 E0.01197
G1 X112.179 Y120.347 E0.02906
G1 X112.179 Y116.464 E0.12174
G1 X112.465 Y116.178 E0.01268
G1 X112.933 Y116.053 E0.01520
G1 X112.933 Y120.759 E0.14754
G1 X113.688 Y120.961 E0.02448
G1 X113.688 Y115.851 E0.16021
G1 X113.751 Y115.834 E0.00206
G1 X114.442 Y116.019 E0.02242
G1 X114.442 Y120.793 E0.14968
G1 X115.037 Y120.633 E0.01933
G1 X115.196 Y120.474 E0.00704
G1 X115.196 Y116.337 E0.12971
G1 X115.950 Y117.091 E0.03344
G1 X115.950 Y119.960 E0.08995
;WIPE_START
G1 F8640.000
G1 X115.950 Y117.091 E-0.66239
G1 X115.651 Y116.793 E-0.09761
;WIPE_END
G1 E-0.04000 F2100.000
G1 Z0.600 F10800.000
G1 X116.704 Y113.948
G1 Z0.200
G1 E0.80000 F2100.000
G1 F1200.000
G1 X116.704 Y113.363 E0.01834
;WIPE_START
G1 F8640.000
G1 X116.704 Y113.948 E-0.13510
;WIPE_END
G1 E-0.66490 F2100.000
G1 Z0.600 F10800.000
G1 X109.917 Y107.928
G1 Z0.200
G1 E0.80000 F2100.000
G1 F1200.000
G1 X109.917 Y105.698 E0.06993
G1 X109.794 Y105.239 E0.01489
G1 X109.163 Y104.608 E0.02799
G1 X109.163 Y108.442 E0.12022
G1 X108.853 Y108.753 E0.01375
G1 X108.409 Y108.872 E0.01441
G1 X108.409 Y104.179 E0.14713
G1 X107.654 Y103.977 E0.02448
G1 X107.654 Y109.074 E0.15980
G1 X107.567 Y109.097 E0.00285
G1 X106.900 Y108.919 E0.02163
G1 X106.900 Y104.132 E0.15008
G1 X106.281 Y104.298 E0.02011
G1 X106.146 Y104.433 E0.00597
G1 X106.146 Y108.618 E0.13123
G1 X105.392 Y107.864 E0.03344
G1 X105.392 Y104.947 E0.09146
;WIPE_START
G1 F8640.000
G1 X105.392 Y107.864 E-0.67355
G1 X105.657 Y108.129 E-0.08645
;WIPE_END
G1 E-0.04000 F2100.000
G1 Z0.600 F10800.000
G1 X111.706 Y105.000
G1 Z0.200
G1 E0.80000 F2100.000
;TYPE:Perimeter
G1 F1200.000
G1 X112.159 Y101.559 E0.10881
G1 X113.487 Y98.353 E0.10881
G1 X115.600 Y95.600 E0.10881
G1 X118.353 Y93.487 E0.10881
G1 X121.559 Y92.159 E0.10881
G1 X125.000 Y91.706 E0.10881
G1 X128.441 Y92.159 E0.10881
G1 X131.647 Y93.487 E0.10881
G1 X134.400 Y95.600 E0.10881
G1 X136.513 Y98.353 E0.10881
G1 X137.841 Y101.559 E0.10881
G1 X138.294 Y105.000 E0.10881
G1 X137.841 Y108.441 E0.10881
G1 X136.513 Y111.647 E0.10881
G1 X134.400 Y114.400 E0.10881
G1 X131.647 Y116.513 E0.10881
G1 X128.441 Y117.841 E0.10881
G1 X125.000 Y118.294 E0.10881
G1 X121.559 Y117.841 E0.10881
G1 X118.353 Y116.513 E0.10881
G1 X115.600 Y114.400 E0.10881
G1 X113.487 Y111.647 E0.10881
G1 X112.159 Y108.441 E0.10881
G1 X111.714 Y105.059 E0.10693
G1 X112.088 Y105.010 F10800.000
;TYPE:External perimeter
G1 F1200.000
G1 X112.526 Y101.658 E0.10601
G1 X113.817 Y98.543 E0.10570
G1 X115.869 Y95.869 E0.10570
G1 X118.543 Y93.817 E0.10570
G1 X121.658 Y92.526 E0.10570
G1 X125.000 Y92.086 E0.10570
G1 X128.342 Y92.526 E0.10570
G1 X131.457 Y93.817 E0.10570
G1 X134.131 Y95.869 E0.10570
G1 X136.183 Y98.543 E0.10570
G1 X137.474 Y101.658 E0.10570
G1 X137.914 Y105.000 E0.10570
G1 X137.474 Y108.342 E0.10570
G1 X136.183 Y111.457 E0.10570
G1 X134.131 Y114.131 E0.10570
G1 X131.457 Y116.183 E0.10570
G1 X128.342 Y117.474 E0.10570
G1 X125.000 Y117.914 E0.10570
G1 X121.658 Y117.474 E0.10570
G1 X118.543 Y116.183 E0.10570
G1 X115.869 Y114.131 E0.10570
G1 X113.817 Y111.457 E0.10570
G1 X112.526 Y108.342 E0.10570
G1 X112.096 Y105.070 E0.10349
G1 X111.741 Y104.810 F10800.000
;WIPE_START
G1 F8640.000
G1 X112.508 Y101.804 E-0.76000
;WIPE_END
G1 E-0.04000 F2100.000
G1 Z0.600 F10800.000
G1 X121.567 Y90.870
G1 Z0.200
G1 E0.80000 F2100.000
;TYPE:Perimeter
G1 F1200.000
G1 X120.171 Y89.474 E0.06191
G1 X119.660 Y87.567 E0.06192
G1 X120.171 Y85.659 E0.06192
G1 X121.567 Y84.263 E0.06192
G1 X123.475 Y83.752 E0.06192
G1 X125.382 Y84.263 E0.06192
G1 X126.779 Y85.659 E0.06192
G1 X127.290 Y87.567 E0.06192
G1 X126.779 Y89.474 E0.06192
G1 X125.382 Y90.870 E0.06192
G1 X123.475 Y91.381 E0.06192
G1 X121.625 Y90.886 E0.06004
G1 X121.762 Y90.532 F10800.000
;TYPE:External perimeter
G1 F1200.000
G1 X120.509 Y89.279 E0.05558
G1 X120.050 Y87.567 E0.05558
G1 X120.509 Y85.854 E0.05558
G1 X121.763 Y84.601 E0.05558
G1 X123.475 Y84.142 E0.05558
G1 X125.187 Y84.601 E0.05558
G1 X126.440 Y85.854 E0.05558
G1 X126.899 Y87.567 E0.05558
G1 X126.440 Y89.279 E0.05558
G1 X125.187 Y90.532 E0.05558
G1 X123.475 Y90.991 E0.05558
G1 X121.820 Y90.548 E0.05370
G1 X121.416 Y90.732 F10800.000
;WIPE_START
G1 F8640.000
G1 X120.509 Y89.279 E-0.42134
G1 X120.130 Y87.862 E-0.33866
;WIPE_END
G1 E-0.04000 F2100.000
G1 Z0.600 F10800.000
G1 X114.898 Y91.844
G1 Z0.200
G1 E0.80000 F2100.000
;TYPE:Perimeter
G1 F1200.000
G1 X115.409 Y93.751 E0.06192
G1 X114.898 Y95.659 E0.06192
G1 X113.502 Y97.055 E0.06192
G1 X111.594 Y97.566 E0.06192
G1 X109.687 Y97.055 E0.06192
G1 X108.290 Y95.659 E0.06192
G1 X107.779 Y93.751 E0.06192
G1 X108.290 Y91.844 E0.06192
G1 X109.687 Y90.447 E0.06192
G1 X111.594 Y89.936 E0.06192
G1 X113.502 Y90.447 E0.06192
G1 X114.856 Y91.801 E0.06003
G1 X114.560 Y92.039 F10800.000
;TYPE:External perimeter
G1 F1200.000
G1 X115.019 Y93.751 E0.05558
G1 X114.560 Y95.463 E0.05558
G1 X113.306 Y96.717 E0.05558
G1 X111.594 Y97.176 E0.05558
G1 X109.882 Y96.717 E0.05558
G1 X108.629 Y95.463 E0.05558
G1 X108.170 Y93.751 E0.05558
G1 X108.629 Y92.039 E0.05558
G1 X109.882 Y90.786 E0.05558
G1 X111.594 Y90.327 E0.05558
G1 X113.306 Y90.786 E0.05558
G1 X114.517 Y91.997 E0.05370
G1 X114.960 Y92.039 F10800.000
;WIPE_START
G1 F8640.000
G1 X115.019 Y93.751 E-0.42136
G1 X114.639 Y95.168 E-0.33864
;WIPE_END
G1 E-0.04000 F2100.000
G1 Z0.600 F10800.000
G1 X109.474 Y103.221
G1 Z0.200
G1 E0.80000 F2100.000
;TYPE:Perimeter
G1 F1200.000
G1 X110.870 Y104.618 E0.06192
G1 X111.381 Y106.525 E0.06192
G1 X110.870 Y108.433 E0.06192
G1 X109.474 Y109.829 E0.06192
G1 X107.567 Y110.340 E0.06192
G1 X105.659 Y109.829 E0.06192
G1 X104.263 Y108.433 E0.06192
M73 Q1 S91
G1 X103.752 Y106.525 E0.06192
G1 X104.263 Y104.618 E0.06192
G1 X105.659 Y103.221 E0.06192
M73 P1 R91
G1 X107.567 Y102.710 E0.06192
G1 X109.416 Y103.206 E0.06003
G1 X109.279 Y103.560 F10800.000
;TYPE:External perimeter
G1 F1200.000
G1 X110.532 Y104.813 E0.05558
G1 X110.991 Y106.525 E0.05558
G1 X110.532 Y108.237 E0.05558
G1 X109.279 Y109.491 E0.05558
G1 X107.567 Y109.950 E0.05558
G1 X105.854 Y109.491 E0.05558
G1 X104.601 Y108.237 E0.05558
G1 X104.142 Y106.525 E0.05558
G1 X104.601 Y104.813 E0.05558
G1 X105.854 Y103.560 E0.05558
G1 X107.567 Y103.101 E0.05558
G1 X109.221 Y103.544 E0.05370
G1 X109.625 Y103.360 F10800.000
;WIPE_START
G1 F8640.000
G1 X110.532 Y104.813 E-0.42136
G1 X110.912 Y106.230 E-0.33864
;WIPE_END
G1 E-0.04000 F2100.000
G1 Z0.600 F10800.000
G1 X111.844 Y115.102
G1 Z0.200
G1 E0.80000 F2100.000
;TYPE:Perimeter
G1 F1200.000
G1 X113.751 Y114.591 E0.06192
G1 X115.659 Y115.102 E0.06192
G1 X117.055 Y116.498 E0.06192
G1 X117.566 Y118.406 E0.06192
G1 X117.055 Y120.313 E0.06192
G1 X115.659 Y121.710 E0.06192
G1 X113.751 Y122.221 E0.06192
G1 X111.844 Y121.710 E0.06192
G1 X110.447 Y120.313 E0.06192
G1 X109.936 Y118.406 E0.06192
G1 X110.447 Y116.498 E0.06192
G1 X111.801 Y115.144 E0.06003
G1 X112.039 Y115.440 F10800.000
;TYPE:External perimeter
G1 F1200.000
G1 X113.751 Y114.981 E0.05558
G1 X115.463 Y115.440 E0.05558
G1 X116.717 Y116.694 E0.05558
G1 X117.176 Y118.406 E0.05558
G1 X116.717 Y120.118 E0.05558
G1 X115.463 Y121.371 E0.05558
G1 X113.751 Y121.830 E0.05558
G1 X112.039 Y121.371 E0.05558
