; generated by PrusaSlicer 2.3.1+win64 on 2021-05-24 at 09:03:31 UTC

; 

; external perimeters extrusion width = 0.45mm
; perimeters extrusion width = 0.45mm
; infill extrusion width = 0.45mm
; solid infill extrusion width = 0.45mm
; top infill extrusion width = 0.40mm
; support material extrusion width = 0.35mm
; first layer extrusion width = 0.42mm

M73 P0 R8
M73 Q0 S9
M201 X1000 Y1000 Z200 E5000 ; sets maximum accelerations, mm/sec^2
M203 X200 Y200 Z12 E120 ; sets maximum feedrates, mm/sec
M204 P1250 R1250 T1250 ; sets acceleration (P, T) and retract acceleration (R), mm/sec^2
M205 X8.00 Y8.00 Z0.40 E4.50 ; sets the jerk limits, mm/sec
M205 S0 T0 ; sets the minimum extruding and travel feed rate, mm/sec
M107
;TYPE:Custom
M862.3 P "MK3S" ; printer model check
M862.1 P0.4 ; nozzle diameter check
M115 U3.9.3 ; tell printer latest fw version
G90 ; use absolute coordinates
M83 ; extruder relative mode
M104 S215 ; set extruder temp
M140 S60 ; set bed temp
M190 S60 ; wait for bed temp
M109 S215 ; wait for extruder temp
G28 W ; home all without mesh bed level
G80 ; mesh bed leveling
G1 Y-3.0 F1000.0 ; go outside print area
G92 E0.0
G1 X60.0 E9.0 F1000.0 ; intro line
M73 Q0 S8
G1 X100.0 E12.5 F1000.0 ; intro line
G92 E0.0
M221 S95

; Don't change E values below. Excessive value can damage the printer.
M907 E430 ; set extruder motor current
G21 ; set units to millimeters
G90 ; use absolute coordinates
M83 ; use relative distances for extrusion
M900 K0.05 ; Filament gcode LA 1.5
M900 K30 ; Filament gcode LA 1.0
;LAYER_CHANGE
;Z:0.2
;HEIGHT:0.2
;BEFORE_LAYER_CHANGE
G92 E0.0
;0.2


M73 P1 R8
M73 Q1 S8
G1 E-0.80000 F2100.000
G1 Z0.400 F10800.000
;AFTER_LAYER_CHANGE
;0.2
G1 X121.972 Y113.870
G1 Z0.200
G1 E0.80000 F2100.000
M204 S1000
;TYPE:Skirt
;WIDTH:0.42
G1 F1200.000
G1 X123.231 Y113.316 E0.04310
G1 X124.133 Y113.134 E0.02885
G1 X148.701 Y110.970 E0.77330
G1 X149.388 Y110.961 E0.02155
G1 X160.907 Y111.293 E0.36133
G1 X161.758 Y111.417 E0.02696
G1 X162.715 Y111.733 E0.03160
G1 X163.619 Y112.250 E0.03267
G1 X164.161 Y112.683 E0.02173
G1 X164.655 Y113.210 E0.02267
G1 X165.260 Y114.123 E0.03433
G1 X165.578 Y114.865 E0.02530
G1 X165.786 Y115.696 E0.02685
G1 X167.694 Y128.893 E0.41810
M73 P2 R8
M73 Q2 S8
G1 X167.773 Y142.646 E0.43121
G1 X167.699 Y143.404 E0.02389
G1 X167.479 Y144.247 E0.02733
G1 X167.135 Y145.023 E0.02661
G1 X166.647 Y145.763 E0.02780
G1 X166.062 Y146.394 E0.02697
G1 X165.343 Y146.945 E0.02840
G1 X164.569 Y147.354 E0.02744
G1 X163.619 Y147.653 E0.03124
G1 X162.911 Y147.761 E0.02244
G1 X150.037 Y148.643 E0.40462
G1 X137.278 Y148.951 E0.40015
G1 X123.459 Y148.686 E0.43336
G1 X122.536 Y148.545 E0.02930
G1 X121.731 Y148.277 E0.02661
G1 X120.950 Y147.864 E0.02768
G1 X120.351 Y147.414 E0.02351
G1 X119.633 Y146.664 E0.03255
G1 X119.083 Y145.788 E0.03243
G1 X118.804 Y145.133 E0.02232
G1 X118.622 Y144.445 E0.02232
G1 X118.519 Y143.404 E0.03279
G1 X119.440 Y118.206 E0.79058
G1 X119.513 Y117.466 E0.02334
G1 X119.734 Y116.623 E0.02733
M73 Q3 S8
G1 X120.078 Y115.851 E0.02649
G1 X120.564 Y115.114 E0.02768
G1 X121.172 Y114.463 E0.02792
G1 X121.924 Y113.906 E0.02936
; printing object Joint 5 ring rollers.STL id:0 copy 9
;WIPE_START
G1 F8640.000
G1 X123.231 Y113.316 E-0.33092
G1 X124.133 Y113.134 E-0.21249
G1 X125.067 Y113.052 E-0.21659
;WIPE_END
M73 P3 R8
G1 E-0.04000 F2100.000
G1 Z0.600 F10800.000
G1 X123.463 Y141.537
G1 Z0.200
G1 E0.80000 F2100.000
;TYPE:External perimeter
G1 F1200.000
G1 X123.869 Y141.513 E0.01274
G1 X124.342 Y141.588 E0.01502
G1 X124.752 Y141.764 E0.01399
G1 X125.108 Y142.030 E0.01393
G1 X125.394 Y142.370 E0.01393
G1 X125.593 Y142.767 E0.01393
G1 X125.693 Y143.187 E0.01355
G1 X125.706 Y143.421 E0.00734
G1 X125.693 Y143.655 E0.00734
G1 X125.593 Y144.075 E0.01355
G1 X125.394 Y144.472 E0.01393
G1 X125.108 Y144.812 E0.01393
G1 X124.752 Y145.077 E0.01393
G1 X124.379 Y145.238 E0.01274
G1 X123.909 Y145.331 E0.01502
G1 X123.463 Y145.305 E0.01399
G1 X123.038 Y145.177 E0.01393
G1 X122.653 Y144.955 E0.01393
G1 X122.330 Y144.650 E0.01393
G1 X122.086 Y144.279 E0.01393
G1 X121.934 Y143.862 E0.01393
G1 X121.883 Y143.421 E0.01393
G1 X121.934 Y142.980 E0.01393
G1 X122.086 Y142.562 E0.01393
G1 X122.330 Y142.191 E0.01393
G1 X122.653 Y141.887 E0.01393
G1 X123.038 Y141.664 E0.01393
G1 X123.406 Y141.554 E0.01204
G1 X123.600 Y141.161 F10800.000
G1 X123.185 Y141.008
G1 F1200.000
G1 X123.590 Y140.941 E0.01289
G1 X124.001 Y140.941 E0.01289
G1 X124.406 Y141.008 E0.01287
G1 X124.795 Y141.142 E0.01290
G1 X125.157 Y141.337 E0.01289
G1 X125.481 Y141.590 E0.01289
G1 X125.759 Y141.892 E0.01289
G1 X125.984 Y142.236 E0.01289
G1 X126.149 Y142.613 E0.01289
G1 X126.250 Y143.011 E0.01287
G1 X126.284 Y143.421 E0.01290
G1 X126.250 Y143.830 E0.01289
G1 X126.149 Y144.229 E0.01289
G1 X125.984 Y144.605 E0.01289
G1 X125.759 Y144.949 E0.01289
G1 X125.481 Y145.252 E0.01289
G1 X125.157 Y145.504 E0.01289
G1 X124.795 Y145.700 E0.01289
G1 X124.407 Y145.833 E0.01289
G1 X124.001 Y145.901 E0.01289
G1 X123.590 Y145.901 E0.01289
G1 X123.185 Y145.833 E0.01289
G1 X122.796 Y145.700 E0.01289
G1 X122.434 Y145.504 E0.01289
G1 X122.110 Y145.252 E0.01289
G1 X121.832 Y144.949 E0.01289
G1 X121.607 Y144.606 E0.01287
G1 X121.442 Y144.229 E0.01290
G1 X121.341 Y143.830 E0.01289
G1 X121.307 Y143.421 E0.01289
G1 X121.341 Y143.011 E0.01289
G1 X121.442 Y142.613 E0.01289
G1 X121.607 Y142.236 E0.01289
G1 X121.832 Y141.892 E0.01289
G1 X122.110 Y141.590 E0.01289
G1 X122.434 Y141.337 E0.01289
G1 X122.796 Y141.142 E0.01289
G1 X123.128 Y141.028 E0.01101
G1 X123.464 Y141.295 F10800.000
G1 X122.914 Y141.405
;TYPE:Gap fill
;WIDTH:0.239379
G1 F1200.000
G1 X123.257 Y141.293 E0.00590
G1 X123.614 Y141.234 E0.00592
G1 X123.977 Y141.234 E0.00592
G1 X124.433 Y141.318 E0.00757
G1 X124.904 Y141.523 E0.00840
G1 X125.285 Y141.802 E0.00772
G1 X125.527 Y142.073 E0.00593
G1 X125.725 Y142.376 E0.00592
G1 X125.875 Y142.707 E0.00593
G1 X125.976 Y143.154 E0.00749
G1 X125.995 Y143.421 E0.00437
G1 X125.976 Y143.688 E0.00437
G1 X125.875 Y144.135 E0.00749
G1 X125.725 Y144.465 E0.00593
G1 X125.527 Y144.769 E0.00592
G1 X125.285 Y145.039 E0.00593
G1 X124.885 Y145.329 E0.00808
G1 X124.454 Y145.515 E0.00766
G1 X123.977 Y145.612 E0.00795
G1 X123.614 Y145.607 E0.00593
G1 X123.257 Y145.548 E0.00592
G1 X122.912 Y145.436 E0.00593
G1 X122.475 Y145.176 E0.00830
G1 X122.105 Y144.825 E0.00834
G1 X121.836 Y144.418 E0.00797
G1 X121.655 Y143.917 E0.00870
G1 X121.595 Y143.421 E0.00816
G1 X121.631 Y143.060 E0.00593
G1 X121.721 Y142.708 E0.00592
G1 X121.863 Y142.375 E0.00592
G1 X122.119 Y142.000 E0.00742
G1 X122.475 Y141.665 E0.00797
G1 X122.861 Y141.434 E0.00735
; stop printing object Joint 5 ring rollers.STL id:0 copy 9
; printing object Joint 5 ring rollers.STL id:0 copy 7
;WIPE_START
G1 F8640.000
G1 X123.257 Y141.293 E-0.09698
G1 X123.614 Y141.234 E-0.08368
G1 X123.977 Y141.234 E-0.08368
G1 X124.433 Y141.318 E-0.10705
G1 X124.904 Y141.523 E-0.11870
G1 X125.285 Y141.802 E-0.10915
G1 X125.527 Y142.073 E-0.08380
G1 X125.709 Y142.352 E-0.07696
;WIPE_END
G1 E-0.04000 F2100.000
G1 Z0.600 F10800.000
G1 X124.203 Y133.067
G1 Z0.200
G1 E0.80000 F2100.000
;TYPE:External perimeter
;WIDTH:0.42
G1 F1200.000
G1 X123.777 Y132.940 E0.01393
G1 X123.392 Y132.718 E0.01393
G1 X123.069 Y132.413 E0.01393
G1 X122.825 Y132.042 E0.01393
G1 X122.673 Y131.625 E0.01393
G1 X122.622 Y131.184 E0.01393
G1 X122.673 Y130.743 E0.01393
G1 X122.825 Y130.325 E0.01393
G1 X123.069 Y129.954 E0.01393
G1 X123.392 Y129.649 E0.01393
G1 X123.777 Y129.427 E0.01393
G1 X124.203 Y129.300 E0.01393
G1 X124.608 Y129.276 E0.01274
G1 X125.081 Y129.350 E0.01502
G1 X125.491 Y129.527 E0.01399
G1 X125.847 Y129.792 E0.01393
G1 X126.133 Y130.133 E0.01393
G1 X126.332 Y130.529 E0.01393
G1 X126.432 Y130.950 E0.01355
G1 X126.445 Y131.184 E0.00734
G1 X126.432 Y131.417 E0.00734
G1 X126.332 Y131.838 E0.01355
G1 X126.133 Y132.235 E0.01393
G1 X125.847 Y132.575 E0.01393
G1 X125.491 Y132.840 E0.01393
G1 X125.118 Y133.001 E0.01274
G1 X124.648 Y133.093 E0.01502
G1 X124.262 Y133.071 E0.01211
G1 X123.947 Y133.375 F10800.000
G1 X124.329 Y133.664
G1 F1200.000
G1 X123.924 Y133.596 E0.01289
G1 X123.535 Y133.463 E0.01289
G1 X123.174 Y133.267 E0.01289
G1 X122.849 Y133.015 E0.01289
G1 X122.571 Y132.712 E0.01289
G1 X122.346 Y132.369 E0.01287
G1 X122.181 Y131.992 E0.01290
G1 X122.080 Y131.593 E0.01289
G1 X122.046 Y131.184 E0.01289
G1 X122.080 Y130.774 E0.01289
G1 X122.181 Y130.376 E0.01289
G1 X122.346 Y129.999 E0.01289
G1 X122.571 Y129.655 E0.01289
G1 X122.849 Y129.353 E0.01289
G1 X123.174 Y129.100 E0.01289
G1 X123.535 Y128.905 E0.01289
G1 X123.924 Y128.771 E0.01289
G1 X124.329 Y128.704 E0.01289
G1 X124.740 Y128.704 E0.01289
G1 X125.145 Y128.771 E0.01287
G1 X125.534 Y128.905 E0.01290
G1 X125.896 Y129.100 E0.01289
G1 X126.220 Y129.353 E0.01289
G1 X126.499 Y129.655 E0.01289
G1 X126.723 Y129.999 E0.01289
G1 X126.888 Y130.376 E0.01289
G1 X126.989 Y130.774 E0.01287
G1 X127.023 Y131.184 E0.01290
G1 X126.989 Y131.593 E0.01289
G1 X126.888 Y131.992 E0.01289
G1 X126.723 Y132.368 E0.01289
G1 X126.499 Y132.712 E0.01289
G1 X126.220 Y133.015 E0.01289
G1 X125.896 Y133.267 E0.01289
G1 X125.534 Y133.463 E0.01289
G1 X125.146 Y133.596 E0.01289
G1 X124.740 Y133.664 E0.01289
G1 X124.389 Y133.664 E0.01101
G1 X124.158 Y133.302 F10800.000
G1 X124.679 Y133.378
;TYPE:Gap fill
;WIDTH:0.239379
M73 Q4 S8
G1 F1200.000
G1 X124.164 Y133.349 E0.00843
G1 X123.674 Y133.208 E0.00833
G1 X123.334 Y133.022 E0.00633
G1 X123.049 Y132.798 E0.00592
G1 X122.801 Y132.533 E0.00592
G1 X122.566 Y132.160 E0.00720
G1 X122.394 Y131.680 E0.00833
G1 X122.335 Y131.195 E0.00798
G1 X122.370 Y130.822 E0.00611
G1 X122.460 Y130.471 E0.00592
G1 X122.602 Y130.138 E0.00592
G1 X122.858 Y129.763 E0.00742
G1 X123.231 Y129.415 E0.00833
G1 X123.651 Y129.169 E0.00794
G1 X123.996 Y129.056 E0.00593
G1 X124.353 Y128.997 E0.00592
G1 X124.716 Y128.997 E0.00592
G1 X125.172 Y129.080 E0.00757
M73 P4 R8
G1 X125.643 Y129.286 E0.00840
G1 X126.024 Y129.565 E0.00772
G1 X126.266 Y129.836 E0.00593
G1 X126.464 Y130.139 E0.00592
G1 X126.615 Y130.470 E0.00593
G1 X126.715 Y130.917 E0.00749
G1 X126.734 Y131.184 E0.00437
G1 X126.715 Y131.451 E0.00437
G1 X126.615 Y131.898 E0.00749
G1 X126.464 Y132.228 E0.00593
G1 X126.266 Y132.532 E0.00592
G1 X126.024 Y132.802 E0.00593
G1 X125.624 Y133.092 E0.00808
G1 X125.193 Y133.278 E0.00766
G1 X124.739 Y133.371 E0.00757
; stop printing object Joint 5 ring rollers.STL id:0 copy 7
; printing object Joint 5 ring rollers.STL id:0 copy 5
;WIPE_START
G1 F8640.000
G1 X124.164 Y133.349 E-0.13284
G1 X123.674 Y133.208 E-0.11778
G1 X123.334 Y133.022 E-0.08951
G1 X123.049 Y132.798 E-0.08369
G1 X122.801 Y132.533 E-0.08373
G1 X122.566 Y132.160 E-0.10184
G1 X122.394 Y131.680 E-0.11779
G1 X122.377 Y131.539 E-0.03282
;WIPE_END
G1 E-0.04000 F2100.000
G1 Z0.600 F10800.000
G1 X135.349 Y131.318
G1 Z0.200
G1 E0.80000 F2100.000
;TYPE:External perimeter
;WIDTH:0.42
G1 F1200.000
G1 X135.298 Y130.877 E0.01393
G1 X135.349 Y130.436 E0.01393
G1 X135.501 Y130.018 E0.01393
G1 X135.745 Y129.647 E0.01393
G1 X136.068 Y129.343 E0.01393
G1 X136.453 Y129.121 E0.01393
G1 X136.878 Y128.993 E0.01393
G1 X137.284 Y128.970 E0.01274
G1 X137.757 Y129.044 E0.01502
G1 X138.167 Y129.220 E0.01399
G1 X138.523 Y129.486 E0.01393
G1 X138.809 Y129.826 E0.01393
G1 X139.008 Y130.223 E0.01393
G1 X139.108 Y130.643 E0.01355
G1 X139.121 Y130.877 E0.00734
G1 X139.108 Y131.111 E0.00734
G1 X139.008 Y131.531 E0.01355
G1 X138.809 Y131.928 E0.01393
G1 X138.523 Y132.268 E0.01393
G1 X138.167 Y132.533 E0.01393
G1 X137.794 Y132.694 E0.01274
G1 X137.324 Y132.787 E0.01502
G1 X136.878 Y132.761 E0.01399
G1 X136.453 Y132.633 E0.01393
G1 X136.068 Y132.411 E0.01393
G1 X135.745 Y132.106 E0.01393
G1 X135.501 Y131.735 E0.01393
G1 X135.370 Y131.374 E0.01204
G1 X134.966 Y131.203 F10800.000
G1 X134.857 Y131.685
G1 F1200.000
G1 X134.756 Y131.287 E0.01289
G1 X134.722 Y130.877 E0.01289
G1 X134.756 Y130.467 E0.01289
G1 X134.857 Y130.069 E0.01289
G1 X135.022 Y129.693 E0.01289
G1 X135.247 Y129.348 E0.01289
G1 X135.525 Y129.046 E0.01289
G1 X135.850 Y128.794 E0.01289
G1 X136.211 Y128.598 E0.01289
G1 X136.600 Y128.464 E0.01289
G1 X137.005 Y128.397 E0.01289
G1 X137.416 Y128.397 E0.01289
G1 X137.821 Y128.464 E0.01287
G1 X138.210 Y128.598 E0.01290
G1 X138.572 Y128.794 E0.01289
G1 X138.896 Y129.046 E0.01289
G1 X139.174 Y129.348 E0.01289
G1 X139.399 Y129.693 E0.01289
G1 X139.564 Y130.069 E0.01289
G1 X139.665 Y130.467 E0.01287
G1 X139.699 Y130.877 E0.01290
G1 X139.665 Y131.287 E0.01289
G1 X139.564 Y131.685 E0.01289
G1 X139.399 Y132.061 E0.01289
G1 X139.174 Y132.405 E0.01289
G1 X138.896 Y132.708 E0.01289
G1 X138.572 Y132.960 E0.01289
G1 X138.210 Y133.156 E0.01289
G1 X137.822 Y133.289 E0.01289
G1 X137.416 Y133.357 E0.01289
G1 X137.005 Y133.357 E0.01289
G1 X136.600 Y133.289 E0.01289
G1 X136.211 Y133.156 E0.01289
G1 X135.850 Y132.960 E0.01289
G1 X135.525 Y132.708 E0.01289
G1 X135.247 Y132.405 E0.01289
G1 X135.022 Y132.062 E0.01287
G1 X134.881 Y131.740 E0.01102
G1 X135.120 Y131.383 F10800.000
G1 X135.251 Y131.874
;TYPE:Gap fill
;WIDTH:0.239379
G1 F1200.000
G1 X135.070 Y131.373 E0.00870
G1 X135.010 Y130.877 E0.00816
G1 X135.046 Y130.516 E0.00593
G1 X135.136 Y130.165 E0.00592
G1 X135.278 Y129.831 E0.00592
G1 X135.534 Y129.456 E0.00742
G1 X135.907 Y129.108 E0.00833
G1 X136.327 Y128.862 E0.00794
G1 X136.672 Y128.749 E0.00593
G1 X137.029 Y128.690 E0.00592
G1 X137.392 Y128.690 E0.00592
G1 X137.848 Y128.774 E0.00757
G1 X138.319 Y128.980 E0.00840
G1 X138.700 Y129.259 E0.00772
G1 X138.942 Y129.529 E0.00593
G1 X139.140 Y129.833 E0.00592
G1 X139.290 Y130.163 E0.00593
G1 X139.391 Y130.610 E0.00749
G1 X139.410 Y130.877 E0.00437
G1 X139.391 Y131.144 E0.00437
G1 X139.290 Y131.591 E0.00749
G1 X139.140 Y131.921 E0.00593
G1 X138.942 Y132.225 E0.00592
G1 X138.700 Y132.495 E0.00593
G1 X138.300 Y132.785 E0.00808
G1 X137.869 Y132.971 E0.00766
G1 X137.392 Y133.068 E0.00795
G1 X137.029 Y133.063 E0.00593
G1 X136.672 Y133.005 E0.00592
G1 X136.327 Y132.892 E0.00593
G1 X135.890 Y132.633 E0.00830
G1 X135.520 Y132.281 E0.00834
G1 X135.280 Y131.926 E0.00700
; stop printing object Joint 5 ring rollers.STL id:0 copy 5
; printing object Joint 5 ring rollers.STL id:0 copy 8
;WIPE_START
G1 F8640.000
G1 X135.070 Y131.373 E-0.13663
G1 X135.010 Y130.877 E-0.11536
G1 X135.046 Y130.516 E-0.08383
G1 X135.136 Y130.165 E-0.08369
G1 X135.278 Y129.831 E-0.08374
G1 X135.534 Y129.456 E-0.10493
G1 X135.907 Y129.108 E-0.11780
G1 X136.035 Y129.033 E-0.03402
;WIPE_END
G1 E-0.04000 F2100.000
G1 Z0.600 F10800.000
G1 X136.703 Y141.800
G1 Z0.200
G1 E0.80000 F2100.000
;TYPE:External perimeter
;WIDTH:0.42
G1 F1200.000
G1 X137.108 Y141.776 E0.01274
G1 X137.581 Y141.850 E0.01502
G1 X137.991 Y142.027 E0.01399
G1 X138.347 Y142.292 E0.01393
G1 X138.633 Y142.633 E0.01393
G1 X138.832 Y143.029 E0.01393
G1 X138.932 Y143.450 E0.01355
G1 X138.945 Y143.684 E0.00734
G1 X138.932 Y143.917 E0.00734
G1 X138.832 Y144.338 E0.01355
G1 X138.633 Y144.735 E0.01393
G1 X138.347 Y145.075 E0.01393
G1 X137.991 Y145.340 E0.01393
G1 X137.618 Y145.501 E0.01274
G1 X137.148 Y145.593 E0.01502
G1 X136.703 Y145.567 E0.01399
G1 X136.277 Y145.440 E0.01393
G1 X135.892 Y145.218 E0.01393
G1 X135.569 Y144.913 E0.01393
G1 X135.325 Y144.542 E0.01393
G1 X135.173 Y144.125 E0.01393
G1 X135.122 Y143.684 E0.01393
G1 X135.173 Y143.243 E0.01393
G1 X135.325 Y142.825 E0.01393
G1 X135.569 Y142.454 E0.01393
G1 X135.892 Y142.149 E0.01393
G1 X136.277 Y141.927 E0.01393
G1 X136.645 Y141.817 E0.01204
G1 X136.839 Y141.424 F10800.000
G1 X136.424 Y141.271
G1 F1200.000
G1 X136.829 Y141.204 E0.01289
G1 X137.240 Y141.204 E0.01289
G1 X137.645 Y141.271 E0.01287
G1 X138.034 Y141.405 E0.01290
G1 X138.396 Y141.600 E0.01289
G1 X138.720 Y141.853 E0.01289
G1 X138.999 Y142.155 E0.01289
G1 X139.223 Y142.499 E0.01289
G1 X139.388 Y142.876 E0.01289
G1 X139.489 Y143.274 E0.01287
G1 X139.523 Y143.684 E0.01290
G1 X139.489 Y144.093 E0.01289
G1 X139.388 Y144.492 E0.01289
G1 X139.223 Y144.868 E0.01289
G1 X138.999 Y145.212 E0.01289
G1 X138.720 Y145.515 E0.01289
G1 X138.396 Y145.767 E0.01289
G1 X138.034 Y145.963 E0.01289
G1 X137.646 Y146.096 E0.01289
G1 X137.240 Y146.164 E0.01289
