; generated by PrusaSlicer 2.3.1+win64 on 2021-05-24 at 09:01:59 UTC

; 

; external perimeters extrusion width = 0.45mm
; perimeters extrusion width = 0.45mm
; infill extrusion width = 0.45mm
; solid infill extrusion width = 0.45mm
; top infill extrusion width = 0.40mm
; support material extrusion width = 0.35mm
; first layer extrusion width = 0.42mm

M73 P0 R4
M73 Q0 S4
M201 X1000 Y1000 Z200 E5000 ; sets maximum accelerations, mm/sec^2
M203 X200 Y200 Z12 E120 ; sets maximum feedrates, mm/sec
M204 P1250 R1250 T1250 ; sets acceleration (P, T) and retract acceleration (R), mm/sec^2
M205 X8.00 Y8.00 Z0.40 E4.50 ; sets the jerk limits, mm/sec
M205 S0 T0 ; sets the minimum extruding and travel feed rate, mm/sec
M107
;TYPE:Custom
M862.3 P "MK3S" ; printer model check
M862.1 P0.4 ; nozzle diameter check
M115 U3.9.3 ; tell printer latest fw version
G90 ; use absolute coordinates
M83 ; extruder relative mode
M104 S215 ; set extruder temp
M140 S60 ; set bed temp
M190 S60 ; wait for bed temp
M109 S215 ; wait for extruder temp
G28 W ; home all without mesh bed level
G80 ; mesh bed leveling
G1 Y-3.0 F1000.0 ; go outside print area
G92 E0.0
G1 X60.0 E9.0 F1000.0 ; intro line
M73 P1 R4
M73 Q1 S4
G1 X100.0 E12.5 F1000.0 ; intro line
G92 E0.0
M221 S95

; Don't change E values below. Excessive value can damage the printer.
M907 E430 ; set extruder motor current
G21 ; set units to millimeters
G90 ; use absolute coordinates
M83 ; use relative distances for extrusion
M900 K0.05 ; Filament gcode LA 1.5
M900 K30 ; Filament gcode LA 1.0
;LAYER_CHANGE
;Z:0.2
;HEIGHT:0.2
;BEFORE_LAYER_CHANGE
G92 E0.0
;0.2


M73 P2 R4
M73 Q2 S4
G1 E-0.80000 F2100.000
G1 Z0.400 F10800.000
;AFTER_LAYER_CHANGE
;0.2
G1 X111.320 Y99.972
G1 Z0.200
G1 E0.80000 F2100.000
M204 S1000
;TYPE:Skirt
;WIDTH:0.42
G1 F1200.000
G1 X112.404 Y99.509 E0.03695
G1 X113.148 Y99.329 E0.02402
G1 X113.894 Y99.258 E0.02350
G1 X135.891 Y98.296 E0.69034
M73 P3 R4
M73 Q3 S4
G1 X136.833 Y98.376 E0.02965
G1 X137.776 Y98.621 E0.03056
G1 X138.642 Y99.013 E0.02979
G1 X139.526 Y99.627 E0.03375
G1 X140.492 Y100.676 E0.04472
G1 X140.984 Y101.507 E0.03028
G1 X141.353 Y102.501 E0.03324
G1 X141.519 Y103.436 E0.02979
G1 X141.938 Y125.430 E0.68973
G1 X141.796 Y126.287 E0.02723
G1 X141.565 Y127.000 E0.02350
G1 X141.045 Y128.021 E0.03592
G1 X140.320 Y128.913 E0.03605
G1 X139.757 Y129.415 E0.02363
G1 X139.066 Y129.871 E0.02595
G1 X138.116 Y130.293 E0.03261
G1 X137.055 Y130.538 E0.03414
G1 X125.437 Y131.232 E0.36493
M73 P4 R4
M73 Q4 S4
G1 X114.077 Y130.372 E0.35722
G1 X113.097 Y130.159 E0.03144
G1 X112.094 Y129.735 E0.03414
G1 X111.178 Y129.110 E0.03477
G1 X101.178 Y119.823 E0.42790
G1 X100.402 Y118.831 E0.03949
G1 X100.035 Y118.136 E0.02466
G1 X99.768 Y117.383 E0.02505
G1 X99.569 Y116.106 E0.04052
G1 X99.583 Y115.348 E0.02375
G1 X99.737 Y114.460 E0.02825
G1 X100.025 Y113.619 E0.02787
G1 X100.402 Y112.901 E0.02543
G1 X109.843 Y101.165 E0.47226
M73 P5 R4
M73 Q5 S4
G1 X110.571 Y100.473 E0.03150
G1 X111.270 Y100.006 E0.02637
G1 X111.479 Y100.320 F10800.000
G1 F1200.000
G1 X112.515 Y99.870 E0.03540
G1 X113.210 Y99.701 E0.02244
G1 X113.923 Y99.634 E0.02244
G1 X135.891 Y98.673 E0.68946
G1 X136.766 Y98.747 E0.02753
G1 X137.643 Y98.974 E0.02840
G1 X138.448 Y99.336 E0.02768
G1 X139.274 Y99.907 E0.03148
G1 X140.194 Y100.907 E0.04262
G1 X140.651 Y101.684 E0.02826
G1 X140.992 Y102.609 E0.03089
G1 X141.145 Y103.482 E0.02780
G1 X141.563 Y125.386 E0.68690
M73 P6 R4
M73 Q6 S4
G1 X141.430 Y126.197 E0.02578
G1 X141.210 Y126.874 E0.02232
G1 X140.727 Y127.818 E0.03326
G1 X140.058 Y128.642 E0.03326
G1 X139.527 Y129.116 E0.02232
G1 X138.859 Y129.555 E0.02506
G1 X137.992 Y129.937 E0.02971
G1 X137.014 Y130.163 E0.03148
G1 X125.428 Y130.855 E0.36391
G1 X114.113 Y129.996 E0.35581
G1 X113.199 Y129.796 E0.02933
G1 X112.271 Y129.402 E0.03160
G1 X111.426 Y128.826 E0.03207
G1 X101.440 Y119.551 E0.42732
M73 Q7 S4
G1 X100.718 Y118.624 E0.03683
G1 X100.370 Y117.960 E0.02351
M73 P7 R4
G1 X100.099 Y117.167 E0.02626
G1 X99.958 Y116.338 E0.02637
G1 X99.946 Y115.619 E0.02255
G1 X100.133 Y114.448 E0.03717
G1 X100.382 Y113.745 E0.02339
G1 X100.738 Y113.072 E0.02387
G1 X110.131 Y101.408 E0.46955
G1 X110.811 Y100.764 E0.02937
G1 X111.429 Y100.353 E0.02327
; printing object Joint 5 Output spacers.STL id:0 copy 8
;WIPE_START
G1 F8640.000
G1 X112.515 Y99.870 E-0.27438
G1 X113.210 Y99.701 E-0.16526
G1 X113.923 Y99.634 E-0.16523
G1 X114.594 Y99.605 E-0.15513
;WIPE_END
G1 E-0.04000 F2100.000
G1 Z0.600 F10800.000
G1 X134.771 Y123.713
G1 Z0.200
G1 E0.80000 F2100.000
;TYPE:External perimeter
G1 F1200.000
G1 X135.082 Y123.403 E0.01378
G1 X135.454 Y123.169 E0.01378
G1 X135.869 Y123.024 E0.01378
G1 X136.259 Y122.980 E0.01232
G1 X136.740 Y123.023 E0.01514
G1 X137.157 Y123.169 E0.01386
G1 X137.529 Y123.403 E0.01378
G1 X137.840 Y123.713 E0.01378
G1 X138.074 Y124.086 E0.01378
G1 X138.219 Y124.500 E0.01378
G1 X138.268 Y124.937 E0.01378
G1 X138.219 Y125.374 E0.01378
G1 X138.074 Y125.789 E0.01378
G1 X137.840 Y126.161 E0.01378
G1 X137.529 Y126.472 E0.01378
G1 X137.157 Y126.705 E0.01378
G1 X136.742 Y126.850 E0.01378
G1 X136.305 Y126.900 E0.01378
G1 X135.869 Y126.850 E0.01378
G1 X135.454 Y126.705 E0.01378
G1 X135.082 Y126.472 E0.01378
G1 X134.771 Y126.161 E0.01378
G1 X134.537 Y125.789 E0.01378
G1 X134.392 Y125.374 E0.01378
G1 X134.343 Y124.937 E0.01378
G1 X134.392 Y124.500 E0.01378
G1 X134.537 Y124.086 E0.01378
G1 X134.739 Y123.764 E0.01190
G1 X134.625 Y123.341 F10800.000
G1 X134.222 Y123.576
M73 Q8 S4
G1 F1200.000
G1 X134.475 Y123.252 E0.01289
G1 X134.777 Y122.973 E0.01289
G1 X135.121 Y122.748 E0.01289
G1 X135.497 Y122.583 E0.01289
G1 X135.896 Y122.482 E0.01289
G1 X136.305 Y122.449 E0.01289
G1 X136.702 Y122.481 E0.01248
G1 X137.114 Y122.584 E0.01330
G1 X137.490 Y122.748 E0.01287
G1 X137.834 Y122.973 E0.01289
G1 X138.136 Y123.252 E0.01289
M73 P8 R4
G1 X138.389 Y123.576 E0.01289
G1 X138.584 Y123.937 E0.01289
G1 X138.718 Y124.326 E0.01289
G1 X138.783 Y124.719 E0.01248
G1 X138.785 Y125.143 E0.01330
G1 X138.718 Y125.548 E0.01287
G1 X138.584 Y125.937 E0.01289
G1 X138.389 Y126.298 E0.01289
G1 X138.136 Y126.623 E0.01289
G1 X137.834 Y126.901 E0.01289
G1 X137.490 Y127.126 E0.01289
G1 X137.114 Y127.291 E0.01289
G1 X136.715 Y127.392 E0.01289
G1 X136.305 Y127.426 E0.01289
G1 X135.896 Y127.392 E0.01289
G1 X135.497 Y127.291 E0.01289
G1 X135.133 Y127.131 E0.01248
G1 X134.777 Y126.901 E0.01330
G1 X134.475 Y126.623 E0.01287
G1 X134.222 Y126.298 E0.01289
G1 X134.026 Y125.937 E0.01289
G1 X133.893 Y125.548 E0.01289
G1 X133.825 Y125.143 E0.01289
G1 X133.825 Y124.732 E0.01289
G1 X133.893 Y124.326 E0.01289
G1 X134.026 Y123.937 E0.01289
G1 X134.194 Y123.629 E0.01101
G1 X134.622 Y123.598 F10800.000
G1 X134.299 Y123.980
;TYPE:Gap fill
;WIDTH:0.18259
G1 F1200.000
G1 X134.573 Y123.546 E0.00596
G1 X134.912 Y123.203 E0.00560
G1 X135.248 Y122.984 E0.00466
G1 X135.585 Y122.838 E0.00426
G1 X135.940 Y122.747 E0.00426
G1 X136.305 Y122.716 E0.00426
G1 X136.786 Y122.768 E0.00562
G1 X137.277 Y122.938 E0.00603
G1 X137.672 Y123.182 E0.00539
G1 X137.939 Y123.434 E0.00426
G1 X138.163 Y123.723 E0.00426
G1 X138.341 Y124.044 E0.00426
G1 X138.472 Y124.434 E0.00478
G1 X138.527 Y124.945 E0.00596
G1 X138.472 Y125.440 E0.00578
G1 X138.312 Y125.895 E0.00560
G1 X138.038 Y126.329 E0.00596
G1 X137.699 Y126.671 E0.00560
G1 X137.363 Y126.891 E0.00466
G1 X137.026 Y127.036 E0.00426
G1 X136.671 Y127.127 E0.00426
G1 X136.305 Y127.163 E0.00426
G1 X135.819 Y127.105 E0.00569
G1 X135.334 Y126.936 E0.00596
G1 X134.938 Y126.692 E0.00540
G1 X134.672 Y126.441 E0.00425
G1 X134.448 Y126.151 E0.00426
G1 X134.270 Y125.830 E0.00426
G1 X134.139 Y125.440 E0.00478
G1 X134.084 Y124.929 E0.00596
G1 X134.139 Y124.434 E0.00578
G1 X134.275 Y124.035 E0.00490
; stop printing object Joint 5 Output spacers.STL id:0 copy 8
; printing object Joint 5 Output spacers.STL id:0 copy 3
;WIPE_START
G1 F8640.000
G1 X134.573 Y123.546 E-0.13226
G1 X134.912 Y123.203 E-0.11129
G1 X135.248 Y122.984 E-0.09267
G1 X135.585 Y122.838 E-0.08467
G1 X135.940 Y122.747 E-0.08465
G1 X136.305 Y122.716 E-0.08469
G1 X136.786 Y122.768 E-0.11167
G1 X137.024 Y122.850 E-0.05809
;WIPE_END
G1 E-0.04000 F2100.000
G1 Z0.600 F10800.000
G1 X135.344 Y117.634
G1 Z0.200
G1 E0.80000 F2100.000
;TYPE:External perimeter
;WIDTH:0.42
G1 F1200.000
G1 X134.929 Y117.489 E0.01378
G1 X134.557 Y117.255 E0.01378
G1 X134.247 Y116.944 E0.01378
G1 X134.013 Y116.572 E0.01378
G1 X133.868 Y116.157 E0.01378
G1 X133.818 Y115.720 E0.01378
G1 X133.868 Y115.284 E0.01378
G1 X134.013 Y114.869 E0.01378
G1 X134.247 Y114.497 E0.01378
G1 X134.557 Y114.186 E0.01378
G1 X134.929 Y113.952 E0.01378
G1 X135.344 Y113.807 E0.01378
G1 X135.735 Y113.763 E0.01232
G1 X136.215 Y113.806 E0.01514
G1 X136.633 Y113.952 E0.01386
G1 X137.005 Y114.186 E0.01378
G1 X137.315 Y114.497 E0.01378
G1 X137.549 Y114.869 E0.01378
G1 X137.694 Y115.284 E0.01378
G1 X137.744 Y115.720 E0.01378
G1 X137.694 Y116.157 E0.01378
G1 X137.549 Y116.572 E0.01378
G1 X137.315 Y116.944 E0.01378
G1 X137.005 Y117.255 E0.01378
G1 X136.633 Y117.489 E0.01378
G1 X136.218 Y117.634 E0.01378
G1 X135.781 Y117.683 E0.01378
G1 X135.404 Y117.640 E0.01190
G1 X135.072 Y117.927 F10800.000
G1 X135.371 Y118.175
M73 Q9 S4
G1 F1200.000
G1 X134.973 Y118.074 E0.01289
G1 X134.608 Y117.914 E0.01248
G1 X134.252 Y117.684 E0.01330
G1 X133.950 Y117.406 E0.01287
G1 X133.698 Y117.081 E0.01289
G1 X133.502 Y116.720 E0.01289
G1 X133.369 Y116.331 E0.01289
G1 X133.301 Y115.926 E0.01289
G1 X133.301 Y115.515 E0.01289
G1 X133.369 Y115.109 E0.01289
G1 X133.502 Y114.721 E0.01289
M73 P9 R4
G1 X133.698 Y114.359 E0.01289
G1 X133.950 Y114.035 E0.01289
G1 X134.252 Y113.756 E0.01289
G1 X134.597 Y113.532 E0.01289
G1 X134.973 Y113.367 E0.01289
G1 X135.371 Y113.266 E0.01289
G1 X135.781 Y113.232 E0.01289
G1 X136.178 Y113.265 E0.01248
G1 X136.589 Y113.367 E0.01330
G1 X136.965 Y113.532 E0.01287
G1 X137.310 Y113.756 E0.01289
G1 X137.612 Y114.035 E0.01289
G1 X137.864 Y114.359 E0.01289
G1 X138.060 Y114.721 E0.01289
G1 X138.193 Y115.109 E0.01289
G1 X138.259 Y115.502 E0.01248
G1 X138.261 Y115.926 E0.01330
G1 X138.193 Y116.331 E0.01287
G1 X138.060 Y116.720 E0.01289
G1 X137.864 Y117.081 E0.01289
G1 X137.612 Y117.406 E0.01289
G1 X137.310 Y117.684 E0.01289
G1 X136.965 Y117.909 E0.01289
G1 X136.589 Y118.074 E0.01289
G1 X136.191 Y118.175 E0.01289
G1 X135.781 Y118.209 E0.01289
G1 X135.431 Y118.180 E0.01101
G1 X135.231 Y117.800 F10800.000
G1 X135.781 Y117.946
;TYPE:Gap fill
;WIDTH:0.18259
G1 F1200.000
G1 X135.294 Y117.888 E0.00569
G1 X134.824 Y117.726 E0.00578
G1 X134.414 Y117.475 E0.00558
G1 X134.148 Y117.224 E0.00425
G1 X133.923 Y116.934 E0.00426
G1 X133.746 Y116.613 E0.00426
G1 X133.615 Y116.223 E0.00478
G1 X133.559 Y115.728 E0.00578
G1 X133.615 Y115.218 E0.00596
G1 X133.746 Y114.828 E0.00478
G1 X133.923 Y114.507 E0.00426
G1 X134.148 Y114.217 E0.00426
G1 X134.415 Y113.965 E0.00426
G1 X134.824 Y113.715 E0.00557
G1 X135.294 Y113.552 E0.00578
G1 X135.739 Y113.499 E0.00520
G1 X136.262 Y113.551 E0.00610
G1 X136.738 Y113.715 E0.00585
G1 X137.147 Y113.965 E0.00557
G1 X137.414 Y114.217 E0.00426
G1 X137.639 Y114.507 E0.00426
G1 X137.816 Y114.828 E0.00426
G1 X137.947 Y115.218 E0.00478
G1 X138.002 Y115.713 E0.00578
G1 X137.947 Y116.223 E0.00596
G1 X137.816 Y116.613 E0.00478
G1 X137.639 Y116.934 E0.00426
G1 X137.414 Y117.224 E0.00426
G1 X137.147 Y117.476 E0.00426
G1 X136.738 Y117.726 E0.00557
G1 X136.268 Y117.888 E0.00578
G1 X135.841 Y117.940 E0.00500
; stop printing object Joint 5 Output spacers.STL id:0 copy 3
; printing object Joint 5 Output spacers.STL id:0 copy 1
;WIPE_START
G1 F8640.000
G1 X135.294 Y117.888 E-0.12677
G1 X134.824 Y117.726 E-0.11490
G1 X134.414 Y117.475 E-0.11101
G1 X134.148 Y117.224 E-0.08449
G1 X133.923 Y116.934 E-0.08464
G1 X133.746 Y116.613 E-0.08469
G1 X133.615 Y116.223 E-0.09500
G1 X133.586 Y115.971 E-0.05850
;WIPE_END
G1 E-0.04000 F2100.000
G1 Z0.600 F10800.000
G1 X135.888 Y105.913
G1 Z0.200
G1 E0.80000 F2100.000
;TYPE:External perimeter
;WIDTH:0.42
G1 F1200.000
G1 X135.452 Y105.864 E0.01378
G1 X135.037 Y105.719 E0.01378
G1 X134.665 Y105.485 E0.01378
G1 X134.354 Y105.174 E0.01378
G1 X134.120 Y104.802 E0.01378
G1 X133.975 Y104.387 E0.01378
G1 X133.926 Y103.950 E0.01378
G1 X133.975 Y103.514 E0.01378
G1 X134.120 Y103.099 E0.01378
G1 X134.354 Y102.727 E0.01378
G1 X134.665 Y102.416 E0.01378
G1 X135.037 Y102.182 E0.01378
G1 X135.452 Y102.037 E0.01378
G1 X135.842 Y101.993 E0.01232
G1 X136.323 Y102.036 E0.01514
G1 X136.740 Y102.182 E0.01386
G1 X137.112 Y102.416 E0.01378
G1 X137.423 Y102.727 E0.01378
G1 X137.657 Y103.099 E0.01378
G1 X137.802 Y103.514 E0.01378
G1 X137.851 Y103.950 E0.01378
G1 X137.802 Y104.387 E0.01378
G1 X137.657 Y104.802 E0.01378
G1 X137.423 Y105.174 E0.01378
G1 X137.112 Y105.485 E0.01378
G1 X136.740 Y105.719 E0.01378
G1 X136.325 Y105.864 E0.01378
G1 X135.948 Y105.906 E0.01190
M73 Q10 S4
G1 X135.688 Y106.259 F10800.000
G1 X135.888 Y106.439
G1 F1200.000
G1 X135.479 Y106.405 E0.01289
G1 X135.080 Y106.304 E0.01289
G1 X134.716 Y106.144 E0.01248
G1 X134.360 Y105.914 E0.01330
G1 X134.058 Y105.636 E0.01287
G1 X133.805 Y105.312 E0.01289
G1 X133.609 Y104.950 E0.01289
G1 X133.476 Y104.561 E0.01289
G1 X133.408 Y104.156 E0.01289
M73 P10 R4
G1 X133.408 Y103.745 E0.01289
G1 X133.476 Y103.339 E0.01289
G1 X133.609 Y102.951 E0.01289
G1 X133.805 Y102.589 E0.01289
G1 X134.058 Y102.265 E0.01289
G1 X134.360 Y101.987 E0.01289
G1 X134.704 Y101.762 E0.01289
G1 X135.080 Y101.597 E0.01289
G1 X135.479 Y101.496 E0.01289
G1 X135.888 Y101.462 E0.01289
G1 X136.285 Y101.495 E0.01248
G1 X136.697 Y101.597 E0.01330
G1 X137.073 Y101.762 E0.01287
G1 X137.417 Y101.987 E0.01289
G1 X137.719 Y102.265 E0.01289
G1 X137.972 Y102.589 E0.01289
G1 X138.167 Y102.951 E0.01289
G1 X138.301 Y103.339 E0.01289
G1 X138.366 Y103.732 E0.01248
G1 X138.368 Y104.156 E0.01330
G1 X138.301 Y104.561 E0.01287
G1 X138.167 Y104.950 E0.01289
G1 X137.972 Y105.312 E0.01289
G1 X137.719 Y105.636 E0.01289
G1 X137.417 Y105.914 E0.01289
G1 X137.073 Y106.139 E0.01289
G1 X136.697 Y106.304 E0.01289
G1 X136.298 Y106.405 E0.01289
G1 X135.948 Y106.434 E0.01101
G1 X135.688 Y106.093 F10800.000
G1 X135.923 Y106.173
;TYPE:Gap fill
;WIDTH:0.18259
G1 F1200.000
G1 X135.402 Y106.119 E0.00608
G1 X134.931 Y105.956 E0.00578
G1 X134.521 Y105.705 E0.00558
G1 X134.255 Y105.454 E0.00425
G1 X134.031 Y105.164 E0.00426
G1 X133.853 Y104.843 E0.00426
G1 X133.722 Y104.453 E0.00478
G1 X133.667 Y103.958 E0.00578
G1 X133.722 Y103.448 E0.00596
G1 X133.853 Y103.058 E0.00478
G1 X134.031 Y102.737 E0.00426
G1 X134.255 Y102.447 E0.00426
G1 X134.522 Y102.195 E0.00426
G1 X134.931 Y101.945 E0.00557
G1 X135.402 Y101.782 E0.00578
G1 X135.847 Y101.729 E0.00520
G1 X136.369 Y101.781 E0.00610
G1 X136.846 Y101.945 E0.00585
G1 X137.255 Y102.195 E0.00557
G1 X137.522 Y102.447 E0.00426
G1 X137.746 Y102.737 E0.00426
G1 X137.924 Y103.058 E0.00426
G1 X138.055 Y103.448 E0.00478
G1 X138.110 Y103.943 E0.00578
G1 X138.055 Y104.453 E0.00596
G1 X137.924 Y104.843 E0.00478
G1 X137.746 Y105.164 E0.00426
G1 X137.522 Y105.454 E0.00426
G1 X137.255 Y105.706 E0.00426
G1 X136.860 Y105.949 E0.00539
G1 X136.391 Y106.115 E0.00578
G1 X135.982 Y106.167 E0.00478
; stop printing object Joint 5 Output spacers.STL id:0 copy 1
; printing object Joint 5 Output spacers.STL id:0 copy 2
;WIPE_START
G1 F8640.000
G1 X135.402 Y106.119 E-0.13458
G1 X134.931 Y105.956 E-0.11490
G1 X134.521 Y105.705 E-0.11101
G1 X134.255 Y105.454 E-0.08449
G1 X134.031 Y105.164 E-0.08464
G1 X133.853 Y104.843 E-0.08469
G1 X133.722 Y104.453 E-0.09500
G1 X133.698 Y104.235 E-0.05069
;WIPE_END
G1 E-0.04000 F2100.000
G1 Z0.600 F10800.000
G1 X116.044 Y104.906
G1 Z0.200
G1 E0.80000 F2100.000
;TYPE:External perimeter
;WIDTH:0.42
G1 F1200.000
G1 X115.994 Y105.343 E0.01378
G1 X115.849 Y105.757 E0.01378
G1 X115.615 Y106.130 E0.01378
G1 X115.305 Y106.440 E0.01378
G1 X114.933 Y106.674 E0.01378
G1 X114.518 Y106.819 E0.01378
G1 X114.081 Y106.868 E0.01378
G1 X113.644 Y106.819 E0.01378
G1 X113.229 Y106.674 E0.01378
G1 X112.857 Y106.440 E0.01378
G1 X112.547 Y106.130 E0.01378
G1 X112.313 Y105.757 E0.01378
G1 X112.168 Y105.343 E0.01378
G1 X112.118 Y104.906 E0.01378
