; generated by PrusaSlicer 2.3.1+win64 on 2021-05-24 at 08:57:32 UTC

; 

; external perimeters extrusion width = 0.45mm
; perimeters extrusion width = 0.45mm
; infill extrusion width = 0.45mm
; solid infill extrusion width = 0.45mm
; top infill extrusion width = 0.40mm
; support material extrusion width = 0.35mm
; first layer extrusion width = 0.42mm

M73 P0 R78
M73 Q0 S78
M201 X1000 Y1000 Z200 E5000 ; sets maximum accelerations, mm/sec^2
M203 X200 Y200 Z12 E120 ; sets maximum feedrates, mm/sec
M204 P1250 R1250 T1250 ; sets acceleration (P, T) and retract acceleration (R), mm/sec^2
M205 X8.00 Y8.00 Z0.40 E4.50 ; sets the jerk limits, mm/sec
M205 S0 T0 ; sets the minimum extruding and travel feed rate, mm/sec
M107
;TYPE:Custom
M862.3 P "MK3S" ; printer model check
M862.1 P0.4 ; nozzle diameter check
M115 U3.9.3 ; tell printer latest fw version
G90 ; use absolute coordinates
M83 ; extruder relative mode
M104 S215 ; set extruder temp
M140 S60 ; set bed temp
M190 S60 ; wait for bed temp
M109 S215 ; wait for extruder temp
G28 W ; home all without mesh bed level
G80 ; mesh bed leveling
G1 Y-3.0 F1000.0 ; go outside print area
G92 E0.0
G1 X60.0 E9.0 F1000.0 ; intro line
M73 P0 R77
G1 X100.0 E12.5 F1000.0 ; intro line
G92 E0.0
M221 S95

; Don't change E values below. Excessive value can damage the printer.
M907 E430 ; set extruder motor current
G21 ; set units to millimeters
G90 ; use absolute coordinates
M83 ; use relative distances for extrusion
M900 K0.05 ; Filament gcode LA 1.5
M900 K30 ; Filament gcode LA 1.0
;LAYER_CHANGE
;Z:0.2
;HEIGHT:0.2
;BEFORE_LAYER_CHANGE
G92 E0.0
;0.2


G1 E-0.80000 F2100.000
G1 Z0.400 F10800.000
;AFTER_LAYER_CHANGE
;0.2
G1 X104.608 Y89.906
G1 Z0.200
G1 E0.80000 F2100.000
M204 S1000
;TYPE:Skirt
;WIDTH:0.42
G1 F1200.000
G1 X107.417 Y86.701 E0.13362
G1 X110.593 Y84.109 E0.12853
G1 X114.292 Y82.000 E0.13350
G1 X117.939 Y80.625 E0.12221
G1 X121.756 Y79.838 E0.12221
G1 X125.929 Y79.642 E0.13100
G1 X130.083 Y80.137 E0.13114
G1 X134.166 Y81.343 E0.13351
G1 X137.688 Y83.022 E0.12233
G1 X140.900 Y85.230 E0.12221
G1 X143.927 Y88.098 E0.13076
G1 X146.448 Y91.436 E0.13114
G1 X148.380 Y95.137 E0.13090
G1 X149.661 Y99.022 E0.12828
G1 X150.286 Y102.866 E0.12209
G1 X150.377 Y104.999 E0.06695
G1 X150.286 Y107.132 E0.06694
G1 X149.662 Y110.975 E0.12207
G1 X148.381 Y114.861 E0.12828
G1 X146.449 Y118.562 E0.13090
G1 X143.926 Y121.903 E0.13126
G1 X140.898 Y124.771 E0.13076
G1 X137.689 Y126.977 E0.12209
M73 Q0 S77
G1 X134.168 Y128.656 E0.12233
G1 X130.081 Y129.863 E0.13362
G1 X125.928 Y130.358 E0.13114
G1 X121.754 Y130.162 E0.13100
G1 X117.941 Y129.375 E0.12209
G1 X114.294 Y128.001 E0.12221
G1 X110.594 Y125.892 E0.13350
G1 X107.419 Y123.300 E0.12853
G1 X104.607 Y120.092 E0.13374
G1 X102.530 Y116.794 E0.12221
G1 X100.997 Y113.215 E0.12209
G1 X99.954 Y109.083 E0.13362
G1 X99.623 Y105.001 E0.12841
G1 X99.953 Y100.919 E0.12841
G1 X100.997 Y96.785 E0.13369
G1 X102.529 Y93.208 E0.12202
G1 X104.576 Y89.957 E0.12044
; printing object Joint 5 28 teeth pulley.STL id:0 copy 0
;WIPE_START
G1 F8640.000
G1 X106.740 Y87.477 E-0.76000
;WIPE_END
G1 E-0.04000 F2100.000
G1 Z0.600 F10800.000
G1 X116.704 Y92.440
G1 Z0.200
G1 E0.80000 F2100.000
;TYPE:Support material
G1 F1200.000
G1 X116.704 Y95.637 E0.10024
G1 X117.144 Y96.189 E0.02211
G1 X117.458 Y96.340 E0.01094
G1 X117.458 Y92.009 E0.13578
G1 X118.177 Y91.663 E0.02500
G1 X118.213 Y91.663 E0.00112
G1 X118.213 Y96.686 E0.15748
G1 X118.967 Y96.686 E0.02365
G1 X118.967 Y91.663 E0.15748
G1 X119.323 Y91.663 E0.01118
G1 X119.721 Y91.855 E0.01384
G1 X119.721 Y96.494 E0.14547
G1 X120.356 Y96.189 E0.02210
G1 X120.475 Y96.039 E0.00599
G1 X120.475 Y92.310 E0.11693
G1 X121.071 Y93.057 E0.02996
G1 X121.229 Y93.751 E0.02233
G1 X121.229 Y95.361 E0.05046
;WIPE_START
G1 F8640.000
G1 X121.229 Y93.751 E-0.37157
G1 X121.071 Y93.057 E-0.16444
G1 X120.475 Y92.310 E-0.22061
G1 X120.475 Y92.325 E-0.00339
;WIPE_END
G1 E-0.04000 F2100.000
G1 Z0.600 F10800.000
G1 X121.983 Y98.923
G1 Z0.200
G1 E0.80000 F2100.000
G1 F1200.000
G1 X121.983 Y98.606 E0.00994
G1 X121.229 Y99.090 E0.02811
G1 X121.229 Y99.286 E0.00613
;WIPE_START
G1 F8640.000
G1 X121.229 Y99.090 E-0.04517
G1 X121.983 Y98.606 E-0.20700
G1 X121.983 Y98.923 E-0.07322
;WIPE_END
G1 E-0.47462 F2100.000
G1 Z0.600 F10800.000
G1 X128.017 Y98.923
G1 Z0.200
G1 E0.80000 F2100.000
G1 F1200.000
G1 X128.017 Y98.606 E0.00994
G1 X128.771 Y99.090 E0.02811
G1 X128.771 Y99.286 E0.00613
;WIPE_START
G1 F8640.000
G1 X128.771 Y99.090 E-0.04517
G1 X128.017 Y98.606 E-0.20700
G1 X128.017 Y98.923 E-0.07322
;WIPE_END
G1 E-0.47462 F2100.000
G1 Z0.600 F10800.000
G1 X133.296 Y95.909
G1 Z0.200
G1 E0.80000 F2100.000
G1 F1200.000
G1 X133.296 Y92.712 E0.10024
G1 X132.856 Y92.161 E0.02211
G1 X132.542 Y92.009 E0.01094
G1 X132.542 Y96.340 E0.13578
G1 X131.823 Y96.686 E0.02500
G1 X131.787 Y96.686 E0.00112
G1 X131.787 Y91.663 E0.15748
G1 X131.033 Y91.663 E0.02365
G1 X131.033 Y96.686 E0.15748
G1 X130.677 Y96.686 E0.01118
G1 X130.279 Y96.494 E0.01384
G1 X130.279 Y91.855 E0.14547
G1 X129.644 Y92.161 E0.02210
G1 X129.525 Y92.310 E0.00599
G1 X129.525 Y96.039 E0.11693
G1 X128.929 Y95.292 E0.02996
G1 X128.771 Y94.598 E0.02233
G1 X128.771 Y92.989 E0.05046
;WIPE_START
G1 F8640.000
G1 X128.771 Y94.598 E-0.37157
G1 X128.929 Y95.292 E-0.16444
G1 X129.525 Y96.039 E-0.22061
G1 X129.525 Y96.025 E-0.00338
;WIPE_END
G1 E-0.04000 F2100.000
G1 Z0.600 F10800.000
G1 X139.329 Y107.006
G1 Z0.200
G1 E0.80000 F2100.000
G1 F1200.000
G1 X139.329 Y103.266 E0.11728
G1 X139.106 Y102.986 E0.01122
G1 X138.575 Y102.730 E0.01848
G1 X138.575 Y107.270 E0.14233
G1 X138.073 Y107.511 E0.01746
G1 X137.821 Y107.511 E0.00792
G1 X137.821 Y102.489 E0.15748
G1 X137.067 Y102.489 E0.02365
G1 X137.067 Y107.511 E0.15748
G1 X136.927 Y107.511 E0.00438
G1 X136.312 Y107.215 E0.02138
G1 X136.312 Y102.785 E0.13892
G1 X135.894 Y102.986 E0.01456
G1 X135.558 Y103.407 E0.01689
G1 X135.558 Y106.865 E0.10842
;WIPE_START
G1 F8640.000
G1 X135.558 Y103.574 E-0.76000
;WIPE_END
G1 E-0.04000 F2100.000
G1 Z0.600 F10800.000
G1 X133.296 Y117.560
G1 Z0.200
G1 E0.80000 F2100.000
G1 F1200.000
G1 X133.296 Y114.363 E0.10024
G1 X132.856 Y113.811 E0.02211
G1 X132.542 Y113.660 E0.01094
G1 X132.542 Y117.991 E0.13578
G1 X131.823 Y118.337 E0.02500
G1 X131.787 Y118.337 E0.00112
G1 X131.787 Y113.314 E0.15748
G1 X131.033 Y113.314 E0.02365
G1 X131.033 Y118.337 E0.15748
G1 X130.677 Y118.337 E0.01118
G1 X130.279 Y118.145 E0.01384
G1 X130.279 Y113.506 E0.14547
G1 X129.644 Y113.811 E0.02210
G1 X129.525 Y113.961 E0.00599
G1 X129.525 Y117.690 E0.11693
G1 X128.929 Y116.943 E0.02996
G1 X128.771 Y116.249 E0.02233
G1 X128.771 Y114.639 E0.05046
;WIPE_START
G1 F8640.000
G1 X128.771 Y116.249 E-0.37157
G1 X128.929 Y116.943 E-0.16444
G1 X129.525 Y117.690 E-0.22061
G1 X129.525 Y117.675 E-0.00339
;WIPE_END
G1 E-0.04000 F2100.000
G1 Z0.600 F10800.000
G1 X128.017 Y111.596
G1 Z0.200
G1 E0.80000 F2100.000
G1 F1200.000
G1 X128.017 Y111.266 E0.01036
G1 X128.771 Y110.902 E0.02625
G1 X128.771 Y111.111 E0.00655
;WIPE_START
G1 F8640.000
G1 X128.771 Y110.902 E-0.04825
G1 X128.017 Y111.266 E-0.19328
G1 X128.017 Y111.596 E-0.07631
;WIPE_END
G1 E-0.48216 F2100.000
G1 Z0.600 F10800.000
G1 X121.983 Y111.596
G1 Z0.200
G1 E0.80000 F2100.000
G1 F1200.000
G1 X121.983 Y111.266 E0.01036
G1 X121.229 Y110.902 E0.02625
G1 X121.229 Y111.111 E0.00655
;WIPE_START
G1 F8640.000
G1 X121.229 Y110.902 E-0.04825
G1 X121.983 Y111.266 E-0.19328
G1 X121.983 Y111.596 E-0.07631
;WIPE_END
G1 E-0.48216 F2100.000
G1 Z0.600 F10800.000
G1 X116.704 Y114.091
G1 Z0.200
G1 E0.80000 F2100.000
G1 F1200.000
G1 X116.704 Y117.288 E0.10024
G1 X117.144 Y117.839 E0.02211
G1 X117.458 Y117.991 E0.01094
G1 X117.458 Y113.660 E0.13578
G1 X118.177 Y113.314 E0.02500
G1 X118.213 Y113.314 E0.00112
G1 X118.213 Y118.337 E0.15748
G1 X118.967 Y118.337 E0.02365
G1 X118.967 Y113.314 E0.15748
G1 X119.323 Y113.314 E0.01118
G1 X119.721 Y113.506 E0.01384
G1 X119.721 Y118.145 E0.14547
G1 X120.356 Y117.839 E0.02210
G1 X120.475 Y117.690 E0.00599
G1 X120.475 Y113.961 E0.11693
G1 X121.071 Y114.708 E0.02996
G1 X121.229 Y115.402 E0.02233
G1 X121.229 Y117.011 E0.05046
;WIPE_START
G1 F8640.000
G1 X121.229 Y115.402 E-0.37158
G1 X121.071 Y114.708 E-0.16443
G1 X120.475 Y113.961 E-0.22061
G1 X120.475 Y113.975 E-0.00338
;WIPE_END
G1 E-0.04000 F2100.000
G1 Z0.600 F10800.000
G1 X114.442 Y106.865
G1 Z0.200
G1 E0.80000 F2100.000
G1 F1200.000
G1 X114.442 Y103.407 E0.10842
G1 X114.106 Y102.986 E0.01689
G1 X113.688 Y102.785 E0.01456
G1 X113.688 Y107.215 E0.13892
G1 X113.073 Y107.511 E0.02138
G1 X112.933 Y107.511 E0.00438
G1 X112.933 Y102.489 E0.15748
G1 X112.179 Y102.489 E0.02365
G1 X112.179 Y107.511 E0.15748
G1 X111.927 Y107.511 E0.00792
G1 X111.425 Y107.270 E0.01746
G1 X111.425 Y102.730 E0.14233
G1 X110.894 Y102.986 E0.01848
G1 X110.671 Y103.266 E0.01122
G1 X110.671 Y107.006 E0.11728
;WIPE_START
G1 F8640.000
G1 X110.671 Y103.715 E-0.76000
;WIPE_END
G1 E-0.04000 F2100.000
G1 Z0.600 F10800.000
G1 X116.705 Y105.000
G1 Z0.200
G1 E0.80000 F2100.000
;TYPE:Perimeter
G1 F1200.000
G1 X117.041 Y102.663 E0.07403
G1 X118.022 Y100.515 E0.07403
G1 X119.125 Y99.242 E0.05283
G1 X119.568 Y98.731 E0.02120
G1 X121.554 Y97.454 E0.07403
G1 X123.819 Y96.789 E0.07403
G1 X126.181 Y96.789 E0.07403
G1 X128.446 Y97.454 E0.07403
G1 X130.432 Y98.731 E0.07403
G1 X131.978 Y100.515 E0.07403
G1 X132.959 Y102.663 E0.07403
G1 X133.295 Y105.000 E0.07403
G1 X132.959 Y107.337 E0.07403
G1 X131.978 Y109.485 E0.07403
G1 X130.432 Y111.269 E0.07403
G1 X128.446 Y112.546 E0.07403
G1 X126.181 Y113.211 E0.07403
G1 X123.819 Y113.211 E0.07403
G1 X121.554 Y112.546 E0.07403
G1 X119.568 Y111.269 E0.07403
G1 X118.022 Y109.485 E0.07403
G1 X117.041 Y107.337 E0.07403
G1 X116.713 Y105.059 E0.07215
G1 X117.087 Y105.006 F10800.000
;TYPE:External perimeter
G1 F1200.000
G1 X117.406 Y102.770 E0.07080
G1 X118.342 Y100.721 E0.07063
G1 X119.817 Y99.019 E0.07063
G1 X121.712 Y97.801 E0.07063
G1 X123.874 Y97.166 E0.07063
G1 X126.126 Y97.166 E0.07063
G1 X128.288 Y97.801 E0.07063
G1 X130.183 Y99.019 E0.07063
G1 X131.658 Y100.721 E0.07063
G1 X132.594 Y102.770 E0.07063
G1 X132.914 Y105.000 E0.07063
G1 X132.594 Y107.230 E0.07063
G1 X131.658 Y109.279 E0.07063
G1 X130.183 Y110.981 E0.07063
G1 X128.288 Y112.199 E0.07063
G1 X126.126 Y112.834 E0.07063
G1 X123.874 Y112.834 E0.07063
G1 X121.712 Y112.199 E0.07063
G1 X119.817 Y110.981 E0.07063
G1 X118.342 Y109.279 E0.07063
G1 X117.406 Y107.230 E0.07063
G1 X117.095 Y105.065 E0.06857
G1 X116.740 Y104.806 F10800.000
;WIPE_START
G1 F8640.000
G1 X117.406 Y102.770 E-0.53473
G1 X117.812 Y101.883 E-0.22527
;WIPE_END
G1 E-0.04000 F2100.000
G1 Z0.600 F10800.000
G1 X117.903 Y97.887
G1 Z0.200
G1 E0.80000 F2100.000
;TYPE:Perimeter
G1 F1200.000
G1 X116.376 Y97.151 E0.05313
G1 X115.320 Y95.827 E0.05313
G1 X114.943 Y94.175 E0.05313
G1 X115.320 Y92.523 E0.05313
G1 X116.376 Y91.198 E0.05313
G1 X117.903 Y90.463 E0.05313
G1 X119.597 Y90.463 E0.05313
G1 X121.124 Y91.198 E0.05313
G1 X122.180 Y92.523 E0.05313
G1 X122.557 Y94.175 E0.05313
G1 X122.180 Y95.827 E0.05313
G1 X121.124 Y97.151 E0.05313
G1 X119.597 Y97.887 E0.05313
G1 X117.963 Y97.887 E0.05125
G1 X117.989 Y97.509 F10800.000
;TYPE:External perimeter
G1 F1200.000
G1 X116.617 Y96.849 E0.04773
G1 X115.668 Y95.659 E0.04773
G1 X115.329 Y94.175 E0.04773
G1 X115.668 Y92.691 E0.04773
G1 X116.617 Y91.500 E0.04773
G1 X117.989 Y90.840 E0.04773
G1 X119.511 Y90.840 E0.04773
G1 X120.883 Y91.500 E0.04773
G1 X121.832 Y92.691 E0.04773
G1 X122.171 Y94.175 E0.04773
G1 X121.832 Y95.659 E0.04773
G1 X120.883 Y96.849 E0.04773
G1 X119.511 Y97.509 E0.04773
G1 X118.049 Y97.509 E0.04585
G1 X117.717 Y97.803 F10800.000
;WIPE_START
G1 F8640.000
G1 X116.617 Y96.849 E-0.36403
G1 X115.668 Y95.659 E-0.35150
G1 X115.625 Y95.471 E-0.04447
;WIPE_END
G1 E-0.04000 F2100.000
G1 Z0.600 F10800.000
G1 X114.874 Y102.023
G1 Z0.200
G1 E0.80000 F2100.000
;TYPE:Perimeter
G1 F1200.000
G1 X115.930 Y103.348 E0.05313
G1 X116.307 Y105.000 E0.05313
G1 X115.930 Y106.652 E0.05313
G1 X114.874 Y107.977 E0.05313
G1 X113.347 Y108.712 E0.05313
G1 X111.653 Y108.712 E0.05313
G1 X110.126 Y107.977 E0.05313
G1 X109.070 Y106.652 E0.05313
G1 X108.693 Y105.000 E0.05313
G1 X109.070 Y103.348 E0.05313
G1 X110.126 Y102.023 E0.05313
G1 X111.653 Y101.288 E0.05313
G1 X113.347 Y101.288 E0.05313
G1 X114.820 Y101.997 E0.05125
G1 X114.633 Y102.326 F10800.000
;TYPE:External perimeter
G1 F1200.000
G1 X115.582 Y103.516 E0.04773
G1 X115.921 Y105.000 E0.04773
G1 X115.582 Y106.484 E0.04773
G1 X114.633 Y107.674 E0.04773
G1 X113.261 Y108.335 E0.04773
G1 X111.739 Y108.335 E0.04773
G1 X110.367 Y107.674 E0.04773
G1 X109.418 Y106.484 E0.04773
G1 X109.079 Y105.000 E0.04773
G1 X109.418 Y103.516 E0.04773
G1 X110.367 Y102.326 E0.04773
G1 X111.739 Y101.665 E0.04773
G1 X113.261 Y101.665 E0.04773
G1 X114.579 Y102.300 E0.04585
G1 X115.005 Y102.180 F10800.000
;WIPE_START
G1 F8640.000
G1 X115.582 Y103.516 E-0.36403
G1 X115.921 Y105.000 E-0.35150
G1 X115.878 Y105.188 E-0.04447
;WIPE_END
G1 E-0.04000 F2100.000
G1 Z0.600 F10800.000
G1 X117.903 Y112.113
G1 Z0.200
G1 E0.80000 F2100.000
;TYPE:Perimeter
G1 F1200.000
G1 X119.597 Y112.113 E0.05313
G1 X121.124 Y112.849 E0.05313
G1 X122.180 Y114.173 E0.05313
G1 X122.557 Y115.825 E0.05313
G1 X122.180 Y117.477 E0.05313
G1 X121.124 Y118.802 E0.05313
G1 X119.597 Y119.537 E0.05313
G1 X117.903 Y119.537 E0.05313
G1 X116.376 Y118.802 E0.05313
G1 X115.320 Y117.477 E0.05313
G1 X114.943 Y115.825 E0.05313
G1 X115.320 Y114.173 E0.05313
G1 X116.376 Y112.849 E0.05313
G1 X117.849 Y112.139 E0.05125
G1 X117.989 Y112.491 F10800.000
;TYPE:External perimeter
G1 F1200.000
G1 X119.511 Y112.491 E0.04773
G1 X120.883 Y113.151 E0.04773
G1 X121.832 Y114.341 E0.04773
G1 X122.171 Y115.825 E0.04773
G1 X121.832 Y117.309 E0.04773
G1 X120.883 Y118.500 E0.04773
G1 X119.511 Y119.160 E0.04773
G1 X117.989 Y119.160 E0.04773
G1 X116.617 Y118.500 E0.04773
G1 X115.668 Y117.309 E0.04773
G1 X115.329 Y115.825 E0.04773
G1 X115.668 Y114.341 E0.04773
G1 X116.617 Y113.151 E0.04773
G1 X117.935 Y112.517 E0.04585
G1 X118.107 Y112.108 F10800.000
;WIPE_START
G1 F8640.000
G1 X119.511 Y112.491 E-0.36403
G1 X120.883 Y113.151 E-0.35150
G1 X121.003 Y113.302 E-0.04447
;WIPE_END
G1 E-0.04000 F2100.000
G1 Z0.600 F10800.000
G1 X127.820 Y114.173
G1 Z0.200
G1 E0.80000 F2100.000
;TYPE:Perimeter
G1 F1200.000
G1 X128.876 Y112.849 E0.05313
G1 X130.403 Y112.113 E0.05313
G1 X132.097 Y112.113 E0.05313
G1 X133.624 Y112.849 E0.05313
G1 X134.680 Y114.173 E0.05313
G1 X135.057 Y115.825 E0.05313
G1 X134.680 Y117.477 E0.05313
G1 X133.624 Y118.802 E0.05313
G1 X132.097 Y119.537 E0.05313
G1 X130.403 Y119.537 E0.05313
G1 X128.876 Y118.802 E0.05313
G1 X127.820 Y117.477 E0.05313
G1 X127.443 Y115.825 E0.05313
G1 X127.806 Y114.232 E0.05125
G1 X128.168 Y114.341 F10800.000
;TYPE:External perimeter
G1 F1200.000
G1 X129.117 Y113.151 E0.04773
G1 X130.489 Y112.491 E0.04773
G1 X132.011 Y112.491 E0.04773
G1 X133.383 Y113.151 E0.04773
M73 Q1 S77
G1 X134.332 Y114.341 E0.04773
G1 X134.671 Y115.825 E0.04773
G1 X134.332 Y117.309 E0.04773
G1 X133.383 Y118.500 E0.04773
M73 P1 R77
G1 X132.011 Y119.160 E0.04773
G1 X130.489 Y119.160 E0.04773
G1 X129.117 Y118.500 E0.04773
G1 X128.168 Y117.309 E0.04773
G1 X127.829 Y115.825 E0.04773
G1 X128.155 Y114.400 E0.04585
G1 X127.943 Y114.011 F10800.000
;WIPE_START
G1 F8640.000
G1 X129.117 Y113.151 E-0.36403
G1 X130.489 Y112.491 E-0.35150
G1 X130.681 Y112.491 E-0.04447
;WIPE_END
G1 E-0.04000 F2100.000
G1 Z0.600 F10800.000
G1 X135.126 Y107.977
G1 Z0.200
G1 E0.80000 F2100.000
;TYPE:Perimeter
G1 F1200.000
G1 X134.070 Y106.652 E0.05313
G1 X133.693 Y105.000 E0.05313
G1 X134.070 Y103.348 E0.05313
G1 X135.126 Y102.023 E0.05313
G1 X136.653 Y101.288 E0.05313
G1 X138.347 Y101.288 E0.05313
G1 X139.874 Y102.023 E0.05313
G1 X140.930 Y103.348 E0.05313
G1 X141.307 Y105.000 E0.05313
G1 X140.930 Y106.652 E0.05313
G1 X139.874 Y107.977 E0.05313
G1 X138.347 Y108.712 E0.05313
G1 X136.653 Y108.712 E0.05313
G1 X135.180 Y108.003 E0.05125
G1 X135.367 Y107.674 F10800.000
;TYPE:External perimeter
G1 F1200.000
G1 X134.418 Y106.484 E0.04773
G1 X134.079 Y105.000 E0.04773
G1 X134.418 Y103.516 E0.04773
