; generated by PrusaSlicer 2.3.1+win64 on 2021-05-24 at 08:59:01 UTC

; 

; external perimeters extrusion width = 0.45mm
; perimeters extrusion width = 0.45mm
; infill extrusion width = 0.45mm
; solid infill extrusion width = 0.45mm
; top infill extrusion width = 0.40mm
; support material extrusion width = 0.35mm
; first layer extrusion width = 0.42mm

M73 P0 R31
M73 Q0 S31
M201 X1000 Y1000 Z200 E5000 ; sets maximum accelerations, mm/sec^2
M203 X200 Y200 Z12 E120 ; sets maximum feedrates, mm/sec
M204 P1250 R1250 T1250 ; sets acceleration (P, T) and retract acceleration (R), mm/sec^2
M205 X8.00 Y8.00 Z0.40 E4.50 ; sets the jerk limits, mm/sec
M205 S0 T0 ; sets the minimum extruding and travel feed rate, mm/sec
M107
;TYPE:Custom
M862.3 P "MK3S" ; printer model check
M862.1 P0.4 ; nozzle diameter check
M115 U3.9.3 ; tell printer latest fw version
G90 ; use absolute coordinates
M83 ; extruder relative mode
M104 S215 ; set extruder temp
M140 S60 ; set bed temp
M190 S60 ; wait for bed temp
M109 S215 ; wait for extruder temp
G28 W ; home all without mesh bed level
G80 ; mesh bed leveling
G1 Y-3.0 F1000.0 ; go outside print area
G92 E0.0
G1 X60.0 E9.0 F1000.0 ; intro line
G1 X100.0 E12.5 F1000.0 ; intro line
G92 E0.0
M221 S95

; Don't change E values below. Excessive value can damage the printer.
M907 E430 ; set extruder motor current
G21 ; set units to millimeters
G90 ; use absolute coordinates
M83 ; use relative distances for extrusion
M900 K0.05 ; Filament gcode LA 1.5
M900 K30 ; Filament gcode LA 1.0
;LAYER_CHANGE
;Z:0.2
;HEIGHT:0.2
;BEFORE_LAYER_CHANGE
G92 E0.0
;0.2


G1 E-0.80000 F2100.000
G1 Z0.400 F10800.000
;AFTER_LAYER_CHANGE
;0.2
G1 X110.656 Y100.317
G1 Z0.200
G1 E0.80000 F2100.000
M204 S1000
;TYPE:Skirt
;WIDTH:0.42
G1 F1200.000
G1 X111.220 Y99.709 E0.02600
G1 X118.267 Y94.465 E0.27543
G1 X119.850 Y93.479 E0.05847
G1 X122.123 Y92.608 E0.07634
G1 X123.957 Y92.276 E0.05844
G1 X125.788 Y92.264 E0.05742
G1 X128.080 Y92.657 E0.07289
G1 X130.228 Y93.525 E0.07264
G1 X131.766 Y94.488 E0.05690
G1 X138.751 Y99.856 E0.27623
G1 X139.439 Y100.636 E0.03258
G1 X139.717 Y101.286 E0.02218
G1 X139.820 Y101.986 E0.02218
G1 X139.821 Y115.080 E0.41058
G1 X139.701 Y115.860 E0.02473
G1 X139.453 Y116.430 E0.01950
G1 X139.087 Y116.928 E0.01937
G1 X134.511 Y121.463 E0.20199
G1 X133.951 Y121.888 E0.02205
G1 X133.302 Y122.158 E0.02205
G1 X132.597 Y122.254 E0.02231
G1 X117.454 Y122.254 E0.47479
G1 X116.654 Y122.134 E0.02536
G1 X116.130 Y121.913 E0.01784
G1 X115.663 Y121.589 E0.01784
G1 X113.150 Y119.124 E0.11035
G1 X110.812 Y116.643 E0.10690
G1 X110.506 Y116.188 E0.01720
G1 X110.296 Y115.681 E0.01720
G1 X110.179 Y114.909 E0.02447
G1 X110.179 Y101.865 E0.40898
G1 X110.299 Y101.061 E0.02549
G1 X110.630 Y100.371 E0.02399
G1 X110.967 Y100.535 F10800.000
G1 F1200.000
G1 X111.466 Y99.995 E0.02304
G1 X118.486 Y94.771 E0.27438
G1 X120.045 Y93.802 E0.05756
G1 X122.202 Y92.977 E0.07241
G1 X123.994 Y92.651 E0.05709
G1 X125.788 Y92.641 E0.05626
G1 X127.978 Y93.020 E0.06968
G1 X130.033 Y93.847 E0.06945
G1 X131.541 Y94.791 E0.05578
G1 X138.515 Y100.150 E0.27578
G1 X139.118 Y100.835 E0.02860
G1 X139.356 Y101.394 E0.01906
G1 X139.443 Y101.999 E0.01917
G1 X139.444 Y115.075 E0.40998
G1 X139.337 Y115.761 E0.02178
G1 X139.121 Y116.252 E0.01680
G1 X138.801 Y116.682 E0.01680
G1 X134.244 Y121.197 E0.20115
G1 X133.756 Y121.566 E0.01917
G1 X133.190 Y121.798 E0.01917
G1 X132.591 Y121.877 E0.01894
G1 X117.455 Y121.877 E0.47459
G1 X116.753 Y121.770 E0.02225
G1 X116.299 Y121.575 E0.01550
G1 X115.895 Y121.291 E0.01550
G1 X113.417 Y118.858 E0.10888
G1 X111.112 Y116.414 E0.10534
G1 X110.654 Y115.561 E0.03036
G1 X110.556 Y114.903 E0.02083
G1 X110.556 Y101.865 E0.40880
G1 X110.663 Y101.160 E0.02237
G1 X110.941 Y100.589 E0.01991
; printing object Joint 5 Eccentric shaft.STL id:0 copy 0
;WIPE_START
G1 F8640.000
G1 X111.466 Y99.995 E-0.18298
G1 X113.471 Y98.504 E-0.57702
;WIPE_END
G1 E-0.04000 F2100.000
G1 Z0.600 F10800.000
G1 X112.933 Y101.865
G1 Z0.200
G1 E0.80000 F2100.000
;TYPE:Support material
G1 F1200.000
G1 X112.933 Y114.886 E0.40826
G1 X113.688 Y114.886 E0.02365
G1 X113.688 Y102.035 E0.40294
M73 P1 R31
M73 Q1 S31
G1 X114.442 Y102.035 E0.02365
G1 X114.442 Y114.886 E0.40294
G1 X115.114 Y114.886 E0.02107
G1 X115.114 Y117.193 E0.07234
G1 X115.196 Y117.193 E0.00257
G1 X115.196 Y102.035 E0.47527
G1 X115.950 Y102.035 E0.02365
G1 X115.950 Y117.193 E0.47527
G1 X116.704 Y117.193 E0.02365
G1 X116.704 Y106.738 E0.32783
G1 X117.458 Y108.226 E0.05231
G1 X117.458 Y119.500 E0.35350
G1 X118.213 Y119.500 E0.02365
G1 X118.213 Y109.225 E0.32219
G1 X118.426 Y109.501 E0.01094
G1 X118.967 Y109.994 E0.02295
G1 X118.967 Y119.500 E0.29806
G1 X119.721 Y119.500 E0.02365
G1 X119.721 Y110.654 E0.27736
G1 X120.475 Y111.121 E0.02781
G1 X120.475 Y119.500 E0.26272
G1 X121.229 Y119.500 E0.02365
G1 X121.229 Y111.541 E0.24955
G1 X121.983 Y111.833 E0.02536
G1 X121.983 Y119.500 E0.24039
G1 X122.738 Y119.500 E0.02365
G1 X122.738 Y112.090 E0.23235
G1 X123.492 Y112.231 E0.02406
G1 X123.492 Y119.500 E0.22792
G1 X124.246 Y119.500 E0.02365
G1 X124.246 Y112.359 E0.22391
G1 X125.000 Y112.359 E0.02365
G1 X125.000 Y119.500 E0.22391
G1 X125.754 Y119.500 E0.02365
G1 X125.754 Y112.359 E0.22391
G1 X126.508 Y112.231 E0.02399
G1 X126.508 Y119.500 E0.22792
G1 X127.262 Y119.500 E0.02365
G1 X127.262 Y112.090 E0.23235
G1 X127.458 Y112.050 E0.00625
G1 X128.017 Y111.833 E0.01879
G1 X128.017 Y119.500 E0.24039
G1 X128.771 Y119.500 E0.02365
G1 X128.771 Y111.541 E0.24955
G1 X128.990 Y111.452 E0.00742
G1 X129.525 Y111.121 E0.01972
G1 X129.525 Y119.500 E0.26272
G1 X130.279 Y119.500 E0.02365
G1 X130.279 Y110.654 E0.27736
G1 X130.387 Y110.583 E0.00404
G1 X131.033 Y109.994 E0.02742
G1 X131.033 Y119.500 E0.29806
G1 X131.787 Y119.500 E0.02365
G1 X131.787 Y109.225 E0.32219
G1 X132.542 Y108.226 E0.03924
G1 X132.542 Y119.500 E0.35350
G1 X132.579 Y119.500 E0.00118
G1 X132.579 Y117.193 E0.07234
G1 X133.296 Y117.193 E0.02247
G1 X133.296 Y106.738 E0.32783
G1 X133.765 Y105.100 E0.05341
G1 X133.914 Y103.500 E0.05039
G1 X133.781 Y102.035 E0.04611
G1 X134.050 Y102.035 E0.00842
G1 X134.050 Y117.193 E0.47527
G1 X134.804 Y117.193 E0.02365
G1 X134.804 Y102.035 E0.47527
G1 X135.558 Y102.035 E0.02365
G1 X135.558 Y114.886 E0.40294
G1 X136.312 Y114.886 E0.02365
G1 X136.312 Y102.035 E0.40294
G1 X137.067 Y102.035 E0.02365
G1 X137.067 Y115.056 E0.40826
;WIPE_START
M73 P1 R30
G1 F8640.000
G1 X137.067 Y111.764 E-0.76000
;WIPE_END
G1 E-0.04000 F2100.000
G1 Z0.600 F10800.000
G1 X126.508 Y106.748
G1 Z0.200
M73 Q2 S31
G1 E0.80000 F2100.000
G1 F1200.000
G1 X126.508 Y103.447 E0.10352
G1 X126.193 Y103.156 E0.01345
G1 X125.754 Y102.964 E0.01502
G1 X125.754 Y107.000 E0.12655
M73 P2 R30
G1 X125.535 Y107.096 E0.00749
G1 X125.000 Y107.140 E0.01684
G1 X125.000 Y102.823 E0.13535
G1 X124.820 Y102.809 E0.00567
G1 X124.246 Y102.954 E0.01857
G1 X124.246 Y107.010 E0.12717
G1 X124.124 Y106.979 E0.00394
G1 X123.523 Y106.586 E0.02251
G1 X123.492 Y106.546 E0.00160
G1 X123.492 Y103.195 E0.10506
;WIPE_START
G1 F8640.000
G1 X123.492 Y106.487 E-0.76000
;WIPE_END
G1 E-0.04000 F2100.000
G1 Z0.600 F10800.000
G1 X122.699 Y102.482
G1 Z0.200
G1 E0.80000 F2100.000
;TYPE:Perimeter
G1 F1200.000
G1 X123.635 Y101.870 E0.03507
G1 X124.719 Y101.596 E0.03507
G1 X125.834 Y101.688 E0.03507
G1 X126.859 Y102.137 E0.03507
G1 X127.681 Y102.895 E0.03507
G1 X128.214 Y103.879 E0.03507
G1 X128.398 Y104.982 E0.03507
G1 X128.214 Y106.085 E0.03507
G1 X127.681 Y107.070 E0.03511
G1 X126.860 Y107.826 E0.03500
G1 X125.834 Y108.276 E0.03511
G1 X124.719 Y108.368 E0.03507
G1 X123.635 Y108.094 E0.03506
G1 X122.701 Y107.485 E0.03497
G1 X122.012 Y106.599 E0.03519
G1 X121.648 Y105.541 E0.03507
G1 X121.648 Y104.423 E0.03507
G1 X122.012 Y103.365 E0.03507
G1 X122.662 Y102.529 E0.03319
G1 X122.958 Y102.763 F10800.000
;TYPE:External perimeter
G1 F1200.000
G1 X123.789 Y102.220 E0.03113
M73 Q2 S30
G1 X124.751 Y101.977 E0.03113
G1 X125.740 Y102.058 E0.03113
G1 X126.649 Y102.457 E0.03113
G1 X127.380 Y103.130 E0.03113
G1 X127.852 Y104.003 E0.03113
G1 X128.016 Y104.982 E0.03113
G1 X127.852 Y105.961 E0.03113
G1 X127.379 Y106.835 E0.03116
G1 X126.651 Y107.506 E0.03105
G1 X125.740 Y107.905 E0.03116
G1 X124.751 Y107.987 E0.03113
G1 X123.789 Y107.744 E0.03112
G1 X122.960 Y107.203 E0.03102
G1 X122.348 Y106.417 E0.03124
G1 X122.025 Y105.478 E0.03113
G1 X122.025 Y104.486 E0.03113
G1 X122.348 Y103.547 E0.03113
G1 X122.921 Y102.811 E0.02924
G1 X122.870 Y102.373 F10800.000
;WIPE_START
G1 F8640.000
G1 X123.789 Y102.220 E-0.24237
G1 X124.751 Y101.977 E-0.22922
G1 X125.740 Y102.058 E-0.22922
G1 X125.975 Y102.161 E-0.05919
;WIPE_END
G1 E-0.04000 F2100.000
G1 Z0.600 F10800.000
G1 X117.811 Y100.697
G1 Z0.200
G1 E0.80000 F2100.000
;TYPE:Perimeter
G1 F1200.000
G1 X118.445 Y99.423 E0.04461
G1 X119.303 Y98.288 E0.04461
G1 X120.354 Y97.330 E0.04461
G1 X121.564 Y96.581 E0.04461
G1 X122.890 Y96.067 E0.04461
G1 X124.289 Y95.805 E0.04461
G1 X125.711 Y95.805 E0.04461
G1 X127.110 Y96.067 E0.04461
G1 X128.436 Y96.581 E0.04461
G1 X129.646 Y97.330 E0.04461
G1 X130.697 Y98.288 E0.04461
G1 X131.555 Y99.423 E0.04461
G1 X132.189 Y100.697 E0.04461
G1 X132.578 Y102.065 E0.04461
G1 X132.710 Y103.482 E0.04461
G1 X132.578 Y104.898 E0.04461
G1 X132.189 Y106.267 E0.04461
G1 X131.555 Y107.540 E0.04461
G1 X130.697 Y108.676 E0.04461
G1 X129.646 Y109.634 E0.04461
G1 X128.436 Y110.383 E0.04461
G1 X127.110 Y110.897 E0.04461
G1 X125.711 Y111.159 E0.04461
G1 X124.289 Y111.159 E0.04461
G1 X122.890 Y110.897 E0.04461
G1 X121.564 Y110.383 E0.04461
G1 X120.354 Y109.634 E0.04461
G1 X119.303 Y108.676 E0.04461
G1 X118.445 Y107.540 E0.04461
G1 X117.811 Y106.267 E0.04461
G1 X117.422 Y104.898 E0.04461
G1 X117.290 Y103.482 E0.04461
G1 X117.422 Y102.065 E0.04461
G1 X117.795 Y100.755 E0.04273
G1 X117.432 Y100.651 F10800.000
;TYPE:External perimeter
G1 F1200.000
G1 X117.458 Y100.560 E0.00298
G1 X118.123 Y99.224 E0.04680
G1 X119.023 Y98.033 E0.04680
G1 X120.126 Y97.027 E0.04680
G1 X121.395 Y96.242 E0.04680
G1 X122.787 Y95.702 E0.04680
G1 X124.254 Y95.428 E0.04680
G1 X125.746 Y95.428 E0.04680
G1 X127.213 Y95.702 E0.04680
G1 X128.605 Y96.242 E0.04680
G1 X129.874 Y97.027 E0.04680
G1 X130.977 Y98.033 E0.04680
G1 X131.877 Y99.224 E0.04680
G1 X132.542 Y100.560 E0.04680
G1 X132.951 Y101.996 E0.04680
G1 X133.088 Y103.482 E0.04680
G1 X132.951 Y104.968 E0.04680
G1 X132.542 Y106.404 E0.04680
G1 X131.877 Y107.740 E0.04680
G1 X130.977 Y108.931 E0.04680
G1 X129.874 Y109.936 E0.04680
G1 X128.605 Y110.722 E0.04680
G1 X127.213 Y111.261 E0.04680
G1 X125.746 Y111.536 E0.04680
G1 X124.254 Y111.536 E0.04680
G1 X122.787 Y111.261 E0.04680
G1 X121.395 Y110.722 E0.04680
G1 X120.126 Y109.936 E0.04680
G1 X119.023 Y108.931 E0.04680
G1 X118.123 Y107.740 E0.04680
G1 X117.458 Y106.404 E0.04680
G1 X117.049 Y104.968 E0.04680
G1 X116.912 Y103.482 E0.04680
G1 X117.049 Y101.996 E0.04680
G1 X117.416 Y100.709 E0.04194
G1 X117.523 Y100.625 F10800.000
;WIPE_START
G1 F8640.000
G1 X117.458 Y100.560 E-0.03578
G1 X118.123 Y99.224 E-0.34464
G1 X119.023 Y98.033 E-0.34464
G1 X119.135 Y97.931 E-0.03494
;WIPE_END
G1 E-0.04000 F2100.000
G1 Z0.600 F10800.000
G1 X129.182 Y97.175
G1 Z0.200
G1 E0.80000 F2100.000
;TYPE:Solid infill
;WIDTH:0.423257
G1 F1200.000
G1 X130.492 Y98.486 E0.05861
G1 X131.313 Y99.573 E0.04309
G1 X131.583 Y100.114 E0.01912
G1 X128.300 Y96.831 E0.14683
G1 X127.422 Y96.491 E0.02978
G1 X132.001 Y101.070 E0.20482
G1 X132.215 Y101.822 E0.02472
G1 X126.664 Y96.271 E0.24827
G1 X126.003 Y96.147 E0.02128
G1 X132.332 Y102.477 E0.28310
G1 X132.387 Y103.070 E0.01883
G1 X125.405 Y96.088 E0.31227
G1 X124.867 Y96.088 E0.01701
G1 X132.412 Y103.632 E0.33741
G1 X132.366 Y104.124 E0.01563
G1 X124.330 Y96.088 E0.35943
G1 X123.874 Y96.170 E0.01464
G1 X132.320 Y104.617 E0.37776
G1 X132.299 Y104.846 E0.00729
G1 X132.236 Y105.070 E0.00735
G1 X123.421 Y96.255 E0.39423
G1 X122.968 Y96.340 E0.01458
G1 X132.116 Y105.488 E0.40917
G1 X131.997 Y105.907 E0.01377
G1 X122.580 Y96.490 E0.42118
G1 X122.192 Y96.640 E0.01315
G1 X131.855 Y106.303 E0.43216
G1 X131.676 Y106.662 E0.01269
G1 X121.805 Y96.790 E0.44150
G1 X121.690 Y96.835 E0.00389
G1 X121.456 Y96.980 E0.00871
G1 X125.885 Y101.408 E0.19807
G1 X125.298 Y101.360 E0.01861
G1 X121.124 Y97.185 E0.18670
G1 X120.792 Y97.391 E0.01236
G1 X124.712 Y101.311 E0.17532
G1 X124.278 Y101.415 E0.01410
G1 X120.470 Y97.607 E0.17034
G1 X120.188 Y97.863 E0.01204
G1 X123.849 Y101.524 E0.16373
M73 Q3 S30
G1 X123.520 Y101.608 E0.01074
G1 X123.444 Y101.657 E0.00286
G1 X119.907 Y98.120 E0.15820
M73 P3 R30
G1 X119.625 Y98.376 E0.01204
G1 X123.119 Y101.870 E0.15624
G1 X122.793 Y102.082 E0.01229
G1 X119.374 Y98.663 E0.15293
G1 X119.143 Y98.969 E0.01214
G1 X122.478 Y102.305 E0.14918
G1 X122.243 Y102.607 E0.01212
G1 X118.911 Y99.276 E0.14901
G1 X118.687 Y99.573 E0.01178
G1 X122.007 Y102.910 E0.14888
G1 X121.772 Y103.212 E0.01212
G1 X118.502 Y99.943 E0.14622
G1 X118.324 Y100.302 E0.01269
G1 X121.629 Y103.607 E0.14784
G1 X121.492 Y104.008 E0.01339
G1 X118.145 Y100.661 E0.14969
G1 X118.076 Y100.799 E0.00490
G1 X118.003 Y101.057 E0.00846
G1 X121.366 Y104.419 E0.15040
G1 X121.366 Y104.957 E0.01701
G1 X117.884 Y101.475 E0.15573
G1 X117.764 Y101.894 E0.01377
G1 X121.590 Y105.720 E0.17110
;WIPE_START
G1 F8640.000
G1 X119.263 Y103.392 E-0.76000
;WIPE_END
G1 E-0.04000 F2100.000
G1 Z0.600 F10800.000
G1 X128.323 Y103.847
G1 Z0.200
G1 E0.80000 F2100.000
G1 F1200.000
G1 X131.497 Y107.021 E0.14197
G1 X131.319 Y107.380 E0.01269
G1 X128.637 Y104.699 E0.11992
G1 X128.685 Y104.982 E0.00907
G1 X128.641 Y105.241 E0.00830
G1 X131.089 Y107.688 E0.10946
G1 X130.857 Y107.995 E0.01214
G1 X128.565 Y105.702 E0.10255
G1 X128.488 Y106.163 E0.01478
G1 X130.626 Y108.301 E0.09564
G1 X130.488 Y108.484 E0.00727
G1 X130.374 Y108.587 E0.00484
G1 X128.303 Y106.516 E0.09267
G1 X128.114 Y106.865 E0.01255
G1 X130.093 Y108.844 E0.08853
G1 X129.812 Y109.100 E0.01204
G1 X127.925 Y107.214 E0.08439
G1 X127.653 Y107.480 E0.01203
G1 X129.530 Y109.357 E0.08395
G1 X129.208 Y109.573 E0.01226
G1 X127.373 Y107.738 E0.08207
G1 X127.093 Y107.995 E0.01204
G1 X128.876 Y109.778 E0.07974
G1 X128.544 Y109.984 E0.01236
G1 X126.745 Y108.185 E0.08046
G1 X126.371 Y108.349 E0.01291
G1 X128.195 Y110.173 E0.08159
G1 X127.808 Y110.324 E0.01315
G1 X125.997 Y108.513 E0.08097
G1 X125.905 Y108.554 E0.00320
G1 X125.531 Y108.585 E0.01186
G1 X127.420 Y110.474 E0.08448
G1 X127.032 Y110.624 E0.01315
G1 X125.034 Y108.626 E0.08936
G1 X124.696 Y108.654 E0.01074
G1 X124.466 Y108.596 E0.00749
G1 X126.579 Y110.709 E0.09449
G1 X126.126 Y110.793 E0.01458
G1 X123.746 Y108.413 E0.10644
G1 X123.520 Y108.356 E0.00736
G1 X122.507 Y107.696 E0.03826
G1 X121.759 Y106.736 E0.03849
G1 X121.598 Y106.266 E0.01572
G1 X117.680 Y102.347 E0.17525
G1 X117.634 Y102.839 E0.01563
G1 X125.670 Y110.876 E0.35942
G1 X125.132 Y110.876 E0.01701
G1 X117.588 Y103.332 E0.33741
G1 X117.574 Y103.482 E0.00477
G1 X117.613 Y103.894 E0.01308
G1 X124.595 Y110.876 E0.31227
G1 X124.315 Y110.876 E0.00885
G1 X123.997 Y110.816 E0.01021
G1 X117.668 Y104.487 E0.28310
G1 X117.701 Y104.846 E0.01143
G1 X117.785 Y105.142 E0.00972
G1 X123.336 Y110.693 E0.24826
G1 X122.968 Y110.624 E0.01184
G1 X122.578 Y110.473 E0.01322
G1 X117.999 Y105.894 E0.20481
G1 X118.076 Y106.164 E0.00890
G1 X118.417 Y106.850 E0.02422
G1 X121.700 Y110.133 E0.14682
G1 X120.525 Y109.408 E0.04367
G1 X119.529 Y108.499 E0.04264
G1 X118.640 Y107.610 E0.03977
; stop printing object Joint 5 Eccentric shaft.STL id:0 copy 0
M106 S84.15
;LAYER_CHANGE
;Z:0.4
;HEIGHT:0.2
;BEFORE_LAYER_CHANGE
G92 E0.0
;0.4


;WIPE_START
G1 F8640.000
G1 X119.529 Y108.499 E-0.29034
G1 X120.525 Y109.408 E-0.31134
G1 X121.109 Y109.768 E-0.15833
;WIPE_END
G1 E-0.04000 F2100.000
G1 Z0.600 F10800.000
;AFTER_LAYER_CHANGE
;0.4
G1 X110.299 Y101.061
G1 Z0.400
G1 E0.80000 F2100.000
;TYPE:Skirt
;WIDTH:0.42
G1 F3000.000
G1 X110.656 Y100.317 E0.02587
G1 X111.220 Y99.709 E0.02600
G1 X118.267 Y94.465 E0.27543
G1 X119.850 Y93.479 E0.05847
G1 X122.123 Y92.608 E0.07634
G1 X123.957 Y92.276 E0.05844
G1 X125.788 Y92.264 E0.05742
G1 X128.080 Y92.657 E0.07289
G1 X130.228 Y93.525 E0.07264
G1 X131.766 Y94.488 E0.05690
