; generated by PrusaSlicer 2.3.1+win64 on 2021-05-24 at 09:05:12 UTC

; 

; external perimeters extrusion width = 0.45mm
; perimeters extrusion width = 0.45mm
; infill extrusion width = 0.45mm
; solid infill extrusion width = 0.45mm
; top infill extrusion width = 0.40mm
; first layer extrusion width = 0.42mm

M73 P0 R62
M73 Q0 S62
M201 X1000 Y1000 Z200 E5000 ; sets maximum accelerations, mm/sec^2
M203 X200 Y200 Z12 E120 ; sets maximum feedrates, mm/sec
M204 P1250 R1250 T1250 ; sets acceleration (P, T) and retract acceleration (R), mm/sec^2
M205 X8.00 Y8.00 Z0.40 E4.50 ; sets the jerk limits, mm/sec
M205 S0 T0 ; sets the minimum extruding and travel feed rate, mm/sec
M107
;TYPE:Custom
M862.3 P "MK3S" ; printer model check
M862.1 P0.4 ; nozzle diameter check
M115 U3.9.3 ; tell printer latest fw version
G90 ; use absolute coordinates
M83 ; extruder relative mode
M104 S215 ; set extruder temp
M140 S60 ; set bed temp
M190 S60 ; wait for bed temp
M109 S215 ; wait for extruder temp
G28 W ; home all without mesh bed level
G80 ; mesh bed leveling
G1 Y-3.0 F1000.0 ; go outside print area
G92 E0.0
G1 X60.0 E9.0 F1000.0 ; intro line
G1 X100.0 E12.5 F1000.0 ; intro line
G92 E0.0
M221 S95

; Don't change E values below. Excessive value can damage the printer.
M907 E430 ; set extruder motor current
G21 ; set units to millimeters
G90 ; use absolute coordinates
M83 ; use relative distances for extrusion
M900 K0.05 ; Filament gcode LA 1.5
M900 K30 ; Filament gcode LA 1.0
;LAYER_CHANGE
;Z:0.2
;HEIGHT:0.2
;BEFORE_LAYER_CHANGE
G92 E0.0
;0.2


G1 E-0.80000 F2100.000
G1 Z0.400 F10800.000
;AFTER_LAYER_CHANGE
;0.2
G1 X116.485 Y81.788
G1 Z0.200
G1 E0.80000 F2100.000
M204 S1000
;TYPE:Skirt
;WIDTH:0.42
G1 F1200.000
G1 X118.499 Y79.994 E0.08459
G1 X120.657 Y78.832 E0.07685
G1 X121.224 Y78.609 E0.01909
G1 X123.629 Y78.035 E0.07752
G1 X126.014 Y78.016 E0.07480
G1 X126.621 Y78.078 E0.01911
G1 X129.027 Y78.689 E0.07784
G1 X131.193 Y79.803 E0.07638
G1 X131.696 Y80.146 E0.01910
G1 X133.515 Y81.785 E0.07676
G1 X134.918 Y83.781 E0.07650
G1 X135.200 Y84.318 E0.01899
G1 X136.072 Y86.724 E0.08025
G1 X136.376 Y89.307 E0.08156
G1 X136.333 Y130.107 E1.27925
G1 X136.070 Y130.822 E0.02390
G1 X135.593 Y131.417 E0.02390
G1 X134.953 Y131.831 E0.02390
G1 X134.214 Y132.020 E0.02390
G1 X115.546 Y131.986 E0.58534
G1 X114.801 Y131.705 E0.02496
G1 X114.193 Y131.197 E0.02484
G1 X113.786 Y130.517 E0.02484
G1 X113.624 Y129.738 E0.02496
G1 X113.623 Y89.314 E1.26745
M73 P0 R61
G1 X113.928 Y86.723 E0.08181
G1 X114.810 Y84.300 E0.08083
G1 X115.065 Y83.810 E0.01732
G1 X116.450 Y81.838 E0.07558
; printing object Servo_gripper_plug.STL id:0 copy 0
;WIPE_START
G1 F8640.000
G1 X118.499 Y79.994 E-0.63644
G1 X118.970 Y79.740 E-0.12356
;WIPE_END
G1 E-0.04000 F2100.000
G1 Z0.600 F10800.000
G1 X123.990 Y122.949
G1 Z0.200
G1 E0.80000 F2100.000
;TYPE:External perimeter
G1 F1200.000
G1 X126.010 Y122.949 E0.06334
G1 X126.010 Y124.552 E0.05026
G1 X126.412 Y124.557 E0.01260
G1 X126.833 Y124.600 E0.01326
G1 X127.452 Y124.732 E0.01987
G1 X127.498 Y125.337 E0.01902
G1 X127.553 Y125.738 E0.01269
G1 X127.607 Y126.550 E0.02551
G1 X126.010 Y126.567 E0.05008
G1 X126.010 Y128.169 E0.05024
G1 X123.990 Y128.169 E0.06334
G1 X123.990 Y126.569 E0.05017
G1 X122.390 Y126.569 E0.05017
G1 X122.390 Y124.549 E0.06334
G1 X123.990 Y124.549 E0.05017
G1 X123.990 Y123.009 E0.04829
G1 X124.094 Y122.563 F10800.000
;WIPE_START
G1 F8640.000
G1 X126.010 Y122.949 E-0.46663
G1 X126.010 Y124.220 E-0.29337
;WIPE_END
G1 E-0.04000 F2100.000
G1 Z0.600 F10800.000
G1 X121.939 Y124.549
G1 Z0.200
G1 E0.80000 F2100.000
G1 F1200.000
G1 X121.939 Y126.569 E0.06334
G1 X118.104 Y126.568 E0.12025
G1 X116.753 Y126.530 E0.04237
G1 X116.753 Y124.589 E0.06083
G1 X118.104 Y124.551 E0.04236
G1 X121.879 Y124.549 E0.11837
G1 X122.339 Y124.548 F10800.000
;WIPE_START
G1 F8640.000
G1 X121.939 Y126.569 E-0.46665
G1 X120.669 Y126.569 E-0.29335
;WIPE_END
G1 E-0.04000 F2100.000
G1 Z0.600 F10800.000
G1 X123.613 Y128.546
G1 Z0.200
G1 E0.80000 F2100.000
;TYPE:Perimeter
G1 F1200.000
G1 X126.387 Y128.546 E0.08698
G1 X126.387 Y126.940 E0.05036
G1 X127.438 Y126.929 E0.03295
G1 X127.514 Y127.607 E0.02140
G1 X128.054 Y128.586 E0.03506
G1 X128.537 Y128.866 E0.01752
G1 X116.787 Y128.866 E0.36843
G1 X116.780 Y126.907 E0.06140
G1 X118.098 Y126.945 E0.04136
G1 X123.613 Y126.946 E0.17291
G1 X123.613 Y128.486 E0.04829
;WIPE_START
G1 F8640.000
G1 X126.387 Y128.546 E-0.64071
G1 X126.387 Y128.030 E-0.11929
;WIPE_END
G1 E-0.04000 F2100.000
G1 Z0.600 F10800.000
G1 X127.965 Y126.241
G1 Z0.200
G1 E0.80000 F2100.000
G1 F1200.000
G1 X127.963 Y126.218 E0.00072
G1 X127.980 Y126.230 E0.00066
;WIPE_START
G1 F8640.000
G1 X127.963 Y126.218 E-0.00484
G1 X127.980 Y126.230 E-0.00484
;WIPE_END
G1 E-0.79033 F2100.000
G1 Z0.600 F10800.000
G1 X129.734 Y127.041
G1 Z0.200
G1 E0.80000 F2100.000
G1 F1200.000
G1 X130.033 Y127.141 E0.00990
G1 X129.781 Y127.073 E0.00818
;WIPE_START
G1 F8640.000
G1 X130.033 Y127.141 E-0.06025
G1 X129.781 Y127.073 E-0.06025
;WIPE_END
G1 E-0.67950 F2100.000
G1 Z0.600 F10800.000
G1 X130.592 Y125.027
G1 Z0.200
G1 E0.80000 F2100.000
G1 F1200.000
G1 X129.675 Y124.713 E0.03039
G1 X130.023 Y124.644 E0.01113
G1 X130.153 Y124.657 E0.00408
G1 X130.479 Y124.811 E0.01130
G1 X130.541 Y124.881 E0.00294
G1 X130.572 Y124.970 E0.00296
;WIPE_START
G1 F8640.000
G1 X129.675 Y124.713 E-0.21549
G1 X130.023 Y124.644 E-0.08199
G1 X130.153 Y124.657 E-0.03007
G1 X130.479 Y124.811 E-0.08323
G1 X130.541 Y124.881 E-0.02166
G1 X130.572 Y124.970 E-0.02183
;WIPE_END
G1 E-0.34573 F2100.000
G1 Z0.600 F10800.000
G1 X132.584 Y125.506
G1 Z0.200
G1 E0.80000 F2100.000
;TYPE:External perimeter
G1 F1200.000
G1 X131.718 Y125.446 E0.02722
G1 X131.196 Y125.356 E0.01664
G1 X130.955 Y124.920 E0.01562
G1 X130.872 Y124.688 E0.00772
G1 X130.711 Y124.503 E0.00768
G1 X130.255 Y124.289 E0.01579
G1 X130.006 Y124.263 E0.00788
G1 X129.508 Y124.362 E0.01592
G1 X129.328 Y124.498 E0.00705
G1 X129.228 Y124.717 E0.00754
G1 X129.267 Y124.874 E0.00507
G1 X129.364 Y124.977 E0.00444
G1 X129.519 Y125.059 E0.00551
G1 X130.388 Y125.347 E0.02870
G1 X131.618 Y125.933 E0.04274
G1 X132.015 Y126.196 E0.01494
G1 X132.295 Y126.822 E0.02150
G1 X132.322 Y127.156 E0.01050
G1 X132.100 Y127.981 E0.02677
G1 X131.571 Y128.549 E0.02434
G1 X130.682 Y128.872 E0.02965
G1 X130.115 Y128.902 E0.01782
G1 X129.178 Y128.802 E0.02955
G1 X128.333 Y128.313 E0.03059
G1 X127.880 Y127.491 E0.02943
G1 X127.781 Y126.606 E0.02791
G1 X128.606 Y126.667 E0.02594
G1 X129.123 Y126.745 E0.01638
G1 X129.356 Y127.111 E0.01361
G1 X129.418 Y127.271 E0.00536
G1 X129.573 Y127.406 E0.00645
G1 X129.964 Y127.516 E0.01274
G1 X130.072 Y127.520 E0.00339
G1 X130.555 Y127.442 E0.01534
G1 X130.695 Y127.342 E0.00539
G1 X130.766 Y127.206 E0.00484
G1 X130.751 Y127.076 E0.00409
G1 X130.725 Y127.038 E0.00145
G1 X130.187 Y126.795 E0.01852
G1 X129.872 Y126.690 E0.01040
G1 X129.209 Y126.407 E0.02262
G1 X128.860 Y126.304 E0.01140
G1 X128.502 Y126.132 E0.01245
G1 X128.128 Y125.874 E0.01424
G1 X127.882 Y125.327 E0.01882
G1 X127.822 Y124.784 E0.01713
G1 X127.841 Y124.378 E0.01274
G1 X127.914 Y123.911 E0.01482
G1 X128.434 Y123.294 E0.02530
G1 X129.222 Y122.931 E0.02721
G1 X129.954 Y122.843 E0.02312
G1 X130.903 Y122.957 E0.02996
G1 X131.728 Y123.369 E0.02892
G1 X132.324 Y124.162 E0.03108
G1 X132.573 Y125.447 E0.04107
G1 X132.617 Y125.905 F10800.000
G1 X133.048 Y125.916
;TYPE:Perimeter
G1 F1200.000
G1 X132.678 Y124.004 E0.06106
G1 X131.976 Y123.072 E0.03659
G1 X131.013 Y122.591 E0.03376
G1 X129.954 Y122.463 E0.03343
G1 X129.118 Y122.564 E0.02641
M73 Q0 S61
G1 X128.200 Y122.987 E0.03170
G1 X127.558 Y123.749 E0.03124
G1 X127.465 Y124.349 E0.01905
G1 X126.891 Y124.227 E0.01839
G1 X126.387 Y124.180 E0.01587
G1 X126.387 Y122.572 E0.05041
G1 X123.613 Y122.572 E0.08698
G1 X123.613 Y124.172 E0.05017
G1 X118.098 Y124.174 E0.17292
G1 X116.773 Y124.211 E0.04156
G1 X116.787 Y123.185 E0.03218
G1 X116.787 Y89.377 E1.06003
G1 X117.032 Y87.365 E0.06356
G1 X117.733 Y85.515 E0.06202
G1 X118.857 Y83.887 E0.06204
G1 X120.338 Y82.575 E0.06204
G1 X122.090 Y81.655 E0.06204
G1 X124.011 Y81.182 E0.06204
G1 X125.990 Y81.182 E0.06204
G1 X127.911 Y81.655 E0.06204
G1 X129.663 Y82.575 E0.06204
G1 X131.144 Y83.887 E0.06204
G1 X132.268 Y85.515 E0.06204
G1 X132.969 Y87.365 E0.06204
G1 X133.213 Y89.372 E0.06339
G1 X133.213 Y128.866 E1.23830
G1 X131.790 Y128.867 E0.04461
G1 X132.440 Y128.169 E0.02989
G1 X132.703 Y127.191 E0.03176
G1 X132.666 Y126.728 E0.01457
G1 X132.315 Y125.943 E0.02695
G1 X132.186 Y125.857 E0.00487
G1 X132.988 Y125.912 E0.02522
;WIPE_START
G1 F8640.000
G1 X132.678 Y124.004 E-0.44629
G1 X131.976 Y123.072 E-0.26950
G1 X131.805 Y122.986 E-0.04422
;WIPE_END
G1 E-0.04000 F2100.000
G1 Z0.600 F10800.000
G1 X133.590 Y129.243
G1 Z0.200
G1 E0.80000 F2100.000
;TYPE:External perimeter
G1 F1200.000
G1 X131.498 Y129.244 E0.06560
G1 X130.000 Y129.274 E0.04697
G1 X128.502 Y129.243 E0.04698
G1 X116.410 Y129.243 E0.37915
G1 X116.408 Y127.161 E0.06526
G1 X116.376 Y125.669 E0.04679
G1 X116.410 Y123.183 E0.07798
G1 X116.410 Y89.354 E1.06066
G1 X116.663 Y87.274 E0.06571
G1 X117.397 Y85.339 E0.06489
G1 X118.573 Y83.635 E0.06491
G1 X120.122 Y82.262 E0.06491
G1 X121.955 Y81.300 E0.06491
G1 X123.965 Y80.805 E0.06491
G1 X126.035 Y80.805 E0.06491
G1 X128.045 Y81.300 E0.06491
G1 X129.878 Y82.262 E0.06491
G1 X131.428 Y83.635 E0.06491
G1 X132.604 Y85.339 E0.06491
G1 X133.338 Y87.274 E0.06491
G1 X133.590 Y89.349 E0.06554
G1 X133.590 Y129.183 E1.24895
G1 X133.243 Y129.044 F10800.000
;WIPE_START
G1 F8640.000
G1 X131.498 Y129.244 E-0.48328
G1 X130.300 Y129.268 E-0.27672
;WIPE_END
G1 E-0.04000 F2100.000
G1 Z0.600 F10800.000
G1 X132.861 Y127.962
G1 Z0.200
G1 E0.80000 F2100.000
;TYPE:Gap fill
;WIDTH:0.332654
G1 F1200.000
G1 X132.885 Y127.778 E0.00447
;WIDTH:0.293514
G1 X132.909 Y127.594 E0.00387
;WIDTH:0.254373
G1 X132.933 Y127.410 E0.00326
;WIDTH:0.215233
G1 X132.958 Y127.226 E0.00266
;WIDTH:0.176092
G1 X132.937 Y126.673 E0.00612
G1 X132.864 Y126.093 E0.00648
G1 X132.010 Y125.787 F10800.000
;WIDTH:0.185483
G1 F1200.000
G1 X131.692 Y125.693 E0.00394
;WIDTH:0.161864
G1 X131.557 Y125.651 E0.00140
;WIDTH:0.126599
G1 X131.428 Y125.610 E0.00094
G1 X130.987 Y125.404 F10800.000
;WIDTH:0.109792
G1 F1200.000
G1 X130.949 Y125.369 E0.00029
G1 X130.898 Y125.254 E0.00070
;WIPE_START
G1 F8640.000
G1 X130.949 Y125.369 E-0.02896
G1 X130.987 Y125.404 E-0.01204
;WIPE_END
G1 E-0.75900 F2100.000
G1 Z0.600 F10800.000
G1 X129.326 Y126.681
G1 Z0.200
G1 E0.80000 F2100.000
;WIDTH:0.112098
G1 F1200.000
G1 X129.370 Y126.718 E0.00033
G1 X129.423 Y126.824 E0.00068
G1 X128.726 Y126.473 F10800.000
;WIDTH:0.114859
G1 F1200.000
G1 X128.457 Y126.397 E0.00168
;WIDTH:0.215857
G1 X128.176 Y126.314 E0.00421
G1 X127.840 Y125.905 F10800.000
;WIDTH:0.179704
M73 Q1 S61
G1 F1200.000
G1 X127.793 Y125.715 E0.00222
;WIDTH:0.147233
G1 X127.763 Y125.611 E0.00094
;WIDTH:0.119685
G1 X127.734 Y125.510 E0.00067
;WIPE_START
G1 F8640.000
G1 X127.763 Y125.611 E-0.02426
;WIPE_END
G1 E-0.77574 F2100.000
G1 Z0.600 F10800.000
G1 X127.885 Y128.516
G1 Z0.200
G1 E0.80000 F2100.000
;TYPE:Solid infill
;WIDTH:0.495415
M73 P1 R61
G1 F1200.000
G1 X126.670 Y127.300 E0.06468
G1 X126.670 Y127.940 E0.02408
G1 X127.313 Y128.584 E0.03424
G1 X126.673 Y128.584 E0.02408
G1 X126.500 Y128.410 E0.00922
;WIPE_START
G1 F8640.000
G1 X126.673 Y128.584 E-0.05657
G1 X127.313 Y128.584 E-0.14777
G1 X126.670 Y127.940 E-0.21013
G1 X126.670 Y127.300 E-0.14776
G1 X127.276 Y127.906 E-0.19777
;WIPE_END
G1 E-0.04000 F2100.000
G1 Z0.600 F10800.000
G1 X128.708 Y128.956
G1 Z0.200
G1 E0.80000 F2100.000
;TYPE:Gap fill
;WIDTH:0.125141
G1 F1200.000
G1 X129.113 Y129.026 E0.00281
G1 X129.509 Y129.051 E0.00271
;WIPE_START
G1 F8640.000
G1 X129.113 Y129.026 E-0.09148
G1 X128.708 Y128.956 E-0.09502
;WIPE_END
G1 E-0.61350 F2100.000
G1 Z0.600 F10800.000
G1 X130.812 Y129.048
G1 Z0.200
G1 E0.80000 F2100.000
;WIDTH:0.132559
G1 F1200.000
G1 X130.979 Y129.017 E0.00126
;WIDTH:0.171799
G1 X131.146 Y128.986 E0.00182
;WIDTH:0.211039
G1 X131.313 Y128.954 E0.00237
;WIDTH:0.250279
G1 X131.479 Y128.923 E0.00293
;WIPE_START
G1 F8640.000
G1 X131.313 Y128.954 E-0.03918
;WIPE_END
G1 E-0.76082 F2100.000
G1 Z0.600 F10800.000
G1 X132.453 Y128.321
G1 Z0.200
G1 E0.80000 F2100.000
;TYPE:Solid infill
;WIDTH:0.465631
G1 F1200.000
G1 X132.884 Y128.753 E0.02145
;WIPE_START
G1 F8640.000
G1 X132.453 Y128.321 E-0.14094
;WIPE_END
G1 E-0.65906 F2100.000
G1 Z0.600 F10800.000
G1 X133.002 Y124.566
G1 Z0.200
G1 E0.80000 F2100.000
;TYPE:Gap fill
;WIDTH:0.133676
G1 F1200.000
G1 X132.939 Y123.910 E0.00497
;WIDTH:0.231788
G1 X132.896 Y123.766 E0.00235
;WIPE_START
G1 F8640.000
G1 X132.939 Y123.910 E-0.03455
;WIPE_END
G1 E-0.76545 F2100.000
G1 Z0.600 F10800.000
G1 X123.500 Y127.859
G1 Z0.200
G1 E0.80000 F2100.000
;TYPE:Solid infill
;WIDTH:0.437432
G1 F1200.000
G1 X122.870 Y127.229 E0.02922
G1 X122.312 Y127.229 E0.01831
G1 X123.330 Y128.247 E0.04724
G1 X123.330 Y128.583 E0.01103
G1 X123.108 Y128.583 E0.00727
G1 X121.754 Y127.229 E0.06284
G1 X121.196 Y127.228 E0.01831
G1 X122.551 Y128.583 E0.06285
G1 X121.993 Y128.583 E0.01830
G1 X120.638 Y127.228 E0.06286
G1 X120.079 Y127.228 E0.01831
G1 X121.435 Y128.583 E0.06287
G1 X120.877 Y128.583 E0.01830
G1 X119.521 Y127.228 E0.06287
G1 X118.963 Y127.228 E0.01831
G1 X120.319 Y128.583 E0.06288
G1 X119.761 Y128.583 E0.01830
G1 X118.405 Y127.228 E0.06289
G1 X117.840 Y127.220 E0.01854
G1 X119.203 Y128.583 E0.06322
G1 X118.645 Y128.583 E0.01830
G1 X117.266 Y127.204 E0.06397
G1 X117.064 Y127.198 E0.00664
G1 X117.065 Y127.561 E0.01190
G1 X118.087 Y128.583 E0.04741
G1 X117.529 Y128.583 E0.01830
G1 X116.897 Y127.951 E0.02933
;WIPE_START
G1 F8640.000
G1 X117.529 Y128.583 E-0.20648
G1 X118.087 Y128.583 E-0.12883
G1 X117.065 Y127.561 E-0.33371
G1 X117.064 Y127.198 E-0.08374
G1 X117.095 Y127.199 E-0.00724
;WIPE_END
G1 E-0.04000 F2100.000
G1 Z0.600 F10800.000
G1 X122.164 Y126.758
G1 Z0.200
G1 E0.80000 F2100.000
;TYPE:Gap fill
;WIDTH:0.116872
G1 F1200.000
G1 X122.164 Y124.361 E0.01474
;WIPE_START
G1 F8640.000
G1 X122.164 Y126.758 E-0.55354
;WIPE_END
G1 E-0.24646 F2100.000
G1 Z0.600 F10800.000
G1 X131.599 Y84.745
G1 Z0.200
G1 E0.80000 F2100.000
;TYPE:Solid infill
;WIDTH:0.423558
G1 F1200.000
G1 X130.921 Y84.067 E0.03035
G1 X129.501 Y82.809 E0.06004
G1 X128.709 Y82.394 E0.02831
G1 X132.047 Y85.732 E0.14944
G1 X132.376 Y86.599 E0.02935
G1 X127.662 Y81.885 E0.21100
G1 X126.948 Y81.709 E0.02329
G1 X132.695 Y87.457 E0.25727
G1 X132.770 Y88.070 E0.01953
G1 X126.233 Y81.533 E0.29257
G1 X125.955 Y81.465 E0.00907
G1 X125.627 Y81.465 E0.01040
G1 X132.844 Y88.682 E0.32307
G1 X132.919 Y89.295 E0.01953
G1 X125.088 Y81.465 E0.35049
G1 X124.550 Y81.465 E0.01704
G1 X132.930 Y89.845 E0.37510
G1 X132.930 Y90.383 E0.01704
G1 X124.018 Y81.471 E0.39890
G1 X123.586 Y81.578 E0.01408
G1 X132.930 Y90.921 E0.41823
G1 X132.930 Y91.460 E0.01704
G1 X123.155 Y81.684 E0.43756
G1 X122.723 Y81.791 E0.01408
G1 X132.930 Y91.998 E0.45689
G1 X132.930 Y92.536 E0.01704
G1 X122.291 Y81.897 E0.47622
G1 X122.191 Y81.922 E0.00326
G1 X121.920 Y82.064 E0.00970
G1 X132.930 Y93.075 E0.49283
G1 X132.930 Y93.613 E0.01704
G1 X121.567 Y82.249 E0.50864
G1 X121.214 Y82.435 E0.01262
G1 X132.930 Y94.151 E0.52444
G1 X132.930 Y94.689 E0.01704
G1 X120.860 Y82.620 E0.54024
G1 X120.507 Y82.805 E0.01262
G1 X132.930 Y95.228 E0.55604
G1 X132.930 Y95.766 E0.01704
G1 X120.221 Y83.056 E0.56888
G1 X119.935 Y83.309 E0.01207
G1 X132.930 Y96.304 E0.58166
G1 X132.930 Y96.843 E0.01704
G1 X119.650 Y83.562 E0.59443
G1 X119.364 Y83.815 E0.01207
G1 X132.930 Y97.381 E0.60721
G1 X132.930 Y97.919 E0.01704
G1 X119.079 Y84.068 E0.61999
G1 X118.857 Y84.384 E0.01223
G1 X132.930 Y98.458 E0.62991
G1 X132.930 Y98.996 E0.01704
G1 X118.637 Y84.703 E0.63975
G1 X118.417 Y85.021 E0.01225
G1 X132.930 Y99.534 E0.64959
G1 X132.930 Y100.072 E0.01704
G1 X118.198 Y85.340 E0.65943
G1 X117.980 Y85.661 E0.01227
G1 X132.930 Y100.611 E0.66916
G1 X132.930 Y101.149 E0.01704
G1 X117.832 Y86.051 E0.67579
G1 X117.684 Y86.441 E0.01321
G1 X132.930 Y101.687 E0.68241
G1 X132.930 Y102.226 E0.01704
G1 X117.536 Y86.832 E0.68904
G1 X117.388 Y87.222 E0.01321
