; generated by PrusaSlicer 2.3.1+win64 on 2021-06-07 at 18:18:30 UTC

; 

; external perimeters extrusion width = 0.45mm
; perimeters extrusion width = 0.45mm
; infill extrusion width = 0.45mm
; solid infill extrusion width = 0.45mm
; top infill extrusion width = 0.40mm
; support material extrusion width = 0.35mm
; first layer extrusion width = 0.42mm

M73 P0 R27
M73 Q0 S27
M201 X1000 Y1000 Z200 E5000 ; sets maximum accelerations, mm/sec^2
M203 X200 Y200 Z12 E120 ; sets maximum feedrates, mm/sec
M204 P1250 R1250 T1250 ; sets acceleration (P, T) and retract acceleration (R), mm/sec^2
M205 X8.00 Y8.00 Z0.40 E4.50 ; sets the jerk limits, mm/sec
M205 S0 T0 ; sets the minimum extruding and travel feed rate, mm/sec
M107
;TYPE:Custom
M862.3 P "MK3S" ; printer model check
M862.1 P0.4 ; nozzle diameter check
M115 U3.9.3 ; tell printer latest fw version
G90 ; use absolute coordinates
M83 ; extruder relative mode
M104 S215 ; set extruder temp
M140 S60 ; set bed temp
M190 S60 ; wait for bed temp
M109 S215 ; wait for extruder temp
G28 W ; home all without mesh bed level
G80 ; mesh bed leveling
G1 Y-3.0 F1000.0 ; go outside print area
G92 E0.0
G1 X60.0 E9.0 F1000.0 ; intro line
G1 X100.0 E12.5 F1000.0 ; intro line
G92 E0.0
M221 S95

; Don't change E values below. Excessive value can damage the printer.
M907 E430 ; set extruder motor current
G21 ; set units to millimeters
G90 ; use absolute coordinates
M83 ; use relative distances for extrusion
M900 K0.05 ; Filament gcode LA 1.5
M900 K30 ; Filament gcode LA 1.0
;LAYER_CHANGE
;Z:0.2
;HEIGHT:0.2
;BEFORE_LAYER_CHANGE
G92 E0.0
;0.2


G1 E-0.80000 F2100.000
G1 Z0.400 F10800.000
;AFTER_LAYER_CHANGE
;0.2
G1 X51.217 Y56.028
G1 Z0.200
G1 E0.80000 F2100.000
M204 S1000
;TYPE:Skirt
;WIDTH:0.42
G1 F1200.000
G1 X51.936 Y55.408 E0.02977
G1 X52.539 Y55.024 E0.02240
G1 X53.200 Y54.725 E0.02276
G1 X54.188 Y54.449 E0.03216
G1 X55.085 Y54.365 E0.02824
G1 X115.024 Y54.023 E1.87939
G1 X134.823 Y53.997 E0.62078
G1 X135.814 Y54.134 E0.03136
G1 X136.645 Y54.409 E0.02744
G1 X137.445 Y54.833 E0.02840
G1 X138.110 Y55.342 E0.02626
G1 X138.731 Y56.006 E0.02851
G1 X139.207 Y56.728 E0.02709
G1 X139.564 Y57.531 E0.02756
G1 X139.774 Y58.334 E0.02602
G1 X139.856 Y59.224 E0.02804
G1 X139.963 Y69.224 E0.31356
G1 X140.014 Y79.531 E0.32318
G1 X139.945 Y80.379 E0.02667
G1 X120.277 Y150.823 E2.29319
M73 P1 R27
M73 Q1 S27
G1 X120.020 Y151.560 E0.02447
G1 X119.675 Y152.217 E0.02327
G1 X118.962 Y153.132 E0.03634
G1 X118.361 Y153.664 E0.02518
G1 X117.525 Y154.177 E0.03076
G1 X116.243 Y154.618 E0.04250
G1 X115.363 Y154.723 E0.02778
G1 X105.415 Y154.516 E0.31200
G1 X104.646 Y154.447 E0.02419
G1 X103.921 Y154.271 E0.02339
G1 X53.535 Y135.475 E1.68618
M73 P1 R26
G1 X52.803 Y135.149 E0.02513
G1 X52.183 Y134.756 E0.02299
G1 X51.397 Y134.068 E0.03275
G1 X50.812 Y133.324 E0.02967
G1 X50.371 Y132.508 E0.02908
G1 X50.077 Y131.637 E0.02884
G1 X49.929 Y130.653 E0.03121
G1 X49.416 Y69.288 E1.92410
G1 X49.699 Y59.268 E0.31432
G1 X49.844 Y58.463 E0.02564
G1 X50.153 Y57.588 E0.02908
G1 X50.585 Y56.807 E0.02800
G1 X51.179 Y56.074 E0.02957
; printing object Joint 4 Output spacers.STL id:25 copy 0
;WIPE_START
G1 F8640.000
G1 X51.936 Y55.408 E-0.23290
G1 X52.539 Y55.024 E-0.16495
G1 X53.200 Y54.725 E-0.16760
G1 X54.012 Y54.499 E-0.19456
;WIPE_END
G1 E-0.04000 F2100.000
G1 Z0.600 F10800.000
G1 X113.958 Y147.919
G1 Z0.200
G1 E0.80000 F2100.000
;TYPE:External perimeter
G1 F1200.000
G1 X114.331 Y147.685 E0.01378
G1 X114.745 Y147.540 E0.01378
G1 X115.136 Y147.496 E0.01232
G1 X115.617 Y147.539 E0.01514
G1 X116.034 Y147.685 E0.01386
G1 X116.406 Y147.919 E0.01378
G1 X116.717 Y148.229 E0.01378
G1 X116.950 Y148.601 E0.01378
G1 X117.096 Y149.016 E0.01378
G1 X117.145 Y149.453 E0.01378
G1 X117.096 Y149.890 E0.01378
G1 X116.950 Y150.305 E0.01378
G1 X116.717 Y150.677 E0.01378
G1 X116.406 Y150.987 E0.01378
G1 X116.034 Y151.221 E0.01378
G1 X115.619 Y151.366 E0.01378
G1 X115.182 Y151.416 E0.01378
G1 X114.745 Y151.366 E0.01378
G1 X114.331 Y151.221 E0.01378
G1 X113.958 Y150.987 E0.01378
G1 X113.648 Y150.677 E0.01378
G1 X113.414 Y150.305 E0.01378
G1 X113.269 Y149.890 E0.01378
G1 X113.220 Y149.453 E0.01378
G1 X113.269 Y149.016 E0.01378
G1 X113.414 Y148.601 E0.01378
G1 X113.648 Y148.229 E0.01378
G1 X113.916 Y147.961 E0.01190
G1 X113.899 Y147.523 F10800.000
G1 X113.654 Y147.489
G1 F1200.000
G1 X113.998 Y147.264 E0.01289
G1 X114.374 Y147.099 E0.01289
G1 X114.773 Y146.998 E0.01289
G1 X115.182 Y146.964 E0.01289
G1 X115.579 Y146.997 E0.01248
G1 X115.991 Y147.099 E0.01330
G1 X116.367 Y147.264 E0.01287
G1 X116.711 Y147.489 E0.01289
G1 X117.013 Y147.768 E0.01289
G1 X117.265 Y148.092 E0.01289
G1 X117.461 Y148.453 E0.01289
G1 X117.595 Y148.842 E0.01289
G1 X117.660 Y149.235 E0.01248
G1 X117.662 Y149.659 E0.01330
G1 X117.595 Y150.064 E0.01287
G1 X117.461 Y150.453 E0.01289
G1 X117.265 Y150.814 E0.01289
G1 X117.013 Y151.139 E0.01289
G1 X116.711 Y151.417 E0.01289
G1 X116.367 Y151.642 E0.01289
G1 X115.990 Y151.807 E0.01289
G1 X115.592 Y151.908 E0.01289
G1 X115.182 Y151.942 E0.01289
G1 X114.773 Y151.908 E0.01289
G1 X114.374 Y151.807 E0.01289
G1 X114.009 Y151.647 E0.01248
G1 X113.653 Y151.417 E0.01330
G1 X113.351 Y151.139 E0.01287
G1 X113.099 Y150.814 E0.01289
G1 X112.903 Y150.453 E0.01289
G1 X112.770 Y150.064 E0.01289
G1 X112.702 Y149.659 E0.01289
G1 X112.702 Y149.248 E0.01289
G1 X112.770 Y148.842 E0.01289
G1 X112.903 Y148.453 E0.01289
G1 X113.099 Y148.092 E0.01289
G1 X113.351 Y147.768 E0.01289
G1 X113.609 Y147.530 E0.01101
G1 X114.024 Y147.640 F10800.000
G1 X113.789 Y147.719
;TYPE:Gap fill
;WIDTH:0.18259
G1 F1200.000
G1 X114.211 Y147.454 E0.00578
G1 X114.680 Y147.289 E0.00578
G1 X115.140 Y147.232 E0.00539
G1 X115.535 Y147.263 E0.00460
G1 X115.904 Y147.355 E0.00441
G1 X116.239 Y147.499 E0.00425
G1 X116.563 Y147.709 E0.00447
G1 X116.914 Y148.062 E0.00579
G1 X117.189 Y148.496 E0.00596
G1 X117.337 Y148.907 E0.00508
G1 X117.392 Y149.258 E0.00412
G1 X117.394 Y149.637 E0.00441
G1 X117.337 Y149.999 E0.00425
G1 X117.181 Y150.425 E0.00527
G1 X116.914 Y150.844 E0.00578
G1 X116.563 Y151.198 E0.00579
G1 X116.154 Y151.452 E0.00560
G1 X115.684 Y151.618 E0.00578
G1 X115.182 Y151.679 E0.00587
G1 X114.817 Y151.643 E0.00426
G1 X114.462 Y151.552 E0.00426
G1 X114.136 Y151.412 E0.00412
G1 X113.801 Y151.198 E0.00461
G1 X113.450 Y150.844 E0.00579
G1 X113.176 Y150.410 E0.00596
G1 X113.027 Y149.999 E0.00508
G1 X112.970 Y149.636 E0.00426
G1 X112.970 Y149.270 E0.00426
G1 X113.027 Y148.907 E0.00426
G1 X113.183 Y148.481 E0.00527
G1 X113.440 Y148.074 E0.00560
G1 X113.746 Y147.761 E0.00508
; stop printing object Joint 4 Output spacers.STL id:25 copy 0
; printing object Joint 4 Output spacers.STL id:24 copy 0
;WIPE_START
G1 F8640.000
G1 X114.211 Y147.454 E-0.12860
G1 X114.680 Y147.289 E-0.11492
G1 X115.140 Y147.232 E-0.10708
G1 X115.535 Y147.263 E-0.09148
G1 X115.904 Y147.355 E-0.08768
G1 X116.239 Y147.499 E-0.08440
G1 X116.563 Y147.709 E-0.08894
G1 X116.737 Y147.883 E-0.05689
;WIPE_END
G1 E-0.04000 F2100.000
G1 Z0.600 F10800.000
G1 X114.601 Y141.735
G1 Z0.200
G1 E0.80000 F2100.000
;TYPE:External perimeter
;WIDTH:0.42
G1 F1200.000
G1 X114.186 Y141.590 E0.01378
G1 X113.814 Y141.356 E0.01378
G1 X113.503 Y141.046 E0.01378
G1 X113.270 Y140.674 E0.01378
G1 X113.124 Y140.259 E0.01378
G1 X113.075 Y139.822 E0.01378
G1 X113.124 Y139.385 E0.01378
G1 X113.270 Y138.970 E0.01378
G1 X113.503 Y138.598 E0.01378
G1 X113.814 Y138.288 E0.01378
G1 X114.186 Y138.054 E0.01378
G1 X114.601 Y137.909 E0.01378
G1 X114.992 Y137.865 E0.01232
G1 X115.472 Y137.908 E0.01514
G1 X115.889 Y138.054 E0.01386
G1 X116.262 Y138.288 E0.01378
G1 X116.572 Y138.598 E0.01378
G1 X116.806 Y138.970 E0.01378
G1 X116.951 Y139.385 E0.01378
G1 X117.000 Y139.822 E0.01378
G1 X116.951 Y140.259 E0.01378
G1 X116.806 Y140.674 E0.01378
G1 X116.572 Y141.046 E0.01378
G1 X116.262 Y141.356 E0.01378
G1 X115.889 Y141.590 E0.01378
G1 X115.475 Y141.735 E0.01378
G1 X115.038 Y141.785 E0.01378
G1 X114.661 Y141.742 E0.01190
G1 X114.329 Y142.029 F10800.000
G1 X114.628 Y142.277
G1 F1200.000
G1 X114.230 Y142.176 E0.01289
G1 X113.865 Y142.016 E0.01248
G1 X113.509 Y141.785 E0.01330
G1 X113.207 Y141.507 E0.01287
G1 X112.954 Y141.183 E0.01289
G1 X112.759 Y140.822 E0.01289
G1 X112.625 Y140.433 E0.01289
G1 X112.558 Y140.027 E0.01289
G1 X112.558 Y139.616 E0.01289
G1 X112.625 Y139.211 E0.01289
G1 X112.759 Y138.822 E0.01289
G1 X112.954 Y138.461 E0.01289
G1 X113.207 Y138.136 E0.01289
G1 X113.509 Y137.858 E0.01289
G1 X113.853 Y137.633 E0.01289
G1 X114.230 Y137.468 E0.01289
G1 X114.628 Y137.367 E0.01289
G1 X115.038 Y137.333 E0.01289
G1 X115.435 Y137.366 E0.01248
G1 X115.846 Y137.468 E0.01330
G1 X116.222 Y137.633 E0.01287
G1 X116.566 Y137.858 E0.01289
G1 X116.869 Y138.136 E0.01289
G1 X117.121 Y138.461 E0.01289
G1 X117.317 Y138.822 E0.01289
G1 X117.450 Y139.211 E0.01289
G1 X117.516 Y139.604 E0.01248
G1 X117.518 Y140.028 E0.01330
G1 X117.450 Y140.433 E0.01287
G1 X117.317 Y140.822 E0.01289
G1 X117.121 Y141.183 E0.01289
G1 X116.869 Y141.507 E0.01289
G1 X116.566 Y141.786 E0.01289
G1 X116.222 Y142.011 E0.01289
G1 X115.846 Y142.176 E0.01289
G1 X115.447 Y142.277 E0.01289
G1 X115.038 Y142.311 E0.01289
G1 X114.688 Y142.282 E0.01101
G1 X114.488 Y141.902 F10800.000
G1 X115.038 Y142.048
;TYPE:Gap fill
;WIDTH:0.18259
G1 F1200.000
G1 X114.551 Y141.990 E0.00569
G1 X114.081 Y141.828 E0.00578
G1 X113.671 Y141.577 E0.00558
G1 X113.405 Y141.325 E0.00425
G1 X113.180 Y141.036 E0.00426
G1 X113.003 Y140.715 E0.00426
G1 X112.872 Y140.325 E0.00478
M73 Q1 S26
G1 X112.816 Y139.830 E0.00578
G1 X112.872 Y139.319 E0.00596
G1 X113.003 Y138.929 E0.00478
G1 X113.180 Y138.608 E0.00426
G1 X113.405 Y138.318 E0.00426
G1 X113.671 Y138.066 E0.00426
G1 X114.081 Y137.816 E0.00557
G1 X114.551 Y137.654 E0.00578
G1 X114.996 Y137.601 E0.00520
G1 X115.519 Y137.653 E0.00610
G1 X115.995 Y137.816 E0.00585
G1 X116.404 Y138.066 E0.00557
G1 X116.671 Y138.318 E0.00426
G1 X116.896 Y138.608 E0.00426
G1 X117.073 Y138.929 E0.00426
G1 X117.204 Y139.319 E0.00478
G1 X117.259 Y139.814 E0.00578
G1 X117.204 Y140.325 E0.00596
G1 X117.073 Y140.715 E0.00478
G1 X116.896 Y141.036 E0.00426
G1 X116.671 Y141.325 E0.00426
G1 X116.404 Y141.577 E0.00426
G1 X115.995 Y141.828 E0.00557
G1 X115.525 Y141.990 E0.00578
G1 X115.098 Y142.042 E0.00500
; stop printing object Joint 4 Output spacers.STL id:24 copy 0
; printing object Joint 4 Output spacers.STL id:19 copy 0
;WIPE_START
G1 F8640.000
G1 X114.551 Y141.990 E-0.12677
G1 X114.081 Y141.828 E-0.11490
G1 X113.671 Y141.577 E-0.11101
G1 X113.405 Y141.325 E-0.08449
G1 X113.180 Y141.036 E-0.08464
G1 X113.003 Y140.715 E-0.08469
G1 X112.872 Y140.325 E-0.09500
G1 X112.843 Y140.073 E-0.05850
;WIPE_END
G1 E-0.04000 F2100.000
G1 Z0.600 F10800.000
G1 X107.278 Y140.046
G1 Z0.200
G1 E0.80000 F2100.000
;TYPE:External perimeter
;WIDTH:0.42
G1 F1200.000
G1 X107.133 Y140.461 E0.01378
G1 X106.899 Y140.833 E0.01378
G1 X106.588 Y141.144 E0.01378
G1 X106.216 Y141.378 E0.01378
G1 X105.801 Y141.523 E0.01378
G1 X105.364 Y141.572 E0.01378
G1 X104.928 Y141.523 E0.01378
G1 X104.513 Y141.378 E0.01378
G1 X104.141 Y141.144 E0.01378
G1 X103.830 Y140.833 E0.01378
G1 X103.596 Y140.461 E0.01378
G1 X103.451 Y140.046 E0.01378
G1 X103.402 Y139.610 E0.01378
G1 X103.451 Y139.173 E0.01378
G1 X103.596 Y138.758 E0.01378
G1 X103.830 Y138.386 E0.01378
G1 X104.141 Y138.075 E0.01378
G1 X104.513 Y137.841 E0.01378
G1 X104.928 Y137.696 E0.01378
G1 X105.318 Y137.652 E0.01232
G1 X105.799 Y137.695 E0.01514
G1 X106.216 Y137.841 E0.01386
G1 X106.588 Y138.075 E0.01378
G1 X106.899 Y138.386 E0.01378
G1 X107.133 Y138.758 E0.01378
G1 X107.278 Y139.173 E0.01378
G1 X107.327 Y139.610 E0.01378
G1 X107.285 Y139.987 E0.01190
G1 X107.571 Y140.318 F10800.000
G1 X107.844 Y139.816
G1 F1200.000
G1 X107.777 Y140.221 E0.01287
G1 X107.643 Y140.609 E0.01289
G1 X107.448 Y140.971 E0.01289
G1 X107.195 Y141.295 E0.01289
G1 X106.893 Y141.574 E0.01289
G1 X106.549 Y141.798 E0.01289
G1 X106.173 Y141.963 E0.01289
G1 X105.774 Y142.064 E0.01289
G1 X105.364 Y142.098 E0.01289
G1 X104.955 Y142.064 E0.01289
G1 X104.556 Y141.963 E0.01289
G1 X104.192 Y141.804 E0.01248
G1 X103.836 Y141.573 E0.01330
G1 X103.534 Y141.295 E0.01287
G1 X103.281 Y140.971 E0.01289
G1 X103.085 Y140.609 E0.01289
G1 X102.952 Y140.221 E0.01289
G1 X102.884 Y139.815 E0.01289
G1 X102.884 Y139.404 E0.01289
G1 X102.952 Y138.999 E0.01289
G1 X103.085 Y138.610 E0.01289
G1 X103.281 Y138.249 E0.01289
G1 X103.534 Y137.924 E0.01289
G1 X103.836 Y137.646 E0.01289
G1 X104.180 Y137.421 E0.01289
G1 X104.556 Y137.256 E0.01289
G1 X104.955 Y137.155 E0.01289
G1 X105.364 Y137.121 E0.01289
G1 X105.761 Y137.154 E0.01248
G1 X106.173 Y137.256 E0.01330
G1 X106.549 Y137.421 E0.01287
G1 X106.893 Y137.646 E0.01289
G1 X107.195 Y137.924 E0.01289
G1 X107.448 Y138.249 E0.01289
G1 X107.643 Y138.610 E0.01289
G1 X107.777 Y138.999 E0.01289
G1 X107.842 Y139.391 E0.01248
G1 X107.844 Y139.756 E0.01142
G1 X107.483 Y139.986 F10800.000
G1 X107.586 Y139.602
;TYPE:Gap fill
;WIDTH:0.18259
G1 F1200.000
G1 X107.531 Y140.112 E0.00596
G1 X107.400 Y140.502 E0.00478
G1 X107.222 Y140.823 E0.00426
M73 Q2 S26
G1 X106.998 Y141.113 E0.00426
G1 X106.731 Y141.365 E0.00426
G1 X106.322 Y141.615 E0.00557
G1 X105.851 Y141.778 E0.00578
G1 X105.364 Y141.835 E0.00569
G1 X104.878 Y141.778 E0.00569
G1 X104.407 Y141.615 E0.00578
G1 X103.997 Y141.364 E0.00558
G1 X103.731 Y141.113 E0.00425
G1 X103.507 Y140.823 E0.00426
G1 X103.329 Y140.502 E0.00426
G1 X103.198 Y140.112 E0.00478
M73 P2 R26
G1 X103.143 Y139.618 E0.00578
G1 X103.198 Y139.107 E0.00596
G1 X103.329 Y138.717 E0.00478
G1 X103.507 Y138.396 E0.00426
G1 X103.731 Y138.106 E0.00426
G1 X103.998 Y137.854 E0.00426
G1 X104.407 Y137.604 E0.00557
G1 X104.878 Y137.442 E0.00578
G1 X105.323 Y137.389 E0.00520
G1 X105.718 Y137.419 E0.00460
G1 X106.086 Y137.511 E0.00441
G1 X106.422 Y137.656 E0.00425
G1 X106.758 Y137.876 E0.00466
G1 X107.097 Y138.218 E0.00560
G1 X107.371 Y138.652 E0.00596
G1 X107.531 Y139.107 E0.00560
G1 X107.582 Y139.542 E0.00509
; stop printing object Joint 4 Output spacers.STL id:19 copy 0
; printing object Joint 4 Output spacers.STL id:20 copy 0
;WIPE_START
G1 F8640.000
G1 X107.531 Y140.112 E-0.13223
G1 X107.400 Y140.502 E-0.09500
G1 X107.222 Y140.823 E-0.08469
G1 X106.998 Y141.113 E-0.08464
G1 X106.731 Y141.365 E-0.08475
G1 X106.322 Y141.615 E-0.11075
G1 X105.851 Y141.778 E-0.11490
G1 X105.623 Y141.805 E-0.05303
;WIPE_END
G1 E-0.04000 F2100.000
G1 Z0.600 F10800.000
G1 X105.943 Y147.327
G1 Z0.200
G1 E0.80000 F2100.000
;TYPE:External perimeter
;WIDTH:0.42
G1 F1200.000
G1 X106.360 Y147.473 E0.01386
G1 X106.732 Y147.706 E0.01378
G1 X107.043 Y148.017 E0.01378
G1 X107.277 Y148.389 E0.01378
G1 X107.422 Y148.804 E0.01378
G1 X107.471 Y149.241 E0.01378
G1 X107.422 Y149.677 E0.01378
G1 X107.277 Y150.092 E0.01378
G1 X107.043 Y150.464 E0.01378
G1 X106.732 Y150.775 E0.01378
G1 X106.360 Y151.009 E0.01378
G1 X105.945 Y151.154 E0.01378
G1 X105.509 Y151.203 E0.01378
G1 X105.072 Y151.154 E0.01378
G1 X104.657 Y151.009 E0.01378
G1 X104.285 Y150.775 E0.01378
G1 X103.974 Y150.464 E0.01378
G1 X103.741 Y150.092 E0.01378
G1 X103.595 Y149.677 E0.01378
G1 X103.546 Y149.241 E0.01378
G1 X103.595 Y148.804 E0.01378
G1 X103.741 Y148.389 E0.01378
G1 X103.974 Y148.017 E0.01378
G1 X104.285 Y147.706 E0.01378
G1 X104.657 Y147.473 E0.01378
G1 X105.072 Y147.327 E0.01378
G1 X105.462 Y147.283 E0.01232
G1 X105.883 Y147.321 E0.01325
G1 X106.215 Y147.033 F10800.000
G1 X106.317 Y146.887
G1 F1200.000
G1 X106.693 Y147.052 E0.01287
G1 X107.037 Y147.277 E0.01289
G1 X107.340 Y147.555 E0.01289
G1 X107.592 Y147.880 E0.01289
G1 X107.788 Y148.241 E0.01289
G1 X107.921 Y148.630 E0.01289
G1 X107.987 Y149.023 E0.01248
G1 X107.989 Y149.447 E0.01330
G1 X107.921 Y149.852 E0.01287
G1 X107.788 Y150.240 E0.01289
G1 X107.592 Y150.602 E0.01289
G1 X107.340 Y150.926 E0.01289
G1 X107.037 Y151.205 E0.01289
G1 X106.693 Y151.429 E0.01289
G1 X106.317 Y151.594 E0.01289
G1 X105.918 Y151.695 E0.01289
G1 X105.509 Y151.729 E0.01289
G1 X105.099 Y151.695 E0.01289
G1 X104.701 Y151.594 E0.01289
G1 X104.336 Y151.435 E0.01248
G1 X103.980 Y151.204 E0.01330
G1 X103.678 Y150.926 E0.01287
